( pcb2gcode 1.3.0 )
( Software-independent Gcode )

G94 ( Millimeters per minute feed rate. )
G21 ( Units == Millimeters. )

G90 ( Absolute coordinates. )
S10000 ( RPM spindle speed. )
G64 P0.00200 ( set maximum deviation from commanded toolpath )
F600.00000 ( Feedrate. )

F600.00000 ( Feedrate. )
M3 ( Spindle on clockwise. )
G04 P0 ( dwell for no time -- G64 should not smooth over this point )
G00 Z5.00000 ( retract )

G00 X3.44720 Y12.41480 ( rapid move to begin. )
F300.00000
G01 Z-0.05000
G04 P0 ( dwell for no time -- G64 should not smooth over this point )
F600.00000
X3.44720 Y12.41480
X3.34560 Y12.38940
X3.16780 Y12.23700
X3.14240 Y12.13540
X3.09160 Y12.11000
X3.01540 Y11.95760
X2.96460 Y11.70360
X2.96460 Y11.37340
X3.01540 Y11.11940
X3.09160 Y10.96700
X3.14240 Y10.94160
X3.16780 Y10.84000
X3.34560 Y10.68760
X3.70120 Y10.56060
X12.56580 Y10.56060
X12.92140 Y10.68760
X13.09920 Y10.84000
X13.12460 Y10.94160
X13.17540 Y10.96700
X13.25160 Y11.11940
X13.30240 Y11.37340
X13.27700 Y11.85600
X13.09920 Y12.23700
X12.92140 Y12.38940
X12.56580 Y12.51640
X3.70120 Y12.51640
X3.49800 Y12.46560
X3.44720 Y12.41480
G04 P0 ( dwell for no time -- G64 should not smooth over this point )
G00 Z5.00000 ( retract )

G00 X3.44720 Y17.49480 ( rapid move to begin. )
F300.00000
G01 Z-0.05000
G04 P0 ( dwell for no time -- G64 should not smooth over this point )
F600.00000
X3.44720 Y17.49480
X3.34560 Y17.46940
X3.16780 Y17.31700
X3.14240 Y17.21540
X3.09160 Y17.19000
X3.01540 Y17.03760
X2.96460 Y16.78360
X2.96460 Y16.45340
X3.01540 Y16.19940
X3.09160 Y16.04700
X3.14240 Y16.02160
X3.16780 Y15.92000
X3.34560 Y15.76760
X3.70120 Y15.64060
X12.56580 Y15.64060
X12.92140 Y15.76760
X13.09920 Y15.92000
X13.12460 Y16.02160
X13.17540 Y16.04700
X13.25160 Y16.19940
X13.30240 Y16.45340
X13.27700 Y16.93600
X13.09920 Y17.31700
X12.92140 Y17.46940
X12.56580 Y17.59640
X3.70120 Y17.59640
X3.49800 Y17.54560
X3.44720 Y17.49480
G04 P0 ( dwell for no time -- G64 should not smooth over this point )
G00 Z5.00000 ( retract )

G00 X3.44720 Y22.57480 ( rapid move to begin. )
F300.00000
G01 Z-0.05000
G04 P0 ( dwell for no time -- G64 should not smooth over this point )
F600.00000
X3.44720 Y22.57480
X3.34560 Y22.54940
X3.16780 Y22.39700
X3.14240 Y22.29540
X3.09160 Y22.27000
X3.01540 Y22.11760
X2.96460 Y21.86360
X2.96460 Y21.53340
X3.01540 Y21.27940
X3.09160 Y21.12700
X3.14240 Y21.10160
X3.16780 Y21.00000
X3.34560 Y20.84760
X3.70120 Y20.72060
X12.56580 Y20.72060
X12.92140 Y20.84760
X13.09920 Y21.00000
X13.12460 Y21.10160
X13.17540 Y21.12700
X13.25160 Y21.27940
X13.30240 Y21.53340
X13.27700 Y22.01600
X13.09920 Y22.39700
X12.92140 Y22.54940
X12.56580 Y22.67640
X3.70120 Y22.67640
X3.49800 Y22.62560
X3.44720 Y22.57480
G04 P0 ( dwell for no time -- G64 should not smooth over this point )
G00 Z5.00000 ( retract )

G00 X3.44720 Y25.11480 ( rapid move to begin. )
F300.00000
G01 Z-0.05000
G04 P0 ( dwell for no time -- G64 should not smooth over this point )
F600.00000
X3.44720 Y25.11480
X3.34560 Y25.08940
X3.16780 Y24.93700
X3.14240 Y24.83540
X3.09160 Y24.81000
X3.01540 Y24.65760
X2.96460 Y24.40360
X2.96460 Y24.07340
X3.01540 Y23.81940
X3.09160 Y23.66700
X3.14240 Y23.64160
X3.16780 Y23.54000
X3.34560 Y23.38760
X3.70120 Y23.26060
X12.56580 Y23.26060
X12.92140 Y23.38760
X13.09920 Y23.54000
X13.12460 Y23.64160
X13.17540 Y23.66700
X13.25160 Y23.81940
X13.30240 Y24.07340
X13.27700 Y24.55600
X13.09920 Y24.93700
X12.92140 Y25.08940
X12.56580 Y25.21640
X3.70120 Y25.21640
X3.49800 Y25.16560
X3.44720 Y25.11480
G04 P0 ( dwell for no time -- G64 should not smooth over this point )
G00 Z5.00000 ( retract )

G00 X3.44720 Y27.65480 ( rapid move to begin. )
F300.00000
G01 Z-0.05000
G04 P0 ( dwell for no time -- G64 should not smooth over this point )
F600.00000
X3.44720 Y27.65480
X3.34560 Y27.62940
X3.16780 Y27.47700
X3.14240 Y27.37540
X3.09160 Y27.35000
X3.01540 Y27.19760
X2.96460 Y26.94360
X2.96460 Y26.61340
X3.01540 Y26.35940
X3.09160 Y26.20700
X3.14240 Y26.18160
X3.16780 Y26.08000
X3.34560 Y25.92760
X3.70120 Y25.80060
X12.56580 Y25.80060
X12.92140 Y25.92760
X13.09920 Y26.08000
X13.12460 Y26.18160
X13.17540 Y26.20700
X13.25160 Y26.35940
X13.30240 Y26.61340
X13.27700 Y27.09600
X13.09920 Y27.47700
X12.92140 Y27.62940
X12.56580 Y27.75640
X3.70120 Y27.75640
X3.49800 Y27.70560
X3.44720 Y27.65480
G04 P0 ( dwell for no time -- G64 should not smooth over this point )
G00 Z5.00000 ( retract )

G00 X3.44720 Y30.19480 ( rapid move to begin. )
F300.00000
G01 Z-0.05000
G04 P0 ( dwell for no time -- G64 should not smooth over this point )
F600.00000
X3.44720 Y30.19480
X3.34560 Y30.16940
X3.16780 Y30.01700
X3.14240 Y29.91540
X3.09160 Y29.89000
X3.01540 Y29.73760
X2.96460 Y29.48360
X2.96460 Y29.15340
X3.01540 Y28.89940
X3.09160 Y28.74700
X3.14240 Y28.72160
X3.16780 Y28.62000
X3.34560 Y28.46760
X3.70120 Y28.34060
X12.56580 Y28.34060
X12.92140 Y28.46760
X13.09920 Y28.62000
X13.12460 Y28.72160
X13.17540 Y28.74700
X13.25160 Y28.89940
X13.30240 Y29.15340
X13.27700 Y29.63600
X13.09920 Y30.01700
X12.92140 Y30.16940
X12.56580 Y30.29640
X3.70120 Y30.29640
X3.49800 Y30.24560
X3.44720 Y30.19480
G04 P0 ( dwell for no time -- G64 should not smooth over this point )
G00 Z5.00000 ( retract )

G00 X3.44720 Y32.73480 ( rapid move to begin. )
F300.00000
G01 Z-0.05000
G04 P0 ( dwell for no time -- G64 should not smooth over this point )
F600.00000
X3.44720 Y32.73480
X3.34560 Y32.70940
X3.16780 Y32.55700
X3.14240 Y32.45540
X3.09160 Y32.43000
X3.01540 Y32.27760
X2.96460 Y32.02360
X2.96460 Y31.69340
X3.01540 Y31.43940
X3.09160 Y31.28700
X3.14240 Y31.26160
X3.16780 Y31.16000
X3.34560 Y31.00760
X3.70120 Y30.88060
X12.56580 Y30.88060
X12.92140 Y31.00760
X13.09920 Y31.16000
X13.12460 Y31.26160
X13.17540 Y31.28700
X13.25160 Y31.43940
X13.30240 Y31.69340
X13.27700 Y32.17600
X13.09920 Y32.55700
X12.92140 Y32.70940
X12.56580 Y32.83640
X3.70120 Y32.83640
X3.49800 Y32.78560
X3.44720 Y32.73480
G04 P0 ( dwell for no time -- G64 should not smooth over this point )
G00 Z5.00000 ( retract )

G00 X3.44720 Y35.27480 ( rapid move to begin. )
F300.00000
G01 Z-0.05000
G04 P0 ( dwell for no time -- G64 should not smooth over this point )
F600.00000
X3.44720 Y35.27480
X3.34560 Y35.24940
X3.16780 Y35.09700
X3.14240 Y34.99540
X3.09160 Y34.97000
X3.01540 Y34.81760
X2.96460 Y34.56360
X2.96460 Y34.23340
X3.01540 Y33.97940
X3.09160 Y33.82700
X3.14240 Y33.80160
X3.16780 Y33.70000
X3.34560 Y33.54760
X3.70120 Y33.42060
X12.56580 Y33.42060
X12.92140 Y33.54760
X13.09920 Y33.70000
X13.12460 Y33.80160
X13.17540 Y33.82700
X13.25160 Y33.97940
X13.30240 Y34.23340
X13.27700 Y34.71600
X13.09920 Y35.09700
X12.92140 Y35.24940
X12.56580 Y35.37640
X3.70120 Y35.37640
X3.49800 Y35.32560
X3.44720 Y35.27480
G04 P0 ( dwell for no time -- G64 should not smooth over this point )
G00 Z5.00000 ( retract )

G00 X3.44720 Y37.81480 ( rapid move to begin. )
F300.00000
G01 Z-0.05000
G04 P0 ( dwell for no time -- G64 should not smooth over this point )
F600.00000
X3.44720 Y37.81480
X3.34560 Y37.78940
X3.16780 Y37.63700
X3.14240 Y37.53540
X3.09160 Y37.51000
X3.01540 Y37.35760
X2.96460 Y37.10360
X2.96460 Y36.77340
X3.01540 Y36.51940
X3.09160 Y36.36700
X3.14240 Y36.34160
X3.16780 Y36.24000
X3.34560 Y36.08760
X3.70120 Y35.96060
X12.56580 Y35.96060
X12.92140 Y36.08760
X13.09920 Y36.24000
X13.12460 Y36.34160
X13.17540 Y36.36700
X13.25160 Y36.51940
X13.30240 Y36.77340
X13.27700 Y37.25600
X13.09920 Y37.63700
X12.92140 Y37.78940
X12.56580 Y37.91640
X3.70120 Y37.91640
X3.49800 Y37.86560
X3.44720 Y37.81480
G04 P0 ( dwell for no time -- G64 should not smooth over this point )
G00 Z5.00000 ( retract )

G00 X3.44720 Y42.89480 ( rapid move to begin. )
F300.00000
G01 Z-0.05000
G04 P0 ( dwell for no time -- G64 should not smooth over this point )
F600.00000
X3.44720 Y42.89480
X3.34560 Y42.86940
X3.16780 Y42.71700
X3.14240 Y42.61540
X3.09160 Y42.59000
X3.01540 Y42.43760
X2.96460 Y42.18360
X2.96460 Y41.85340
X3.01540 Y41.59940
X3.09160 Y41.44700
X3.14240 Y41.42160
X3.16780 Y41.32000
X3.34560 Y41.16760
X3.70120 Y41.04060
X12.56580 Y41.04060
X12.92140 Y41.16760
X13.09920 Y41.32000
X13.12460 Y41.42160
X13.17540 Y41.44700
X13.25160 Y41.59940
X13.30240 Y41.85340
X13.27700 Y42.33600
X13.09920 Y42.71700
X12.92140 Y42.86940
X12.56580 Y42.99640
X3.70120 Y42.99640
X3.49800 Y42.94560
X3.44720 Y42.89480
G04 P0 ( dwell for no time -- G64 should not smooth over this point )
G00 Z5.00000 ( retract )

G00 X13.75960 Y40.65960 ( rapid move to begin. )
F300.00000
G01 Z-0.05000
G04 P0 ( dwell for no time -- G64 should not smooth over this point )
F600.00000
X13.75960 Y40.65960
X13.65800 Y40.63420
X13.55640 Y40.53260
X13.45480 Y40.32940
X13.42940 Y39.87220
X13.48020 Y39.71980
X13.27700 Y39.71980
X13.25160 Y39.89760
X13.17540 Y40.05000
X12.99760 Y40.27860
X12.76900 Y40.40560
X12.56580 Y40.45640
X3.70120 Y40.45640
X3.34560 Y40.32940
X3.16780 Y40.17700
X2.99000 Y39.79600
X2.96460 Y39.31340
X3.01540 Y39.05940
X3.09160 Y38.90700
X3.14240 Y38.88160
X3.16780 Y38.78000
X3.34560 Y38.62760
X3.70120 Y38.50060
X12.56580 Y38.50060
X12.92140 Y38.62760
X13.09920 Y38.78000
X13.12460 Y38.88160
X13.17540 Y38.90700
X13.25160 Y39.05940
X13.27700 Y39.23720
X13.75960 Y39.23720
X13.86120 Y39.33880
X14.47080 Y39.33880
X14.54700 Y39.41500
X14.64860 Y39.44040
X14.80100 Y39.61820
X14.87720 Y39.87220
X14.87720 Y40.20240
X14.82640 Y40.40560
X14.75020 Y40.48180
X14.75020 Y40.53260
X14.52160 Y40.71040
X14.31840 Y40.76120
X13.83580 Y40.73580
X13.75960 Y40.65960
G04 P0 ( dwell for no time -- G64 should not smooth over this point )
G00 Z5.00000 ( retract )

G00 X18.02680 Y35.47800 ( rapid move to begin. )
F300.00000
G01 Z-0.05000
G04 P0 ( dwell for no time -- G64 should not smooth over this point )
F600.00000
X18.02680 Y35.47800
X17.92520 Y35.45260
X17.74740 Y35.22400
X17.69660 Y35.02080
X17.69660 Y34.69060
X17.74740 Y34.48740
X17.82360 Y34.41120
X17.82360 Y34.36040
X18.05220 Y34.18260
X18.17920 Y34.15720
X18.17920 Y33.64920
X18.56020 Y33.21740
X18.56020 Y30.32180
X16.83300 Y28.62000
X16.80760 Y27.35000
X16.09640 Y26.66420
X16.09640 Y26.61340
X14.52160 Y25.06400
X14.52160 Y25.01320
X13.65800 Y24.14960
X13.65800 Y19.42520
X13.27700 Y19.39980
X13.25160 Y19.57760
X13.17540 Y19.73000
X13.12460 Y19.75540
X13.09920 Y19.85700
X12.92140 Y20.00940
X12.56580 Y20.13640
X3.70120 Y20.13640
X3.49800 Y20.08560
X3.34560 Y20.00940
X3.29480 Y19.93320
X3.24400 Y19.93320
X3.01540 Y19.57760
X2.96460 Y19.32360
X2.99000 Y18.84100
X3.09160 Y18.58700
X3.14240 Y18.56160
X3.16780 Y18.46000
X3.24400 Y18.38380
X3.29480 Y18.38380
X3.34560 Y18.30760
X3.49800 Y18.23140
X3.70120 Y18.18060
X12.56580 Y18.18060
X12.92140 Y18.30760
X13.09920 Y18.46000
X13.12460 Y18.56160
X13.17540 Y18.58700
X13.25160 Y18.73940
X13.27700 Y18.91720
X13.88660 Y18.91720
X14.11520 Y19.09500
X14.14060 Y23.87020
X17.26480 Y27.01980
X17.29020 Y28.28980
X19.04280 Y30.04240
X19.04280 Y33.49680
X18.66180 Y33.92860
X18.66180 Y34.15720
X18.73800 Y34.15720
X18.81420 Y34.23340
X18.91580 Y34.25880
X19.06820 Y34.43660
X19.14440 Y34.69060
X19.14440 Y35.02080
X19.09360 Y35.22400
X19.01740 Y35.30020
X19.01740 Y35.35100
X18.73800 Y35.55420
X18.25540 Y35.57960
X18.10300 Y35.55420
X18.02680 Y35.47800
G04 P0 ( dwell for no time -- G64 should not smooth over this point )
G00 Z5.00000 ( retract )

G00 X21.27800 Y36.77340 ( rapid move to begin. )
F300.00000
G01 Z-0.05000
G04 P0 ( dwell for no time -- G64 should not smooth over this point )
F600.00000
X21.27800 Y36.77340
X21.10020 Y36.67180
X20.92240 Y36.41780
X20.87160 Y36.16380
X20.87160 Y35.88440
X20.94780 Y35.63040
X20.54140 Y35.63040
X20.21120 Y35.30020
X20.21120 Y15.97080
X19.93180 Y15.94540
X19.85560 Y15.86920
X19.75400 Y15.84380
X19.60160 Y15.66600
X19.52540 Y15.41200
X19.52540 Y15.08180
X19.60160 Y14.82780
X19.75400 Y14.65000
X19.85560 Y14.62460
X19.93180 Y14.54840
X20.08420 Y14.52300
X20.56680 Y14.54840
X20.64300 Y14.62460
X20.74460 Y14.65000
X20.89700 Y14.82780
X20.97320 Y15.08180
X20.97320 Y15.41200
X20.92240 Y15.61520
X20.84620 Y15.69140
X20.84620 Y15.74220
X20.74460 Y15.84380
X20.69380 Y15.84380
X20.69380 Y35.02080
X20.82080 Y35.14780
X21.86220 Y35.14780
X21.91300 Y35.19860
X22.11620 Y35.22400
X22.19240 Y35.30020
X22.29400 Y35.32560
X22.47180 Y35.52880
X22.57340 Y35.88440
X22.57340 Y36.16380
X22.52260 Y36.41780
X22.29400 Y36.72260
X22.19240 Y36.74800
X22.11620 Y36.82420
X21.86220 Y36.87500
X21.43040 Y36.84960
X21.27800 Y36.77340
G04 P0 ( dwell for no time -- G64 should not smooth over this point )
G00 Z5.00000 ( retract )

G00 X21.27800 Y39.31340 ( rapid move to begin. )
F300.00000
G01 Z-0.05000
G04 P0 ( dwell for no time -- G64 should not smooth over this point )
F600.00000
X21.27800 Y39.31340
X21.12560 Y39.23720
X20.92240 Y38.95780
X20.87160 Y38.70380
X20.87160 Y38.42440
X20.97320 Y38.06880
X21.15100 Y37.86560
X21.25260 Y37.84020
X21.27800 Y37.78940
X21.58280 Y37.71320
X22.01460 Y37.73860
X22.29400 Y37.86560
X22.49720 Y38.11960
X22.57340 Y38.42440
X22.57340 Y38.70380
X22.47180 Y39.05940
X22.29400 Y39.26260
X22.01460 Y39.38960
X21.58280 Y39.41500
X21.32880 Y39.36420
X21.27800 Y39.31340
G04 P0 ( dwell for no time -- G64 should not smooth over this point )
G00 Z5.00000 ( retract )

G00 X21.27800 Y41.85340 ( rapid move to begin. )
F300.00000
G01 Z-0.05000
G04 P0 ( dwell for no time -- G64 should not smooth over this point )
F600.00000
X21.27800 Y41.85340
X21.10020 Y41.75180
X20.92240 Y41.49780
X20.87160 Y41.24380
X20.87160 Y40.96440
X20.97320 Y40.60880
X21.15100 Y40.40560
X21.25260 Y40.38020
X21.27800 Y40.32940
X21.58280 Y40.25320
X22.01460 Y40.27860
X22.29400 Y40.40560
X22.47180 Y40.60880
X22.57340 Y40.96440
X22.57340 Y41.24380
X22.47180 Y41.59940
X22.29400 Y41.80260
X22.01460 Y41.92960
X21.58280 Y41.95500
X21.32880 Y41.90420
X21.27800 Y41.85340
G04 P0 ( dwell for no time -- G64 should not smooth over this point )
G00 Z5.00000 ( retract )

G00 X21.27800 Y44.39340 ( rapid move to begin. )
F300.00000
G01 Z-0.05000
G04 P0 ( dwell for no time -- G64 should not smooth over this point )
F600.00000
X21.27800 Y44.39340
X21.10020 Y44.29180
X20.92240 Y44.03780
X20.87160 Y43.78380
X20.87160 Y43.50440
X20.97320 Y43.14880
X21.15100 Y42.94560
X21.25260 Y42.92020
X21.27800 Y42.86940
X21.58280 Y42.79320
X22.01460 Y42.81860
X22.29400 Y42.94560
X22.49720 Y43.19960
X22.57340 Y43.50440
X22.57340 Y43.78380
X22.47180 Y44.13940
X22.29400 Y44.34260
X22.01460 Y44.46960
X21.58280 Y44.49500
X21.32880 Y44.44420
X21.27800 Y44.39340
G04 P0 ( dwell for no time -- G64 should not smooth over this point )
G00 Z5.00000 ( retract )

G00 X15.76620 Y48.02560 ( rapid move to begin. )
F300.00000
G01 Z-0.05000
G04 P0 ( dwell for no time -- G64 should not smooth over this point )
F600.00000
X15.76620 Y48.02560
X15.66460 Y48.00020
X15.56300 Y47.89860
X15.56300 Y47.84780
X15.48680 Y47.77160
X15.43600 Y47.56840
X15.43600 Y47.23820
X15.51220 Y46.98420
X15.66460 Y46.80640
X15.76620 Y46.78100
X15.84240 Y46.70480
X15.91860 Y46.70480
X15.91860 Y41.85340
X15.79160 Y41.75180
X15.69000 Y41.54860
X15.66460 Y41.09140
X15.74080 Y40.83740
X15.89320 Y40.65960
X15.99480 Y40.63420
X16.07100 Y40.55800
X16.55360 Y40.53260
X16.70600 Y40.55800
X16.78220 Y40.63420
X16.88380 Y40.65960
X17.03620 Y40.83740
X17.11240 Y41.09140
X17.11240 Y41.42160
X17.06160 Y41.62480
X16.98540 Y41.70100
X16.98540 Y41.75180
X16.70600 Y41.95500
X16.40120 Y41.98040
X16.40120 Y46.70480
X16.47740 Y46.70480
X16.55360 Y46.78100
X16.65520 Y46.80640
X16.80760 Y46.98420
X16.88380 Y47.23820
X16.88380 Y47.56840
X16.83300 Y47.77160
X16.75680 Y47.84780
X16.75680 Y47.89860
X16.47740 Y48.10180
X15.99480 Y48.12720
X15.84240 Y48.10180
X15.76620 Y48.02560
G04 P0 ( dwell for no time -- G64 should not smooth over this point )
G00 Z5.00000 ( retract )

G00 X14.92800 Y49.62580 ( rapid move to begin. )
F300.00000
G01 Z-0.05000
G04 P0 ( dwell for no time -- G64 should not smooth over this point )
F600.00000
X14.92800 Y49.62580
X14.82640 Y49.60040
X14.64860 Y49.37180
X14.59780 Y49.16860
X14.59780 Y48.83840
X14.64860 Y48.71140
X14.36920 Y48.43200
X14.36920 Y44.74900
X15.02960 Y44.06320
X15.02960 Y39.05940
X14.92800 Y38.95780
X14.92800 Y32.30300
X14.54700 Y31.92200
X14.39460 Y31.97280
X13.91200 Y31.94740
X13.83580 Y31.87120
X13.73420 Y31.84580
X13.55640 Y31.61720
X13.50560 Y31.41400
X13.50560 Y31.08380
X13.55640 Y30.88060
X13.73420 Y30.65200
X13.83580 Y30.62660
X13.91200 Y30.55040
X14.06440 Y30.52500
X14.54700 Y30.55040
X14.82640 Y30.75360
X14.82640 Y30.80440
X14.90260 Y30.88060
X14.95340 Y31.08380
X14.92800 Y31.54100
X15.41060 Y32.02360
X15.41060 Y38.67840
X15.51220 Y38.78000
X15.51220 Y44.34260
X14.85180 Y45.02840
X14.85180 Y48.15260
X15.00420 Y48.30500
X15.48680 Y48.27960
X15.63920 Y48.30500
X15.71540 Y48.38120
X15.81700 Y48.40660
X15.91860 Y48.50820
X16.02020 Y48.71140
X16.04560 Y49.16860
X15.99480 Y49.37180
X15.91860 Y49.44800
X15.91860 Y49.49880
X15.63920 Y49.70200
X15.15660 Y49.72740
X15.00420 Y49.70200
X14.92800 Y49.62580
G04 P0 ( dwell for no time -- G64 should not smooth over this point )
G00 Z5.00000 ( retract )

G00 X20.87160 Y53.43580 ( rapid move to begin. )
F300.00000
G01 Z-0.05000
G04 P0 ( dwell for no time -- G64 should not smooth over this point )
F600.00000
X20.87160 Y53.43580
X20.87160 Y51.83560
X22.57340 Y51.83560
X22.57340 Y53.53740
X20.87160 Y53.53740
X20.87160 Y53.43580
G04 P0 ( dwell for no time -- G64 should not smooth over this point )
G00 Z5.00000 ( retract )

G00 X21.27800 Y55.97580 ( rapid move to begin. )
F300.00000
G01 Z-0.05000
G04 P0 ( dwell for no time -- G64 should not smooth over this point )
F600.00000
X21.27800 Y55.97580
X21.10020 Y55.87420
X20.92240 Y55.62020
X20.87160 Y55.36620
X20.87160 Y55.08680
X20.94780 Y54.83280
X19.72860 Y53.58820
X19.72860 Y38.01800
X19.65240 Y38.01800
X19.57620 Y37.94180
X19.47460 Y37.91640
X19.32220 Y37.73860
X19.24600 Y37.48460
X19.24600 Y37.15440
X19.29680 Y36.95120
X19.39840 Y36.79880
X19.47460 Y36.72260
X19.57620 Y36.69720
X19.60160 Y36.64640
X19.80480 Y36.59560
X20.28740 Y36.62100
X20.36360 Y36.69720
X20.46520 Y36.72260
X20.61760 Y36.90040
X20.69380 Y37.15440
X20.69380 Y37.48460
X20.61760 Y37.73860
X20.46520 Y37.91640
X20.36360 Y37.94180
X20.28740 Y38.01800
X20.21120 Y38.01800
X20.21120 Y53.30880
X21.02400 Y54.09620
X21.02400 Y54.14700
X21.32880 Y54.45180
X21.58280 Y54.37560
X21.86220 Y54.37560
X22.11620 Y54.42640
X22.19240 Y54.50260
X22.29400 Y54.52800
X22.49720 Y54.78200
X22.57340 Y55.08680
X22.57340 Y55.36620
X22.52260 Y55.62020
X22.29400 Y55.92500
X22.19240 Y55.95040
X22.11620 Y56.02660
X21.86220 Y56.07740
X21.43040 Y56.05200
X21.27800 Y55.97580
G04 P0 ( dwell for no time -- G64 should not smooth over this point )
G00 Z5.00000 ( retract )

G00 X22.57340 Y57.09340 ( rapid move to begin. )
F300.00000
G01 Z-0.05000
G04 P0 ( dwell for no time -- G64 should not smooth over this point )
F600.00000
X22.57340 Y57.09340
X22.47180 Y57.06800
X22.29400 Y56.83940
X22.24320 Y56.63620
X22.24320 Y56.30600
X22.29400 Y56.10280
X22.37020 Y56.02660
X22.37020 Y55.97580
X22.59880 Y55.79800
X22.75120 Y55.77260
X22.75120 Y18.68860
X22.14160 Y18.07900
X21.65900 Y18.05360
X21.48120 Y17.85040
X21.48120 Y17.62180
X21.32880 Y17.59640
X21.25260 Y17.52020
X21.15100 Y17.49480
X20.92240 Y17.19000
X20.87160 Y16.93600
X20.87160 Y16.65660
X20.97320 Y16.30100
X21.15100 Y16.09780
X21.25260 Y16.07240
X21.27800 Y16.02160
X21.58280 Y15.94540
X21.86220 Y15.94540
X22.11620 Y15.99620
X22.19240 Y16.07240
X22.29400 Y16.09780
X22.52260 Y16.40260
X22.57340 Y16.65660
X22.57340 Y16.93600
X22.52260 Y17.19000
X22.29400 Y17.49480
X22.19240 Y17.52020
X22.11620 Y17.59640
X22.01460 Y17.59640
X22.47180 Y17.62180
X23.23380 Y18.40920
X23.23380 Y55.77260
X23.46240 Y55.87420
X23.61480 Y56.05200
X23.69100 Y56.30600
X23.69100 Y56.63620
X23.64020 Y56.83940
X23.56400 Y56.91560
X23.56400 Y56.96640
X23.28460 Y57.16960
X22.80200 Y57.19500
X22.64960 Y57.16960
X22.57340 Y57.09340
G04 P0 ( dwell for no time -- G64 should not smooth over this point )
G00 Z5.00000 ( retract )

G00 X21.27800 Y58.51580 ( rapid move to begin. )
F300.00000
G01 Z-0.05000
G04 P0 ( dwell for no time -- G64 should not smooth over this point )
F600.00000
X21.27800 Y58.51580
X21.10020 Y58.41420
X20.92240 Y58.16020
X20.87160 Y57.90620
X20.87160 Y57.62680
X20.97320 Y57.27120
X21.15100 Y57.06800
X21.25260 Y57.04260
X21.27800 Y56.99180
X21.58280 Y56.91560
X22.01460 Y56.94100
X22.29400 Y57.06800
X22.49720 Y57.32200
X22.57340 Y57.62680
X22.57340 Y57.90620
X22.47180 Y58.26180
X22.29400 Y58.46500
X22.01460 Y58.59200
X21.58280 Y58.61740
X21.32880 Y58.56660
X21.27800 Y58.51580
G04 P0 ( dwell for no time -- G64 should not smooth over this point )
G00 Z5.00000 ( retract )

G00 X18.12840 Y57.04260 ( rapid move to begin. )
F300.00000
G01 Z-0.05000
G04 P0 ( dwell for no time -- G64 should not smooth over this point )
F600.00000
X18.12840 Y57.04260
X18.02680 Y57.01720
X17.92520 Y56.91560
X17.92520 Y56.86480
X17.84900 Y56.78860
X17.79820 Y56.58540
X17.79820 Y56.25520
X17.84900 Y56.12820
X17.84900 Y42.86940
X17.95060 Y42.76780
X17.95060 Y39.66900
X17.77280 Y39.49120
X17.72200 Y39.49120
X17.31560 Y39.05940
X17.26480 Y39.05940
X17.01080 Y38.78000
X17.01080 Y33.57300
X17.46800 Y33.09040
X17.51880 Y33.09040
X17.89980 Y32.70940
X17.89980 Y31.18540
X14.19140 Y27.47700
X14.03900 Y27.45160
X13.81040 Y27.27380
X13.81040 Y27.22300
X13.73420 Y27.14680
X13.68340 Y26.94360
X13.68340 Y26.61340
X13.73420 Y26.41020
X13.91200 Y26.18160
X14.01360 Y26.15620
X14.08980 Y26.08000
X14.24220 Y26.05460
X14.72480 Y26.08000
X15.00420 Y26.28320
X15.00420 Y26.33400
X15.08040 Y26.41020
X15.13120 Y26.61340
X15.13120 Y26.94360
X15.05500 Y27.19760
X14.90260 Y27.37540
X14.85180 Y27.37540
X18.38240 Y30.90600
X18.38240 Y32.98880
X17.92520 Y33.47140
X17.87440 Y33.47140
X17.49340 Y33.85240
X17.49340 Y38.50060
X17.67120 Y38.67840
X17.72200 Y38.67840
X18.12840 Y39.11020
X18.17920 Y39.11020
X18.43320 Y39.38960
X18.43320 Y43.02180
X18.33160 Y43.12340
X18.33160 Y55.72180
X18.68720 Y55.69640
X18.83960 Y55.72180
X18.91580 Y55.79800
X19.01740 Y55.82340
X19.16980 Y56.00120
X19.22060 Y56.12820
X19.24600 Y56.58540
X19.19520 Y56.78860
X19.11900 Y56.86480
X19.11900 Y56.91560
X18.83960 Y57.11880
X18.35700 Y57.14420
X18.20460 Y57.11880
X18.12840 Y57.04260
G04 P0 ( dwell for no time -- G64 should not smooth over this point )
G00 Z5.00000 ( retract )

G00 X21.27800 Y63.59580 ( rapid move to begin. )
F300.00000
G01 Z-0.05000
G04 P0 ( dwell for no time -- G64 should not smooth over this point )
F600.00000
X21.27800 Y63.59580
X21.15100 Y63.54500
X21.04940 Y63.44340
X21.04940 Y63.39260
X20.97320 Y63.34180
X20.92240 Y63.24020
X20.89700 Y63.08780
X20.64300 Y63.06240
X20.05880 Y62.42740
X20.05880 Y55.89960
X19.34760 Y55.18840
X19.29680 Y55.18840
X18.56020 Y54.42640
X18.56020 Y36.57020
X19.27140 Y35.83360
X19.27140 Y23.41300
X18.73800 Y22.87960
X18.73800 Y14.72620
X21.10020 Y12.33860
X20.92240 Y12.11000
X20.87160 Y11.85600
X20.87160 Y11.57660
X20.92240 Y11.32260
X20.97320 Y11.22100
X21.04940 Y11.17020
X21.04940 Y11.11940
X21.32880 Y10.91620
X21.58280 Y10.86540
X21.86220 Y10.86540
X22.11620 Y10.91620
X22.19240 Y10.99240
X22.29400 Y11.01780
X22.52260 Y11.32260
X22.57340 Y11.57660
X22.57340 Y11.85600
X22.47180 Y12.21160
X22.29400 Y12.41480
X22.19240 Y12.44020
X22.11620 Y12.51640
X21.63360 Y12.56720
X20.51600 Y13.68480
X20.51600 Y13.73560
X19.22060 Y15.00560
X19.22060 Y22.60020
X19.75400 Y23.13360
X19.75400 Y36.11300
X19.04280 Y36.84960
X19.04280 Y54.14700
X19.72860 Y54.83280
X19.77940 Y54.83280
X20.54140 Y55.62020
X20.54140 Y62.14800
X20.77000 Y62.35120
X20.77000 Y62.40200
X20.92240 Y62.55440
X20.97320 Y62.35120
X21.15100 Y62.14800
X21.25260 Y62.12260
X21.27800 Y62.07180
X21.58280 Y61.99560
X21.86220 Y61.99560
X22.11620 Y62.04640
X22.19240 Y62.12260
X22.29400 Y62.14800
X22.52260 Y62.45280
X22.57340 Y62.70680
X22.57340 Y62.98620
X22.52260 Y63.24020
X22.29400 Y63.54500
X22.19240 Y63.57040
X22.11620 Y63.64660
X21.86220 Y63.69740
X21.43040 Y63.67200
X21.27800 Y63.59580
G04 P0 ( dwell for no time -- G64 should not smooth over this point )
G00 Z5.00000 ( retract )

G00 X21.27800 Y66.13580 ( rapid move to begin. )
F300.00000
G01 Z-0.05000
G04 P0 ( dwell for no time -- G64 should not smooth over this point )
F600.00000
X21.27800 Y66.13580
X21.12560 Y66.05960
X20.92240 Y65.78020
X20.87160 Y65.52620
X20.87160 Y65.24680
X20.97320 Y64.89120
X21.15100 Y64.68800
X21.25260 Y64.66260
X21.27800 Y64.61180
X21.58280 Y64.53560
X22.01460 Y64.56100
X22.29400 Y64.68800
X22.49720 Y64.94200
X22.57340 Y65.24680
X22.57340 Y65.52620
X22.47180 Y65.88180
X22.29400 Y66.08500
X22.01460 Y66.21200
X21.58280 Y66.23740
X21.32880 Y66.18660
X21.27800 Y66.13580
G04 P0 ( dwell for no time -- G64 should not smooth over this point )
G00 Z5.00000 ( retract )

G00 X22.82740 Y67.25340 ( rapid move to begin. )
F300.00000
G01 Z-0.05000
G04 P0 ( dwell for no time -- G64 should not smooth over this point )
F600.00000
X22.82740 Y67.25340
X22.72580 Y67.22800
X22.54800 Y66.99940
X22.49720 Y66.79620
X22.49720 Y66.46600
X22.54800 Y66.26280
X22.62420 Y66.18660
X22.62420 Y66.13580
X22.85280 Y65.95800
X22.97980 Y65.93260
X22.97980 Y61.91940
X22.11620 Y61.08120
X21.86220 Y61.15740
X21.43040 Y61.13200
X21.15100 Y61.00500
X20.97320 Y60.80180
X20.87160 Y60.44620
X20.87160 Y60.16680
X20.92240 Y59.91280
X21.15100 Y59.60800
X21.43040 Y59.48100
X22.01460 Y59.48100
X22.29400 Y59.60800
X22.39560 Y59.70960
X22.39560 Y59.76040
X22.47180 Y59.81120
X22.52260 Y59.91280
X22.57340 Y60.16680
X22.57340 Y60.44620
X22.49720 Y60.70020
X22.64960 Y60.85260
X22.70040 Y60.85260
X23.46240 Y61.64000
X23.46240 Y65.93260
X23.53860 Y65.93260
X23.61480 Y66.00880
X23.71640 Y66.03420
X23.86880 Y66.21200
X23.94500 Y66.46600
X23.94500 Y66.79620
X23.89420 Y66.99940
X23.81800 Y67.07560
X23.81800 Y67.12640
X23.53860 Y67.32960
X23.05600 Y67.35500
X22.90360 Y67.32960
X22.82740 Y67.25340
G04 P0 ( dwell for no time -- G64 should not smooth over this point )
G00 Z5.00000 ( retract )

G00 X28.89800 Y66.13580 ( rapid move to begin. )
F300.00000
G01 Z-0.05000
G04 P0 ( dwell for no time -- G64 should not smooth over this point )
F600.00000
X28.89800 Y66.13580
X28.74560 Y66.05960
X28.54240 Y65.78020
X28.49160 Y65.52620
X28.49160 Y65.24680
X28.54240 Y64.99280
X28.59320 Y64.89120
X28.66940 Y64.84040
X28.66940 Y64.78960
X28.94880 Y64.58640
X29.20280 Y64.53560
X29.48220 Y64.53560
X29.73620 Y64.61180
X30.37120 Y63.97680
X30.37120 Y61.99560
X30.19340 Y61.81780
X28.11060 Y61.81780
X27.88200 Y61.64000
X27.85660 Y59.04920
X28.11060 Y58.79520
X30.32040 Y58.79520
X31.51420 Y57.57600
X31.56500 Y57.57600
X32.86040 Y56.28060
X32.86040 Y53.41040
X32.78420 Y53.41040
X32.70800 Y53.33420
X32.60640 Y53.30880
X32.45400 Y53.13100
X32.37780 Y52.87700
X32.37780 Y52.54680
X32.42860 Y52.34360
X32.50480 Y52.26740
X32.50480 Y52.21660
X32.73340 Y52.03880
X32.93660 Y51.98800
X33.41920 Y52.01340
X33.49540 Y52.08960
X33.59700 Y52.11500
X33.77480 Y52.34360
X33.82560 Y52.54680
X33.82560 Y52.87700
X33.77480 Y53.08020
X33.69860 Y53.15640
X33.69860 Y53.20720
X33.47000 Y53.38500
X33.34300 Y53.41040
X33.31760 Y56.61080
X32.04760 Y57.88080
X31.99680 Y57.88080
X30.65060 Y59.25240
X28.39000 Y59.27780
X28.33920 Y59.32860
X28.33920 Y61.30980
X30.47280 Y61.33520
X30.85380 Y61.71620
X30.85380 Y64.25620
X30.11720 Y64.99280
X30.19340 Y65.24680
X30.19340 Y65.52620
X30.11720 Y65.83100
X29.91400 Y66.08500
X29.81240 Y66.11040
X29.73620 Y66.18660
X29.48220 Y66.23740
X29.05040 Y66.21200
X28.89800 Y66.13580
G04 P0 ( dwell for no time -- G64 should not smooth over this point )
G00 Z5.00000 ( retract )

G00 X28.89800 Y68.67580 ( rapid move to begin. )
F300.00000
G01 Z-0.05000
G04 P0 ( dwell for no time -- G64 should not smooth over this point )
F600.00000
X28.89800 Y68.67580
X28.72020 Y68.57420
X28.54240 Y68.32020
X28.49160 Y68.06620
X28.49160 Y67.78680
X28.59320 Y67.43120
X28.77100 Y67.22800
X28.87260 Y67.20260
X28.89800 Y67.15180
X29.20280 Y67.07560
X29.63460 Y67.10100
X29.91400 Y67.22800
X30.11720 Y67.48200
X30.19340 Y67.78680
X30.19340 Y68.06620
X30.09180 Y68.42180
X29.91400 Y68.62500
X29.63460 Y68.75200
X29.20280 Y68.77740
X28.94880 Y68.72660
X28.89800 Y68.67580
G04 P0 ( dwell for no time -- G64 should not smooth over this point )
G00 Z5.00000 ( retract )

G00 X28.56780 Y71.29200 ( rapid move to begin. )
F300.00000
G01 Z-0.05000
G04 P0 ( dwell for no time -- G64 should not smooth over this point )
F600.00000
X28.56780 Y71.29200
X28.46620 Y71.26660
X28.36460 Y71.16500
X28.26300 Y70.96180
X28.23760 Y70.50460
X28.28840 Y70.37760
X27.22160 Y69.31080
X27.22160 Y56.96640
X28.56780 Y55.62020
X28.49160 Y55.36620
X28.49160 Y55.08680
X28.54240 Y54.83280
X28.59320 Y54.73120
X28.66940 Y54.68040
X28.66940 Y54.62960
X28.94880 Y54.42640
X29.20280 Y54.37560
X29.48220 Y54.37560
X29.73620 Y54.45180
X31.03160 Y53.15640
X31.03160 Y51.04820
X29.22820 Y49.24480
X28.49160 Y49.24480
X28.39000 Y49.49880
X28.11060 Y49.70200
X27.62800 Y49.72740
X27.47560 Y49.70200
X27.39940 Y49.62580
X27.29780 Y49.60040
X27.19620 Y49.49880
X27.09460 Y49.29560
X27.06920 Y49.16860
X27.09460 Y48.71140
X27.19620 Y48.50820
X27.29780 Y48.40660
X27.39940 Y48.38120
X27.47560 Y48.30500
X27.62800 Y48.27960
X27.95820 Y48.27960
X28.16140 Y48.33040
X28.39000 Y48.50820
X28.49160 Y48.76220
X29.55840 Y48.78760
X31.51420 Y50.76880
X31.48880 Y53.48660
X30.11720 Y54.83280
X30.19340 Y55.08680
X30.19340 Y55.36620
X30.14260 Y55.62020
X29.91400 Y55.92500
X29.81240 Y55.95040
X29.73620 Y56.02660
X29.48220 Y56.07740
X29.20280 Y56.07740
X28.94880 Y56.00120
X27.70420 Y57.24580
X27.70420 Y69.03140
X28.64400 Y69.97120
X29.12660 Y69.94580
X29.27900 Y69.97120
X29.35520 Y70.04740
X29.45680 Y70.07280
X29.60920 Y70.25060
X29.68540 Y70.50460
X29.66000 Y70.96180
X29.60920 Y71.08880
X29.45680 Y71.26660
X29.35520 Y71.29200
X29.27900 Y71.36820
X29.12660 Y71.39360
X28.64400 Y71.36820
X28.56780 Y71.29200
G04 P0 ( dwell for no time -- G64 should not smooth over this point )
G00 Z5.00000 ( retract )

G00 X31.71740 Y75.25440 ( rapid move to begin. )
F300.00000
G01 Z-0.05000
G04 P0 ( dwell for no time -- G64 should not smooth over this point )
F600.00000
X31.71740 Y75.25440
X31.61580 Y75.22900
X31.43800 Y75.00040
X31.38720 Y74.79720
X31.38720 Y74.46700
X31.43800 Y74.26380
X31.51420 Y74.18760
X31.51420 Y74.13680
X31.74280 Y73.95900
X31.86980 Y73.93360
X31.86980 Y68.54880
X31.00620 Y67.68520
X30.95540 Y67.68520
X30.19340 Y66.89780
X28.21220 Y66.89780
X27.85660 Y66.54220
X27.85660 Y63.95140
X28.56780 Y63.24020
X28.49160 Y62.98620
X28.49160 Y62.70680
X28.54240 Y62.45280
X28.77100 Y62.14800
X29.05040 Y62.02100
X29.48220 Y61.99560
X29.73620 Y62.04640
X29.81240 Y62.12260
X29.91400 Y62.14800
X30.14260 Y62.45280
X30.19340 Y62.70680
X30.19340 Y62.98620
X30.11720 Y63.29100
X29.91400 Y63.54500
X29.81240 Y63.57040
X29.73620 Y63.64660
X29.48220 Y63.69740
X29.20280 Y63.69740
X28.94880 Y63.62120
X28.33920 Y64.23080
X28.33920 Y66.26280
X28.49160 Y66.41520
X30.47280 Y66.41520
X31.41260 Y67.35500
X31.46340 Y67.35500
X32.35240 Y68.26940
X32.35240 Y73.93360
X32.42860 Y73.93360
X32.50480 Y74.00980
X32.60640 Y74.03520
X32.75880 Y74.21300
X32.83500 Y74.46700
X32.83500 Y74.79720
X32.78420 Y75.00040
X32.70800 Y75.07660
X32.70800 Y75.12740
X32.42860 Y75.33060
X31.94600 Y75.35600
X31.79360 Y75.33060
X31.71740 Y75.25440
G04 P0 ( dwell for no time -- G64 should not smooth over this point )
G00 Z5.00000 ( retract )

G00 X28.89800 Y77.74360 ( rapid move to begin. )
F300.00000
G01 Z-0.05000
G04 P0 ( dwell for no time -- G64 should not smooth over this point )
F600.00000
X28.89800 Y77.74360
X28.77100 Y77.69280
X28.54240 Y77.38800
X28.49160 Y77.13400
X28.49160 Y76.85460
X28.59320 Y76.49900
X28.77100 Y76.29580
X28.87260 Y76.27040
X28.89800 Y76.21960
X29.20280 Y76.14340
X29.63460 Y76.16880
X29.91400 Y76.29580
X30.09180 Y76.49900
X30.19340 Y76.85460
X30.19340 Y77.13400
X30.09180 Y77.48960
X29.91400 Y77.69280
X29.63460 Y77.81980
X29.20280 Y77.84520
X28.94880 Y77.79440
X28.89800 Y77.74360
G04 P0 ( dwell for no time -- G64 should not smooth over this point )
G00 Z5.00000 ( retract )

G00 X28.89800 Y80.28360 ( rapid move to begin. )
F300.00000
G01 Z-0.05000
G04 P0 ( dwell for no time -- G64 should not smooth over this point )
F600.00000
X28.89800 Y80.28360
X28.77100 Y80.23280
X28.66940 Y80.13120
X28.66940 Y80.08040
X28.59320 Y80.02960
X28.54240 Y79.92800
X28.49160 Y79.67400
X28.49160 Y79.39460
X28.59320 Y79.03900
X28.77100 Y78.83580
X28.87260 Y78.81040
X28.89800 Y78.75960
X29.20280 Y78.68340
X29.63460 Y78.70880
X29.91400 Y78.83580
X30.09180 Y79.03900
X30.19340 Y79.39460
X30.19340 Y79.67400
X30.09180 Y80.02960
X29.91400 Y80.23280
X29.63460 Y80.35980
X29.20280 Y80.38520
X28.94880 Y80.33440
X28.89800 Y80.28360
G04 P0 ( dwell for no time -- G64 should not smooth over this point )
G00 Z5.00000 ( retract )

G00 X31.13320 Y79.52160 ( rapid move to begin. )
F300.00000
G01 Z-0.05000
G04 P0 ( dwell for no time -- G64 should not smooth over this point )
F600.00000
X31.13320 Y79.52160
X31.03160 Y79.49620
X30.85380 Y79.26760
X30.80300 Y79.06440
X30.80300 Y78.73420
X30.85380 Y78.53100
X30.93000 Y78.45480
X30.93000 Y78.40400
X31.15860 Y78.22620
X31.28560 Y78.20080
X31.28560 Y75.88940
X29.02500 Y73.65420
X29.02500 Y73.60340
X26.45960 Y71.03800
X26.45960 Y41.26920
X26.38340 Y41.26920
X26.30720 Y41.19300
X26.20560 Y41.16760
X26.05320 Y40.98980
X25.97700 Y40.73580
X25.97700 Y40.40560
X26.02780 Y40.20240
X26.15480 Y40.02460
X26.38340 Y39.87220
X26.53580 Y39.84680
X27.01840 Y39.87220
X27.09460 Y39.94840
X27.19620 Y39.97380
X27.34860 Y40.15160
X27.42480 Y40.40560
X27.42480 Y40.73580
X27.34860 Y40.98980
X27.19620 Y41.16760
X27.09460 Y41.19300
X27.01840 Y41.26920
X26.94220 Y41.26920
X26.94220 Y70.75860
X29.27900 Y73.07000
X29.27900 Y73.12080
X31.76820 Y75.61000
X31.76820 Y78.20080
X31.84440 Y78.20080
X31.92060 Y78.27700
X32.02220 Y78.30240
X32.17460 Y78.48020
X32.25080 Y78.73420
X32.25080 Y79.06440
X32.20000 Y79.26760
X32.12380 Y79.34380
X32.12380 Y79.39460
X31.84440 Y79.59780
X31.36180 Y79.62320
X31.20940 Y79.59780
X31.13320 Y79.52160
G04 P0 ( dwell for no time -- G64 should not smooth over this point )
G00 Z5.00000 ( retract )

G00 X32.27620 Y80.63920 ( rapid move to begin. )
F300.00000
G01 Z-0.05000
G04 P0 ( dwell for no time -- G64 should not smooth over this point )
F600.00000
X32.27620 Y80.63920
X32.17460 Y80.61380
X31.99680 Y80.38520
X31.94600 Y80.18200
X31.94600 Y79.85180
X31.99680 Y79.64860
X32.09840 Y79.49620
X32.35240 Y79.31840
X32.47940 Y79.31840
X32.47940 Y76.11800
X33.19060 Y75.38140
X33.19060 Y62.24960
X31.94600 Y61.00500
X31.94600 Y60.95420
X31.53960 Y60.54780
X30.16800 Y60.54780
X30.09180 Y60.80180
X29.91400 Y61.00500
X29.63460 Y61.13200
X29.20280 Y61.15740
X28.89800 Y61.08120
X28.87260 Y61.03040
X28.77100 Y61.00500
X28.59320 Y60.80180
X28.49160 Y60.44620
X28.49160 Y60.16680
X28.54240 Y59.91280
X28.72020 Y59.65880
X28.94880 Y59.50640
X29.20280 Y59.45560
X29.63460 Y59.48100
X29.91400 Y59.60800
X30.09180 Y59.81120
X30.16800 Y60.06520
X31.53960 Y60.06520
X34.02880 Y57.57600
X34.02880 Y52.03880
X33.03820 Y51.04820
X33.03820 Y36.77340
X35.40040 Y34.41120
X36.23860 Y34.36040
X36.23860 Y34.30960
X36.08620 Y34.28420
X36.01000 Y34.20800
X35.90840 Y34.18260
X35.67980 Y33.87780
X35.62900 Y33.62380
X35.62900 Y33.34440
X35.67980 Y33.09040
X35.83220 Y32.86180
X36.08620 Y32.68400
X36.34020 Y32.63320
X36.61960 Y32.63320
X36.87360 Y32.68400
X36.94980 Y32.76020
X37.05140 Y32.78560
X37.28000 Y33.09040
X37.33080 Y33.34440
X37.33080 Y33.62380
X37.22920 Y33.97940
X37.05140 Y34.18260
X36.94980 Y34.20800
X36.87360 Y34.28420
X36.72120 Y34.30960
X36.72120 Y34.63980
X36.51800 Y34.84300
X35.73060 Y34.86840
X34.68920 Y35.93520
X34.63840 Y35.93520
X33.52080 Y37.05280
X33.52080 Y50.76880
X34.51140 Y51.75940
X34.51140 Y57.85540
X32.07300 Y60.29380
X32.30160 Y60.52240
X32.30160 Y60.57320
X33.19060 Y61.43680
X33.19060 Y61.48760
X33.67320 Y61.97020
X33.67320 Y75.66080
X32.96200 Y76.39740
X32.96200 Y79.31840
X33.16520 Y79.42000
X33.31760 Y79.59780
X33.39380 Y79.85180
X33.39380 Y80.18200
X33.34300 Y80.38520
X33.26680 Y80.46140
X33.26680 Y80.51220
X32.98740 Y80.71540
X32.50480 Y80.74080
X32.35240 Y80.71540
X32.27620 Y80.63920
G04 P0 ( dwell for no time -- G64 should not smooth over this point )
G00 Z5.00000 ( retract )

G00 X28.89800 Y82.82360 ( rapid move to begin. )
F300.00000
G01 Z-0.05000
G04 P0 ( dwell for no time -- G64 should not smooth over this point )
F600.00000
X28.89800 Y82.82360
X28.77100 Y82.77280
X28.59320 Y82.56960
X28.49160 Y82.21400
X28.49160 Y81.93460
X28.54240 Y81.68060
X28.59320 Y81.57900
X28.66940 Y81.52820
X28.66940 Y81.47740
X28.77100 Y81.37580
X28.89800 Y81.32500
X26.68820 Y79.11520
X26.68820 Y74.18760
X26.56120 Y74.16220
X26.33260 Y73.98440
X26.33260 Y73.93360
X26.25640 Y73.85740
X26.20560 Y73.65420
X26.20560 Y73.32400
X26.25640 Y73.12080
X26.43420 Y72.89220
X26.53580 Y72.86680
X26.61200 Y72.79060
X27.09460 Y72.76520
X27.29780 Y72.81600
X27.52640 Y72.99380
X27.52640 Y73.04460
X27.60260 Y73.12080
X27.65340 Y73.32400
X27.65340 Y73.65420
X27.57720 Y73.90820
X27.42480 Y74.08600
X27.32320 Y74.11140
X27.24700 Y74.18760
X27.17080 Y74.18760
X27.17080 Y78.83580
X29.55840 Y81.19800
X29.55840 Y81.24880
X29.73620 Y81.27420
X29.81240 Y81.35040
X29.91400 Y81.37580
X30.14260 Y81.68060
X30.19340 Y81.93460
X30.19340 Y82.21400
X30.14260 Y82.46800
X29.91400 Y82.77280
X29.81240 Y82.79820
X29.73620 Y82.87440
X29.48220 Y82.92520
X29.05040 Y82.89980
X28.89800 Y82.82360
G04 P0 ( dwell for no time -- G64 should not smooth over this point )
G00 Z5.00000 ( retract )

G00 X28.89800 Y85.36360 ( rapid move to begin. )
F300.00000
G01 Z-0.05000
G04 P0 ( dwell for no time -- G64 should not smooth over this point )
F600.00000
X28.89800 Y85.36360
X28.72020 Y85.26200
X28.54240 Y85.00800
X28.49160 Y84.75400
X28.49160 Y84.47460
X28.59320 Y84.11900
X28.77100 Y83.91580
X28.87260 Y83.89040
X28.89800 Y83.83960
X29.20280 Y83.76340
X29.63460 Y83.78880
X29.91400 Y83.91580
X30.11720 Y84.16980
X30.19340 Y84.47460
X30.19340 Y84.75400
X30.09180 Y85.10960
X29.91400 Y85.31280
X29.63460 Y85.43980
X29.20280 Y85.46520
X28.94880 Y85.41440
X28.89800 Y85.36360
G04 P0 ( dwell for no time -- G64 should not smooth over this point )
G00 Z5.00000 ( retract )

G00 X28.89800 Y87.90360 ( rapid move to begin. )
F300.00000
G01 Z-0.05000
G04 P0 ( dwell for no time -- G64 should not smooth over this point )
F600.00000
X28.89800 Y87.90360
X28.72020 Y87.80200
X28.54240 Y87.54800
X28.49160 Y87.29400
X28.49160 Y87.01460
X28.59320 Y86.65900
X28.77100 Y86.45580
X28.87260 Y86.43040
X28.89800 Y86.37960
X29.20280 Y86.30340
X29.63460 Y86.32880
X29.91400 Y86.45580
X30.11720 Y86.70980
X30.19340 Y87.01460
X30.19340 Y87.29400
X30.09180 Y87.64960
X29.91400 Y87.85280
X29.63460 Y87.97980
X29.20280 Y88.00520
X28.94880 Y87.95440
X28.89800 Y87.90360
G04 P0 ( dwell for no time -- G64 should not smooth over this point )
G00 Z5.00000 ( retract )

G00 X28.89800 Y90.44360 ( rapid move to begin. )
F300.00000
G01 Z-0.05000
G04 P0 ( dwell for no time -- G64 should not smooth over this point )
F600.00000
X28.89800 Y90.44360
X28.77100 Y90.39280
X28.54240 Y90.08800
X28.49160 Y89.83400
X28.49160 Y89.55460
X28.59320 Y89.19900
X28.77100 Y88.99580
X28.87260 Y88.97040
X28.89800 Y88.91960
X29.20280 Y88.86880
X34.96860 Y83.10300
X34.96860 Y81.17260
X35.90840 Y80.23280
X35.67980 Y79.92800
X35.62900 Y79.67400
X35.62900 Y79.39460
X35.67980 Y79.14060
X35.90840 Y78.83580
X36.18780 Y78.70880
X36.61960 Y78.68340
X36.87360 Y78.73420
X36.94980 Y78.81040
X37.05140 Y78.83580
X37.22920 Y79.03900
X37.33080 Y79.39460
X37.33080 Y79.67400
X37.22920 Y80.02960
X37.05140 Y80.23280
X36.94980 Y80.25820
X36.87360 Y80.33440
X36.72120 Y80.35980
X36.72120 Y80.46140
X36.67040 Y80.53760
X36.34020 Y80.56300
X35.45120 Y81.45200
X35.42580 Y83.43320
X29.86320 Y88.97040
X30.09180 Y89.19900
X30.19340 Y89.55460
X30.19340 Y89.83400
X30.14260 Y90.08800
X30.09180 Y90.18960
X30.01560 Y90.24040
X30.01560 Y90.29120
X29.73620 Y90.49440
X29.48220 Y90.54520
X29.05040 Y90.51980
X28.89800 Y90.44360
G04 P0 ( dwell for no time -- G64 should not smooth over this point )
G00 Z5.00000 ( retract )

G00 X28.89800 Y92.98360 ( rapid move to begin. )
F300.00000
G01 Z-0.05000
G04 P0 ( dwell for no time -- G64 should not smooth over this point )
F600.00000
X28.89800 Y92.98360
X28.77100 Y92.93280
X28.66940 Y92.83120
X28.66940 Y92.78040
X28.59320 Y92.72960
X28.54240 Y92.62800
X28.49160 Y92.37400
X28.49160 Y92.09460
X28.59320 Y91.73900
X28.77100 Y91.53580
X28.87260 Y91.51040
X28.89800 Y91.45960
X29.20280 Y91.38340
X29.63460 Y91.40880
X29.91400 Y91.53580
X30.09180 Y91.73900
X30.19340 Y92.09460
X30.19340 Y92.37400
X30.09180 Y92.72960
X29.91400 Y92.93280
X29.63460 Y93.05980
X29.20280 Y93.08520
X28.94880 Y93.03440
X28.89800 Y92.98360
G04 P0 ( dwell for no time -- G64 should not smooth over this point )
G00 Z5.00000 ( retract )

G00 X34.20660 Y93.66940 ( rapid move to begin. )
F300.00000
G01 Z-0.05000
G04 P0 ( dwell for no time -- G64 should not smooth over this point )
F600.00000
X34.20660 Y93.66940
X33.03820 Y92.52640
X33.03820 Y92.47560
X31.74280 Y91.18020
X28.11060 Y91.15480
X27.39940 Y90.41820
X27.39940 Y87.64960
X27.32320 Y87.64960
X27.24700 Y87.57340
X27.14540 Y87.54800
X26.96760 Y87.31940
X26.91680 Y87.11620
X26.94220 Y86.65900
X26.99300 Y86.53200
X27.14540 Y86.35420
X27.24700 Y86.32880
X27.32320 Y86.25260
X27.47560 Y86.22720
X27.95820 Y86.25260
X28.03440 Y86.32880
X28.13600 Y86.35420
X28.31380 Y86.58280
X28.36460 Y86.78600
X28.36460 Y87.11620
X28.31380 Y87.31940
X28.13600 Y87.54800
X28.03440 Y87.57340
X27.95820 Y87.64960
X27.88200 Y87.64960
X27.88200 Y90.13880
X28.44080 Y90.69760
X32.02220 Y90.69760
X33.34300 Y91.99300
X33.34300 Y92.04380
X34.58760 Y93.28840
X39.82000 Y93.28840
X41.26780 Y91.84060
X41.26780 Y67.38040
X42.53780 Y66.11040
X42.56320 Y62.78300
X42.74100 Y62.60520
X43.27440 Y62.60520
X43.29980 Y62.45280
X43.35060 Y62.35120
X43.42680 Y62.30040
X43.42680 Y62.24960
X43.70620 Y62.04640
X43.96020 Y61.99560
X44.23960 Y61.99560
X44.49360 Y62.04640
X44.69680 Y62.17340
X44.90000 Y62.45280
X44.95080 Y62.70680
X44.95080 Y62.98620
X44.90000 Y63.24020
X44.84920 Y63.34180
X44.77300 Y63.39260
X44.77300 Y63.44340
X44.49360 Y63.64660
X44.23960 Y63.69740
X43.96020 Y63.69740
X43.70620 Y63.64660
X43.63000 Y63.57040
X43.52840 Y63.54500
X43.35060 Y63.34180
X43.27440 Y63.08780
X43.02040 Y63.08780
X43.02040 Y66.38980
X41.75040 Y67.65980
X41.75040 Y92.12000
X40.09940 Y93.77100
X34.30820 Y93.77100
X34.20660 Y93.66940
G04 P0 ( dwell for no time -- G64 should not smooth over this point )
G00 Z5.00000 ( retract )

G00 X36.03540 Y92.98360 ( rapid move to begin. )
F300.00000
G01 Z-0.05000
G04 P0 ( dwell for no time -- G64 should not smooth over this point )
F600.00000
X36.03540 Y92.98360
X35.88300 Y92.90740
X35.67980 Y92.62800
X35.62900 Y92.37400
X35.62900 Y92.09460
X35.73060 Y91.73900
X35.90840 Y91.53580
X36.01000 Y91.51040
X36.08620 Y91.43420
X36.08620 Y91.35800
X36.18780 Y91.23100
X36.31480 Y91.18020
X37.12760 Y91.18020
X37.43240 Y90.85000
X37.48320 Y90.85000
X37.55940 Y90.77380
X37.55940 Y73.52720
X37.40700 Y73.45100
X37.17840 Y73.14620
X37.12760 Y72.89220
X37.15300 Y72.53660
X36.64500 Y72.05400
X36.64500 Y72.00320
X36.08620 Y71.44440
X36.06080 Y68.70120
X35.90840 Y68.62500
X35.73060 Y68.42180
X35.62900 Y68.06620
X35.62900 Y67.78680
X35.67980 Y67.53280
X35.83220 Y67.30420
X36.08620 Y67.12640
X36.34020 Y67.07560
X36.61960 Y67.07560
X36.87360 Y67.12640
X37.15300 Y67.32960
X37.15300 Y67.38040
X37.22920 Y67.43120
X37.28000 Y67.53280
X37.33080 Y67.78680
X37.33080 Y68.06620
X37.28000 Y68.32020
X37.05140 Y68.62500
X36.87360 Y68.70120
X36.87360 Y71.01260
X37.78800 Y71.92700
X38.11820 Y71.90160
X38.37220 Y71.95240
X38.44840 Y72.02860
X38.55000 Y72.05400
X38.77860 Y72.35880
X38.82940 Y72.61280
X38.82940 Y72.89220
X38.72780 Y73.24780
X38.55000 Y73.45100
X38.37220 Y73.52720
X38.37220 Y91.12940
X38.32140 Y91.25640
X37.61020 Y91.94220
X37.48320 Y91.99300
X37.30540 Y91.99300
X37.33080 Y92.37400
X37.28000 Y92.62800
X37.05140 Y92.93280
X36.94980 Y92.95820
X36.87360 Y93.03440
X36.61960 Y93.08520
X36.18780 Y93.05980
X36.03540 Y92.98360
G04 P0 ( dwell for no time -- G64 should not smooth over this point )
G00 Z5.00000 ( retract )

G00 X36.03540 Y90.44360 ( rapid move to begin. )
F300.00000
G01 Z-0.05000
G04 P0 ( dwell for no time -- G64 should not smooth over this point )
F600.00000
X36.03540 Y90.44360
X35.90840 Y90.39280
X35.67980 Y90.08800
X35.62900 Y89.83400
X35.62900 Y89.55460
X35.73060 Y89.19900
X35.90840 Y88.99580
X36.01000 Y88.97040
X36.03540 Y88.91960
X36.34020 Y88.84340
X36.77200 Y88.86880
X37.05140 Y88.99580
X37.22920 Y89.19900
X37.33080 Y89.55460
X37.33080 Y89.83400
X37.22920 Y90.18960
X37.05140 Y90.39280
X36.77200 Y90.51980
X36.34020 Y90.54520
X36.08620 Y90.49440
X36.03540 Y90.44360
G04 P0 ( dwell for no time -- G64 should not smooth over this point )
G00 Z5.00000 ( retract )

G00 X36.03540 Y87.90360 ( rapid move to begin. )
F300.00000
G01 Z-0.05000
G04 P0 ( dwell for no time -- G64 should not smooth over this point )
F600.00000
X36.03540 Y87.90360
X35.90840 Y87.85280
X35.67980 Y87.54800
X35.62900 Y87.29400
X35.62900 Y87.01460
X35.73060 Y86.65900
X35.90840 Y86.45580
X36.01000 Y86.43040
X36.03540 Y86.37960
X36.34020 Y86.30340
X36.77200 Y86.32880
X37.05140 Y86.45580
X37.22920 Y86.65900
X37.33080 Y87.01460
X37.33080 Y87.29400
X37.22920 Y87.64960
X37.05140 Y87.85280
X36.77200 Y87.97980
X36.34020 Y88.00520
X36.08620 Y87.95440
X36.03540 Y87.90360
G04 P0 ( dwell for no time -- G64 should not smooth over this point )
G00 Z5.00000 ( retract )

G00 X36.03540 Y85.36360 ( rapid move to begin. )
F300.00000
G01 Z-0.05000
G04 P0 ( dwell for no time -- G64 should not smooth over this point )
F600.00000
X36.03540 Y85.36360
X35.88300 Y85.28740
X35.67980 Y85.00800
X35.62900 Y84.75400
X35.62900 Y84.47460
X35.73060 Y84.11900
X35.90840 Y83.91580
X36.01000 Y83.89040
X36.03540 Y83.83960
X36.34020 Y83.76340
X36.77200 Y83.78880
X37.05140 Y83.91580
X37.22920 Y84.11900
X37.33080 Y84.47460
X37.33080 Y84.75400
X37.22920 Y85.10960
X37.05140 Y85.31280
X36.77200 Y85.43980
X36.34020 Y85.46520
X36.08620 Y85.41440
X36.03540 Y85.36360
G04 P0 ( dwell for no time -- G64 should not smooth over this point )
G00 Z5.00000 ( retract )

G00 X36.03540 Y82.82360 ( rapid move to begin. )
F300.00000
G01 Z-0.05000
G04 P0 ( dwell for no time -- G64 should not smooth over this point )
F600.00000
X36.03540 Y82.82360
X35.88300 Y82.74740
X35.67980 Y82.46800
X35.62900 Y82.21400
X35.62900 Y81.93460
X35.73060 Y81.57900
X35.90840 Y81.37580
X36.01000 Y81.35040
X36.03540 Y81.29960
X36.34020 Y81.22340
X36.77200 Y81.24880
X37.05140 Y81.37580
X37.22920 Y81.57900
X37.33080 Y81.93460
X37.33080 Y82.21400
X37.22920 Y82.56960
X37.05140 Y82.77280
X36.77200 Y82.89980
X36.34020 Y82.92520
X36.08620 Y82.87440
X36.03540 Y82.82360
G04 P0 ( dwell for no time -- G64 should not smooth over this point )
G00 Z5.00000 ( retract )

G00 X39.56600 Y82.67120 ( rapid move to begin. )
F300.00000
G01 Z-0.05000
G04 P0 ( dwell for no time -- G64 should not smooth over this point )
F600.00000
X39.56600 Y82.67120
X39.46440 Y82.64580
X39.36280 Y82.54420
X39.26120 Y82.34100
X39.23580 Y81.88380
X39.31200 Y81.62980
X39.46440 Y81.45200
X39.56600 Y81.42660
X39.64220 Y81.35040
X39.79460 Y81.32500
X40.27720 Y81.35040
X40.32800 Y81.29960
X40.32800 Y67.22800
X40.25180 Y67.22800
X40.17560 Y67.15180
X40.07400 Y67.12640
X39.92160 Y66.94860
X39.84540 Y66.69460
X39.84540 Y66.36440
X39.92160 Y66.11040
X40.07400 Y65.93260
X40.17560 Y65.90720
X40.25180 Y65.83100
X40.37880 Y65.83100
X40.37880 Y61.43680
X42.15680 Y59.65880
X42.18220 Y56.71240
X42.99500 Y55.89960
X43.04580 Y55.89960
X43.32520 Y55.62020
X43.24900 Y55.36620
X43.24900 Y55.08680
X43.29980 Y54.83280
X43.35060 Y54.73120
X43.42680 Y54.68040
X43.42680 Y54.62960
X43.52840 Y54.52800
X43.80780 Y54.40100
X43.96020 Y54.37560
X44.39200 Y54.40100
X44.67140 Y54.52800
X44.90000 Y54.83280
X44.95080 Y55.08680
X44.95080 Y55.36620
X44.90000 Y55.62020
X44.72220 Y55.87420
X44.49360 Y56.02660
X44.23960 Y56.07740
X43.96020 Y56.07740
X43.70620 Y56.00120
X42.63940 Y57.04260
X42.63940 Y59.93820
X40.86140 Y61.71620
X40.86140 Y65.83100
X41.06460 Y65.93260
X41.16620 Y66.03420
X41.16620 Y66.08500
X41.24240 Y66.16120
X41.29320 Y66.36440
X41.29320 Y66.69460
X41.24240 Y66.89780
X41.06460 Y67.12640
X40.86140 Y67.22800
X40.86140 Y81.52820
X40.63280 Y81.75680
X40.68360 Y81.88380
X40.68360 Y82.21400
X40.60740 Y82.46800
X40.45500 Y82.64580
X40.35340 Y82.67120
X40.27720 Y82.74740
X40.12480 Y82.77280
X39.64220 Y82.74740
X39.56600 Y82.67120
G04 P0 ( dwell for no time -- G64 should not smooth over this point )
G00 Z5.00000 ( retract )

G00 X43.65540 Y82.82360 ( rapid move to begin. )
F300.00000
G01 Z-0.05000
G04 P0 ( dwell for no time -- G64 should not smooth over this point )
F600.00000
X43.65540 Y82.82360
X43.50300 Y82.74740
X43.29980 Y82.46800
X43.24900 Y82.21400
X43.24900 Y81.93460
X43.35060 Y81.57900
X43.52840 Y81.37580
X43.63000 Y81.35040
X43.65540 Y81.29960
X43.96020 Y81.22340
X44.39200 Y81.24880
X44.67140 Y81.37580
X44.87460 Y81.62980
X44.95080 Y81.93460
X44.95080 Y82.21400
X44.84920 Y82.56960
X44.67140 Y82.77280
X44.39200 Y82.89980
X43.96020 Y82.92520
X43.70620 Y82.87440
X43.65540 Y82.82360
G04 P0 ( dwell for no time -- G64 should not smooth over this point )
G00 Z5.00000 ( retract )

G00 X43.65540 Y85.36360 ( rapid move to begin. )
F300.00000
G01 Z-0.05000
G04 P0 ( dwell for no time -- G64 should not smooth over this point )
F600.00000
X43.65540 Y85.36360
X43.50300 Y85.28740
X43.29980 Y85.00800
X43.24900 Y84.75400
X43.24900 Y84.47460
X43.35060 Y84.11900
X43.52840 Y83.91580
X43.63000 Y83.89040
X43.65540 Y83.83960
X43.96020 Y83.76340
X44.39200 Y83.78880
X44.67140 Y83.91580
X44.87460 Y84.16980
X44.95080 Y84.47460
X44.95080 Y84.75400
X44.84920 Y85.10960
X44.67140 Y85.31280
X44.39200 Y85.43980
X43.96020 Y85.46520
X43.70620 Y85.41440
X43.65540 Y85.36360
G04 P0 ( dwell for no time -- G64 should not smooth over this point )
G00 Z5.00000 ( retract )

G00 X43.65540 Y87.90360 ( rapid move to begin. )
F300.00000
G01 Z-0.05000
G04 P0 ( dwell for no time -- G64 should not smooth over this point )
F600.00000
X43.65540 Y87.90360
X43.52840 Y87.85280
X43.29980 Y87.54800
X43.24900 Y87.29400
X43.24900 Y87.01460
X43.35060 Y86.65900
X43.52840 Y86.45580
X43.63000 Y86.43040
X43.65540 Y86.37960
X43.96020 Y86.30340
X44.39200 Y86.32880
X44.67140 Y86.45580
X44.87460 Y86.70980
X44.95080 Y87.01460
X44.95080 Y87.29400
X44.84920 Y87.64960
X44.67140 Y87.85280
X44.39200 Y87.97980
X43.96020 Y88.00520
X43.70620 Y87.95440
X43.65540 Y87.90360
G04 P0 ( dwell for no time -- G64 should not smooth over this point )
G00 Z5.00000 ( retract )

G00 X43.65540 Y90.44360 ( rapid move to begin. )
F300.00000
G01 Z-0.05000
G04 P0 ( dwell for no time -- G64 should not smooth over this point )
F600.00000
X43.65540 Y90.44360
X43.52840 Y90.39280
X43.42680 Y90.29120
X43.42680 Y90.24040
X43.35060 Y90.18960
X43.29980 Y90.08800
X43.27440 Y89.93560
X42.69020 Y89.96100
X42.58860 Y89.85940
X42.58860 Y78.32780
X42.91880 Y77.99760
X44.51900 Y77.99760
X45.07780 Y77.43880
X45.10320 Y75.22900
X46.62720 Y73.73040
X46.57640 Y73.60340
X46.57640 Y73.27320
X46.65260 Y73.01920
X46.80500 Y72.84140
X46.90660 Y72.81600
X46.98280 Y72.73980
X47.13520 Y72.71440
X47.61780 Y72.73980
X47.89720 Y72.94300
X47.99880 Y73.14620
X48.02420 Y73.60340
X47.97340 Y73.80660
X47.89720 Y73.88280
X47.89720 Y73.93360
X47.61780 Y74.13680
X47.46540 Y74.16220
X46.98280 Y74.13680
X45.61120 Y75.50840
X45.58580 Y77.74360
X45.50960 Y77.76900
X44.77300 Y78.53100
X43.17280 Y78.53100
X43.14740 Y78.58180
X43.07120 Y78.60720
X43.07120 Y89.45300
X43.27440 Y89.45300
X43.35060 Y89.19900
X43.52840 Y88.99580
X43.63000 Y88.97040
X43.65540 Y88.91960
X43.96020 Y88.84340
X44.23960 Y88.84340
X44.49360 Y88.89420
X44.56980 Y88.97040
X44.67140 Y88.99580
X44.90000 Y89.30060
X44.95080 Y89.55460
X44.95080 Y89.83400
X44.90000 Y90.08800
X44.67140 Y90.39280
X44.56980 Y90.41820
X44.49360 Y90.49440
X44.23960 Y90.54520
X43.80780 Y90.51980
X43.65540 Y90.44360
G04 P0 ( dwell for no time -- G64 should not smooth over this point )
G00 Z5.00000 ( retract )

G00 X43.65540 Y92.98360 ( rapid move to begin. )
F300.00000
G01 Z-0.05000
G04 P0 ( dwell for no time -- G64 should not smooth over this point )
F600.00000
X43.65540 Y92.98360
X43.50300 Y92.90740
X43.29980 Y92.62800
X43.24900 Y92.37400
X43.24900 Y92.09460
X43.35060 Y91.73900
X43.52840 Y91.53580
X43.63000 Y91.51040
X43.65540 Y91.45960
X43.96020 Y91.38340
X44.39200 Y91.40880
X44.67140 Y91.53580
X44.84920 Y91.73900
X44.95080 Y92.09460
X44.95080 Y92.37400
X44.84920 Y92.72960
X44.67140 Y92.93280
X44.39200 Y93.05980
X43.96020 Y93.08520
X43.70620 Y93.03440
X43.65540 Y92.98360
G04 P0 ( dwell for no time -- G64 should not smooth over this point )
G00 Z5.00000 ( retract )

G00 X46.62720 Y90.06260 ( rapid move to begin. )
F300.00000
G01 Z-0.05000
G04 P0 ( dwell for no time -- G64 should not smooth over this point )
F600.00000
X46.62720 Y90.06260
X45.96680 Y89.42760
X45.96680 Y89.37680
X45.12860 Y88.53860
X45.12860 Y81.57900
X44.41740 Y80.86780
X44.06180 Y80.86780
X43.96020 Y80.79160
X43.96020 Y80.74080
X43.85860 Y80.63920
X43.85860 Y80.35980
X43.70620 Y80.33440
X43.63000 Y80.25820
X43.52840 Y80.23280
X43.35060 Y80.02960
X43.24900 Y79.67400
X43.24900 Y79.39460
X43.35060 Y79.03900
X43.52840 Y78.83580
X43.63000 Y78.81040
X43.70620 Y78.73420
X43.96020 Y78.68340
X44.23960 Y78.68340
X44.49360 Y78.73420
X44.56980 Y78.81040
X44.67140 Y78.83580
X44.90000 Y79.14060
X44.95080 Y79.39460
X44.95080 Y79.67400
X44.90000 Y79.92800
X44.67140 Y80.23280
X44.34120 Y80.38520
X44.74760 Y80.41060
X45.61120 Y81.29960
X45.61120 Y88.25920
X46.29700 Y88.91960
X46.29700 Y88.97040
X47.00820 Y89.68160
X48.25280 Y89.68160
X49.06560 Y88.86880
X49.06560 Y79.42000
X49.34500 Y79.11520
X49.39580 Y79.11520
X49.59900 Y78.91200
X49.59900 Y66.61840
X50.43720 Y65.78020
X50.36100 Y65.52620
X50.36100 Y65.24680
X50.41180 Y64.99280
X50.46260 Y64.89120
X50.53880 Y64.84040
X50.53880 Y64.78960
X50.76740 Y64.61180
X51.07220 Y64.53560
X51.35160 Y64.53560
X51.60560 Y64.58640
X51.68180 Y64.66260
X51.78340 Y64.68800
X52.01200 Y64.99280
X52.06280 Y65.24680
X52.06280 Y65.52620
X51.96120 Y65.88180
X51.78340 Y66.08500
X51.68180 Y66.11040
X51.65640 Y66.16120
X51.35160 Y66.23740
X51.07220 Y66.23740
X50.81820 Y66.16120
X50.56420 Y66.41520
X52.62160 Y66.41520
X52.72320 Y66.51680
X52.72320 Y74.11140
X53.63760 Y75.00040
X53.63760 Y75.05120
X54.65360 Y76.06720
X54.65360 Y81.83300
X55.94900 Y83.12840
X59.86060 Y83.12840
X60.47020 Y82.51880
X60.47020 Y74.41620
X59.86060 Y73.80660
X59.86060 Y46.80640
X57.32060 Y44.26640
X57.32060 Y37.84020
X58.36200 Y36.77340
X58.15880 Y36.62100
X58.15880 Y36.57020
X58.08260 Y36.51940
X58.03180 Y36.41780
X57.98100 Y36.16380
X57.98100 Y35.88440
X58.08260 Y35.52880
X58.26040 Y35.32560
X58.36200 Y35.30020
X58.43820 Y35.22400
X58.69220 Y35.17320
X59.12400 Y35.19860
X59.40340 Y35.32560
X59.63200 Y35.63040
X59.68280 Y35.88440
X59.68280 Y36.16380
X59.63200 Y36.41780
X59.40340 Y36.72260
X59.30180 Y36.74800
X59.22560 Y36.82420
X59.07320 Y36.84960
X59.07320 Y36.97660
X59.02240 Y37.05280
X58.81920 Y37.07820
X58.31120 Y37.58620
X58.31120 Y37.63700
X57.80320 Y38.11960
X57.80320 Y43.98700
X60.34320 Y46.52700
X60.34320 Y73.52720
X60.95280 Y74.13680
X60.95280 Y82.79820
X60.14000 Y83.61100
X55.66960 Y83.61100
X54.19640 Y82.16320
X54.17100 Y76.34660
X53.30740 Y75.50840
X53.30740 Y75.45760
X52.24060 Y74.39080
X52.24060 Y66.89780
X50.08160 Y66.89780
X50.08160 Y79.19140
X49.80220 Y79.49620
X49.75140 Y79.49620
X49.54820 Y79.69940
X49.54820 Y89.14820
X48.53220 Y90.16420
X46.72880 Y90.16420
X46.62720 Y90.06260
G04 P0 ( dwell for no time -- G64 should not smooth over this point )
G00 Z5.00000 ( retract )

G00 X47.79560 Y89.02120 ( rapid move to begin. )
F300.00000
G01 Z-0.05000
G04 P0 ( dwell for no time -- G64 should not smooth over this point )
F600.00000
X47.79560 Y89.02120
X47.69400 Y88.99580
X47.51620 Y88.76720
X47.46540 Y88.56400
X47.46540 Y88.23380
X47.51620 Y88.03060
X47.59240 Y87.95440
X47.59240 Y87.90360
X47.82100 Y87.72580
X47.99880 Y87.70040
X47.99880 Y76.29580
X48.45600 Y75.83860
X48.45600 Y75.78780
X48.81160 Y75.45760
X48.81160 Y72.13020
X48.07500 Y71.41900
X48.07500 Y71.36820
X47.18600 Y70.47920
X47.18600 Y59.07460
X47.10980 Y59.07460
X47.03360 Y58.99840
X46.93200 Y58.97300
X46.77960 Y58.79520
X46.70340 Y58.54120
X46.70340 Y58.21100
X46.75420 Y58.00780
X46.85580 Y57.85540
X46.93200 Y57.77920
X47.03360 Y57.75380
X47.05900 Y57.70300
X47.26220 Y57.65220
X47.74480 Y57.67760
X47.82100 Y57.75380
X47.92260 Y57.77920
X48.07500 Y57.95700
X48.15120 Y58.21100
X48.15120 Y58.54120
X48.07500 Y58.79520
X47.92260 Y58.97300
X47.82100 Y58.99840
X47.74480 Y59.07460
X47.66860 Y59.07460
X47.66860 Y70.19980
X48.43060 Y70.93640
X48.43060 Y70.98720
X49.29420 Y71.85080
X49.29420 Y75.73700
X48.83700 Y76.19420
X48.83700 Y76.24500
X48.48140 Y76.57520
X48.48140 Y87.70040
X48.68460 Y87.80200
X48.83700 Y87.97980
X48.91320 Y88.23380
X48.91320 Y88.56400
X48.86240 Y88.76720
X48.78620 Y88.84340
X48.78620 Y88.89420
X48.50680 Y89.09740
X48.02420 Y89.12280
X47.87180 Y89.09740
X47.79560 Y89.02120
G04 P0 ( dwell for no time -- G64 should not smooth over this point )
G00 Z5.00000 ( retract )

G00 X46.62720 Y86.15100 ( rapid move to begin. )
F300.00000
G01 Z-0.05000
G04 P0 ( dwell for no time -- G64 should not smooth over this point )
F600.00000
X46.62720 Y86.15100
X46.52560 Y86.12560
X46.34780 Y85.89700
X46.29700 Y85.69380
X46.29700 Y85.36360
X46.34780 Y85.16040
X46.42400 Y85.08420
X46.42400 Y85.03340
X46.65260 Y84.85560
X46.77960 Y84.83020
X46.77960 Y75.78780
X48.17660 Y74.39080
X48.17660 Y72.48580
X45.91600 Y70.22520
X45.28100 Y70.22520
X45.00160 Y70.02200
X45.00160 Y69.97120
X44.92540 Y69.89500
X44.87460 Y69.69180
X44.87460 Y69.36160
X44.92540 Y69.15840
X45.10320 Y68.92980
X45.20480 Y68.90440
X45.28100 Y68.82820
X45.43340 Y68.80280
X45.91600 Y68.82820
X46.19540 Y69.03140
X46.19540 Y69.08220
X46.27160 Y69.15840
X46.32240 Y69.36160
X46.32240 Y69.69180
X46.27160 Y69.81880
X48.65920 Y72.20640
X48.65920 Y74.67020
X47.26220 Y76.06720
X47.26220 Y84.83020
X47.33840 Y84.83020
X47.41460 Y84.90640
X47.51620 Y84.93180
X47.66860 Y85.10960
X47.74480 Y85.36360
X47.74480 Y85.69380
X47.69400 Y85.89700
X47.61780 Y85.97320
X47.61780 Y86.02400
X47.33840 Y86.22720
X46.85580 Y86.25260
X46.70340 Y86.22720
X46.62720 Y86.15100
G04 P0 ( dwell for no time -- G64 should not smooth over this point )
G00 Z5.00000 ( retract )

G00 X50.76740 Y85.36360 ( rapid move to begin. )
F300.00000
G01 Z-0.05000
G04 P0 ( dwell for no time -- G64 should not smooth over this point )
F600.00000
X50.76740 Y85.36360
X50.58960 Y85.26200
X50.41180 Y85.00800
X50.36100 Y84.75400
X50.36100 Y84.47460
X50.46260 Y84.11900
X50.64040 Y83.91580
X50.74200 Y83.89040
X50.76740 Y83.83960
X51.07220 Y83.76340
X51.50400 Y83.78880
X51.78340 Y83.91580
X51.98660 Y84.16980
X52.06280 Y84.47460
X52.06280 Y84.75400
X51.96120 Y85.10960
X51.78340 Y85.31280
X51.50400 Y85.43980
X51.07220 Y85.46520
X50.81820 Y85.41440
X50.76740 Y85.36360
G04 P0 ( dwell for no time -- G64 should not smooth over this point )
G00 Z5.00000 ( retract )

G00 X50.76740 Y87.90360 ( rapid move to begin. )
F300.00000
G01 Z-0.05000
G04 P0 ( dwell for no time -- G64 should not smooth over this point )
F600.00000
X50.76740 Y87.90360
X50.64040 Y87.85280
X50.41180 Y87.54800
X50.36100 Y87.29400
X50.36100 Y87.01460
X50.46260 Y86.65900
X50.64040 Y86.45580
X50.74200 Y86.43040
X50.76740 Y86.37960
X51.07220 Y86.30340
X51.50400 Y86.32880
X51.78340 Y86.45580
X51.96120 Y86.65900
X52.06280 Y87.01460
X52.06280 Y87.29400
X51.96120 Y87.64960
X51.78340 Y87.85280
X51.50400 Y87.97980
X51.07220 Y88.00520
X50.81820 Y87.95440
X50.76740 Y87.90360
G04 P0 ( dwell for no time -- G64 should not smooth over this point )
G00 Z5.00000 ( retract )

G00 X50.76740 Y90.44360 ( rapid move to begin. )
F300.00000
G01 Z-0.05000
G04 P0 ( dwell for no time -- G64 should not smooth over this point )
F600.00000
X50.76740 Y90.44360
X50.64040 Y90.39280
X50.41180 Y90.08800
X50.36100 Y89.83400
X50.36100 Y89.55460
X50.46260 Y89.19900
X50.64040 Y88.99580
X50.74200 Y88.97040
X50.76740 Y88.91960
X51.07220 Y88.84340
X51.50400 Y88.86880
X51.78340 Y88.99580
X51.96120 Y89.19900
X52.06280 Y89.55460
X52.06280 Y89.83400
X51.96120 Y90.18960
X51.78340 Y90.39280
X51.50400 Y90.51980
X51.07220 Y90.54520
X50.81820 Y90.49440
X50.76740 Y90.44360
G04 P0 ( dwell for no time -- G64 should not smooth over this point )
G00 Z5.00000 ( retract )

G00 X50.76740 Y92.98360 ( rapid move to begin. )
F300.00000
G01 Z-0.05000
G04 P0 ( dwell for no time -- G64 should not smooth over this point )
F600.00000
X50.76740 Y92.98360
X50.61500 Y92.90740
X50.41180 Y92.62800
X50.36100 Y92.37400
X50.36100 Y92.09460
X50.46260 Y91.73900
X50.64040 Y91.53580
X50.79280 Y91.45960
X50.79280 Y91.20560
X50.84360 Y91.07860
X51.04680 Y90.95160
X51.78340 Y90.95160
X52.69780 Y90.03720
X52.69780 Y76.54980
X50.84360 Y74.69560
X50.79280 Y74.56860
X50.79280 Y68.70120
X50.64040 Y68.62500
X50.46260 Y68.42180
X50.36100 Y68.06620
X50.36100 Y67.78680
X50.41180 Y67.53280
X50.56420 Y67.30420
X50.81820 Y67.12640
X51.07220 Y67.07560
X51.35160 Y67.07560
X51.60560 Y67.12640
X51.68180 Y67.20260
X51.78340 Y67.22800
X51.98660 Y67.48200
X52.06280 Y67.78680
X52.06280 Y68.06620
X52.01200 Y68.32020
X51.78340 Y68.62500
X51.60560 Y68.70120
X51.60560 Y74.21300
X52.82480 Y75.40680
X52.82480 Y75.45760
X53.45980 Y76.06720
X53.51060 Y76.19420
X53.51060 Y90.39280
X53.45980 Y90.51980
X52.26600 Y91.71360
X52.13900 Y91.76440
X51.96120 Y91.76440
X52.01200 Y91.84060
X52.06280 Y92.09460
X52.06280 Y92.37400
X51.98660 Y92.67880
X51.78340 Y92.93280
X51.68180 Y92.95820
X51.60560 Y93.03440
X51.35160 Y93.08520
X50.91980 Y93.05980
X50.76740 Y92.98360
G04 P0 ( dwell for no time -- G64 should not smooth over this point )
G00 Z5.00000 ( retract )

G00 X50.38640 Y93.66940 ( rapid move to begin. )
F300.00000
G01 Z-0.05000
G04 P0 ( dwell for no time -- G64 should not smooth over this point )
F600.00000
X50.38640 Y93.66940
X49.70060 Y92.95820
X49.70060 Y80.74080
X50.36100 Y80.05500
X50.48800 Y80.02960
X50.41180 Y79.92800
X50.38640 Y79.80100
X50.36100 Y79.39460
X50.46260 Y79.03900
X50.64040 Y78.83580
X50.74200 Y78.81040
X50.81820 Y78.73420
X51.07220 Y78.68340
X51.35160 Y78.68340
X51.60560 Y78.73420
X51.68180 Y78.81040
X51.78340 Y78.83580
X51.96120 Y79.03900
X52.06280 Y79.39460
X52.06280 Y79.67400
X52.01200 Y79.92800
X51.78340 Y80.23280
X51.68180 Y80.25820
X51.60560 Y80.33440
X51.45320 Y80.35980
X51.42780 Y80.46140
X51.35160 Y80.51220
X50.69120 Y80.51220
X50.18320 Y81.02020
X50.18320 Y92.67880
X50.48800 Y92.95820
X50.48800 Y93.00900
X50.76740 Y93.28840
X52.44380 Y93.28840
X53.07880 Y92.65340
X53.07880 Y92.60260
X53.68840 Y92.01840
X53.68840 Y87.57340
X55.61880 Y85.64300
X59.58120 Y85.61760
X60.31780 Y84.85560
X60.36860 Y84.85560
X61.13060 Y84.09360
X61.13060 Y66.05960
X60.47020 Y65.39920
X60.47020 Y61.91940
X61.41000 Y60.97960
X61.41000 Y60.92880
X62.19740 Y60.16680
X62.19740 Y49.90520
X62.04500 Y49.75280
X61.99420 Y49.75280
X61.76560 Y49.49880
X61.76560 Y37.96720
X61.35920 Y37.56080
X61.35920 Y32.09980
X61.81640 Y31.64260
X61.81640 Y15.48820
X65.14380 Y12.16080
X65.06760 Y11.85600
X65.06760 Y11.57660
X65.11840 Y11.32260
X65.16920 Y11.22100
X65.24540 Y11.17020
X65.24540 Y11.11940
X65.34700 Y11.01780
X65.62640 Y10.89080
X66.21060 Y10.89080
X66.49000 Y11.01780
X66.71860 Y11.32260
X66.76940 Y11.57660
X66.76940 Y11.85600
X66.71860 Y12.11000
X66.66780 Y12.21160
X66.59160 Y12.26240
X66.59160 Y12.31320
X66.49000 Y12.41480
X66.21060 Y12.54180
X65.77880 Y12.56720
X65.55020 Y12.51640
X62.29900 Y15.76760
X62.29900 Y31.92200
X61.84180 Y32.37920
X61.84180 Y37.28140
X62.24820 Y37.68780
X62.24820 Y49.21940
X62.40060 Y49.37180
X62.45140 Y49.37180
X62.68000 Y49.62580
X62.68000 Y60.44620
X61.74020 Y61.38600
X61.74020 Y61.43680
X60.95280 Y62.19880
X60.95280 Y65.11980
X61.61320 Y65.78020
X61.61320 Y84.37300
X60.77500 Y85.23660
X60.72420 Y85.23660
X59.86060 Y86.10020
X55.94900 Y86.10020
X55.11080 Y86.96380
X55.06000 Y86.96380
X54.17100 Y87.85280
X54.14560 Y92.34860
X52.72320 Y93.77100
X50.48800 Y93.77100
X50.38640 Y93.66940
G04 P0 ( dwell for no time -- G64 should not smooth over this point )
G00 Z5.00000 ( retract )

G00 X54.24720 Y93.92340 ( rapid move to begin. )
F300.00000
G01 Z-0.05000
G04 P0 ( dwell for no time -- G64 should not smooth over this point )
F600.00000
X54.24720 Y93.92340
X54.14560 Y93.89800
X53.96780 Y93.66940
X53.91700 Y93.46620
X53.91700 Y93.13600
X53.96780 Y92.93280
X54.04400 Y92.85660
X54.04400 Y92.80580
X54.27260 Y92.62800
X54.39960 Y92.60260
X54.42500 Y90.08800
X56.45700 Y88.08140
X58.59060 Y88.05600
X58.59060 Y87.97980
X58.43820 Y87.95440
X58.36200 Y87.87820
X58.26040 Y87.85280
X58.03180 Y87.54800
X57.98100 Y87.29400
X57.98100 Y87.01460
X58.08260 Y86.65900
X58.26040 Y86.45580
X58.36200 Y86.43040
X58.38740 Y86.37960
X58.69220 Y86.30340
X59.12400 Y86.32880
X59.40340 Y86.45580
X59.63200 Y86.76060
X59.68280 Y87.01460
X59.68280 Y87.29400
X59.63200 Y87.54800
X59.40340 Y87.85280
X59.30180 Y87.87820
X59.22560 Y87.95440
X59.07320 Y87.97980
X59.07320 Y88.33540
X58.97160 Y88.46240
X58.92080 Y88.46240
X58.81920 Y88.56400
X56.73640 Y88.56400
X54.88220 Y90.41820
X54.88220 Y92.60260
X54.95840 Y92.60260
X55.03460 Y92.67880
X55.13620 Y92.70420
X55.28860 Y92.88200
X55.36480 Y93.13600
X55.36480 Y93.46620
X55.31400 Y93.66940
X55.23780 Y93.74560
X55.23780 Y93.79640
X54.95840 Y93.99960
X54.47580 Y94.02500
X54.32340 Y93.99960
X54.24720 Y93.92340
G04 P0 ( dwell for no time -- G64 should not smooth over this point )
G00 Z5.00000 ( retract )

G00 X58.38740 Y92.98360 ( rapid move to begin. )
F300.00000
G01 Z-0.05000
G04 P0 ( dwell for no time -- G64 should not smooth over this point )
F600.00000
X58.38740 Y92.98360
X58.26040 Y92.93280
X58.15880 Y92.83120
X58.15880 Y92.78040
X58.08260 Y92.72960
X58.03180 Y92.62800
X57.98100 Y92.37400
X57.98100 Y92.09460
X58.08260 Y91.73900
X58.26040 Y91.53580
X58.36200 Y91.51040
X58.38740 Y91.45960
X58.69220 Y91.38340
X59.12400 Y91.40880
X59.40340 Y91.53580
X59.58120 Y91.73900
X59.68280 Y92.09460
X59.68280 Y92.37400
X59.58120 Y92.72960
X59.40340 Y92.93280
X59.12400 Y93.05980
X58.69220 Y93.08520
X58.43820 Y93.03440
X58.38740 Y92.98360
G04 P0 ( dwell for no time -- G64 should not smooth over this point )
G00 Z5.00000 ( retract )

G00 X58.38740 Y90.44360 ( rapid move to begin. )
F300.00000
G01 Z-0.05000
G04 P0 ( dwell for no time -- G64 should not smooth over this point )
F600.00000
X58.38740 Y90.44360
X58.26040 Y90.39280
X58.08260 Y90.18960
X57.98100 Y89.83400
X57.98100 Y89.55460
X58.03180 Y89.30060
X58.26040 Y88.99580
X58.36200 Y88.97040
X58.43820 Y88.89420
X58.69220 Y88.84340
X59.12400 Y88.86880
X59.40340 Y88.99580
X59.58120 Y89.19900
X59.60660 Y89.30060
X62.47680 Y86.43040
X62.47680 Y70.04740
X62.40060 Y70.04740
X62.32440 Y69.97120
X62.22280 Y69.94580
X62.07040 Y69.76800
X61.99420 Y69.51400
X61.99420 Y69.18380
X62.04500 Y68.98060
X62.12120 Y68.90440
X62.12120 Y68.85360
X62.34980 Y68.67580
X62.55300 Y68.62500
X63.03560 Y68.65040
X63.11180 Y68.72660
X63.21340 Y68.75200
X63.39120 Y68.98060
X63.44200 Y69.18380
X63.44200 Y69.51400
X63.39120 Y69.71720
X63.31500 Y69.79340
X63.31500 Y69.84420
X63.08640 Y70.02200
X62.95940 Y70.04740
X62.95940 Y86.70980
X59.75900 Y89.93560
X59.63200 Y89.96100
X59.63200 Y90.08800
X59.58120 Y90.18960
X59.40340 Y90.39280
X59.30180 Y90.41820
X59.22560 Y90.49440
X58.97160 Y90.54520
X58.53980 Y90.51980
X58.38740 Y90.44360
G04 P0 ( dwell for no time -- G64 should not smooth over this point )
G00 Z5.00000 ( retract )

G00 X58.38740 Y85.36360 ( rapid move to begin. )
F300.00000
G01 Z-0.05000
G04 P0 ( dwell for no time -- G64 should not smooth over this point )
F600.00000
X58.38740 Y85.36360
X58.23500 Y85.28740
X58.03180 Y85.00800
X57.98100 Y84.75400
X57.98100 Y84.47460
X58.08260 Y84.11900
X58.26040 Y83.91580
X58.36200 Y83.89040
X58.38740 Y83.83960
X58.69220 Y83.76340
X59.12400 Y83.78880
X59.40340 Y83.91580
X59.63200 Y84.22060
X59.68280 Y84.47460
X59.68280 Y84.75400
X59.58120 Y85.10960
X59.40340 Y85.31280
X59.12400 Y85.43980
X58.69220 Y85.46520
X58.43820 Y85.41440
X58.38740 Y85.36360
G04 P0 ( dwell for no time -- G64 should not smooth over this point )
G00 Z5.00000 ( retract )

G00 X58.38740 Y82.82360 ( rapid move to begin. )
F300.00000
G01 Z-0.05000
G04 P0 ( dwell for no time -- G64 should not smooth over this point )
F600.00000
X58.38740 Y82.82360
X58.23500 Y82.74740
X58.03180 Y82.46800
X57.98100 Y82.21400
X57.98100 Y81.93460
X58.08260 Y81.57900
X58.26040 Y81.37580
X58.36200 Y81.35040
X58.38740 Y81.29960
X58.69220 Y81.22340
X59.12400 Y81.24880
X59.37800 Y81.37580
X59.40340 Y81.02020
X59.80980 Y80.61380
X59.80980 Y76.49900
X55.72040 Y72.40960
X55.72040 Y48.73680
X54.80600 Y47.82240
X54.80600 Y45.94280
X54.39960 Y45.53640
X54.39960 Y37.07820
X51.60560 Y34.28420
X51.35160 Y34.33500
X51.07220 Y34.33500
X50.81820 Y34.28420
X50.74200 Y34.20800
X50.64040 Y34.18260
X50.41180 Y33.87780
X50.36100 Y33.62380
X50.36100 Y33.34440
X50.46260 Y32.98880
X50.64040 Y32.78560
X50.91980 Y32.65860
X51.35160 Y32.63320
X51.60560 Y32.68400
X51.88500 Y32.88720
X51.88500 Y32.93800
X51.96120 Y32.98880
X52.01200 Y33.09040
X52.06280 Y33.49680
X52.44380 Y33.11580
X52.44380 Y33.06500
X53.20580 Y32.32840
X53.20580 Y8.85880
X53.99320 Y8.04600
X54.04400 Y8.04600
X54.88220 Y7.20780
X58.15880 Y7.20780
X58.03180 Y7.03000
X57.98100 Y6.77600
X57.98100 Y6.49660
X58.08260 Y6.14100
X58.26040 Y5.93780
X58.36200 Y5.91240
X58.43820 Y5.83620
X58.69220 Y5.78540
X58.97160 Y5.78540
X59.22560 Y5.83620
X59.30180 Y5.91240
X59.40340 Y5.93780
X59.63200 Y6.24260
X59.68280 Y6.49660
X59.68280 Y6.77600
X59.58120 Y7.13160
X59.40340 Y7.33480
X59.30180 Y7.36020
X59.22560 Y7.43640
X59.07320 Y7.46180
X59.07320 Y7.58880
X59.02240 Y7.66500
X55.16160 Y7.69040
X54.47580 Y8.40160
X54.42500 Y8.40160
X53.68840 Y9.13820
X53.68840 Y32.60780
X52.21520 Y34.10640
X54.88220 Y36.79880
X54.88220 Y45.25700
X55.28860 Y45.66340
X55.28860 Y47.54300
X56.20300 Y48.45740
X56.20300 Y72.13020
X60.29240 Y76.21960
X60.29240 Y80.89320
X59.86060 Y81.35040
X59.86060 Y82.21400
X59.80980 Y82.29020
X59.63200 Y82.34100
X59.63200 Y82.46800
X59.58120 Y82.56960
X59.50500 Y82.62040
X59.50500 Y82.67120
X59.22560 Y82.87440
X58.97160 Y82.92520
X58.51440 Y82.89980
X58.41280 Y82.87440
X58.38740 Y82.82360
G04 P0 ( dwell for no time -- G64 should not smooth over this point )
G00 Z5.00000 ( retract )

G00 X58.38740 Y80.28360 ( rapid move to begin. )
F300.00000
G01 Z-0.05000
G04 P0 ( dwell for no time -- G64 should not smooth over this point )
F600.00000
X58.38740 Y80.28360
X58.26040 Y80.23280
X58.08260 Y80.02960
X58.03180 Y79.92800
X58.03180 Y79.80100
X56.78720 Y79.77560
X54.83140 Y77.81980
X54.80600 Y74.74640
X52.90100 Y72.84140
X52.90100 Y65.72940
X52.06280 Y64.91660
X52.01200 Y64.35780
X50.15780 Y64.35780
X48.32900 Y62.52900
X48.32900 Y57.44900
X47.66860 Y56.78860
X47.66860 Y50.38780
X42.25840 Y50.38780
X41.49640 Y49.62580
X41.49640 Y19.73000
X40.98840 Y19.19660
X40.98840 Y15.64060
X40.86140 Y15.61520
X40.63280 Y15.43740
X40.63280 Y15.38660
X40.55660 Y15.31040
X40.50580 Y15.10720
X40.50580 Y14.77700
X40.55660 Y14.57380
X40.73440 Y14.34520
X40.83600 Y14.31980
X40.91220 Y14.24360
X41.39480 Y14.21820
X41.59800 Y14.26900
X41.82660 Y14.44680
X41.82660 Y14.49760
X41.90280 Y14.57380
X41.95360 Y14.77700
X41.95360 Y15.10720
X41.87740 Y15.36120
X41.72500 Y15.53900
X41.62340 Y15.56440
X41.54720 Y15.64060
X41.47100 Y15.64060
X41.47100 Y18.91720
X41.97900 Y19.45060
X41.97900 Y49.34640
X42.53780 Y49.90520
X47.66860 Y49.90520
X47.66860 Y45.23160
X47.59240 Y45.23160
X47.51620 Y45.15540
X47.41460 Y45.13000
X47.26220 Y44.95220
X47.18600 Y44.69820
X47.18600 Y44.36800
X47.23680 Y44.16480
X47.31300 Y44.08860
X47.31300 Y44.03780
X47.59240 Y43.83460
X48.22740 Y43.83460
X48.50680 Y44.03780
X48.50680 Y44.08860
X48.58300 Y44.16480
X48.63380 Y44.36800
X48.60840 Y44.82520
X48.55760 Y44.95220
X48.40520 Y45.13000
X48.30360 Y45.15540
X48.22740 Y45.23160
X48.15120 Y45.23160
X48.15120 Y56.50920
X48.81160 Y57.16960
X48.81160 Y62.24960
X50.43720 Y63.87520
X52.34220 Y63.90060
X52.52000 Y64.10380
X52.52000 Y64.58640
X53.35820 Y65.39920
X53.38360 Y72.56200
X55.28860 Y74.46700
X55.28860 Y77.48960
X57.11740 Y79.31840
X58.00640 Y79.31840
X58.08260 Y79.03900
X58.26040 Y78.83580
X58.36200 Y78.81040
X58.43820 Y78.73420
X58.69220 Y78.68340
X58.97160 Y78.68340
X59.22560 Y78.73420
X59.30180 Y78.81040
X59.40340 Y78.83580
X59.58120 Y79.03900
X59.68280 Y79.39460
X59.68280 Y79.67400
X59.63200 Y79.92800
X59.58120 Y80.02960
X59.50500 Y80.08040
X59.50500 Y80.13120
X59.22560 Y80.33440
X58.97160 Y80.38520
X58.53980 Y80.35980
X58.38740 Y80.28360
G04 P0 ( dwell for no time -- G64 should not smooth over this point )
G00 Z5.00000 ( retract )

G00 X58.38740 Y77.74360 ( rapid move to begin. )
F300.00000
G01 Z-0.05000
G04 P0 ( dwell for no time -- G64 should not smooth over this point )
F600.00000
X58.38740 Y77.74360
X58.26040 Y77.69280
X58.03180 Y77.38800
X57.98100 Y77.13400
X57.98100 Y76.85460
X58.08260 Y76.49900
X58.26040 Y76.29580
X58.36200 Y76.27040
X58.38740 Y76.21960
X58.69220 Y76.14340
X59.12400 Y76.16880
X59.40340 Y76.29580
X59.63200 Y76.60060
X59.68280 Y76.85460
X59.68280 Y77.13400
X59.58120 Y77.48960
X59.40340 Y77.69280
X59.12400 Y77.81980
X58.69220 Y77.84520
X58.43820 Y77.79440
X58.38740 Y77.74360
G04 P0 ( dwell for no time -- G64 should not smooth over this point )
G00 Z5.00000 ( retract )

G00 X58.43820 Y71.34280 ( rapid move to begin. )
F300.00000
G01 Z-0.05000
G04 P0 ( dwell for no time -- G64 should not smooth over this point )
F600.00000
X58.43820 Y71.34280
X58.33660 Y71.31740
X58.15880 Y71.08880
X58.10800 Y70.88560
X58.10800 Y70.55540
X58.15880 Y70.35220
X58.23500 Y70.27600
X58.23500 Y70.22520
X58.46360 Y70.04740
X58.59060 Y70.02200
X58.59060 Y68.75200
X58.43820 Y68.72660
X58.36200 Y68.65040
X58.26040 Y68.62500
X58.08260 Y68.42180
X57.98100 Y68.06620
X57.98100 Y67.78680
X58.03180 Y67.53280
X58.26040 Y67.22800
X58.53980 Y67.10100
X58.97160 Y67.07560
X59.22560 Y67.12640
X59.30180 Y67.20260
X59.40340 Y67.22800
X59.63200 Y67.53280
X59.68280 Y67.78680
X59.68280 Y68.06620
X59.58120 Y68.42180
X59.40340 Y68.62500
X59.30180 Y68.65040
X59.22560 Y68.72660
X59.07320 Y68.75200
X59.07320 Y70.02200
X59.14940 Y70.02200
X59.22560 Y70.09820
X59.32720 Y70.12360
X59.47960 Y70.30140
X59.55580 Y70.55540
X59.55580 Y70.88560
X59.50500 Y71.08880
X59.42880 Y71.16500
X59.42880 Y71.21580
X59.14940 Y71.41900
X58.66680 Y71.44440
X58.51440 Y71.41900
X58.43820 Y71.34280
G04 P0 ( dwell for no time -- G64 should not smooth over this point )
G00 Z5.00000 ( retract )

G00 X54.29800 Y72.28260 ( rapid move to begin. )
F300.00000
G01 Z-0.05000
G04 P0 ( dwell for no time -- G64 should not smooth over this point )
F600.00000
X54.29800 Y72.28260
X54.19640 Y72.25720
X54.01860 Y72.02860
X53.96780 Y71.82540
X53.96780 Y71.49520
X54.01860 Y71.29200
X54.09480 Y71.21580
X54.09480 Y71.16500
X54.32340 Y70.98720
X54.45040 Y70.96180
X54.45040 Y49.90520
X54.17100 Y49.62580
X54.12020 Y49.62580
X53.79000 Y49.27020
X53.79000 Y47.49220
X52.97720 Y46.67940
X52.97720 Y41.21840
X51.85960 Y40.10080
X50.53880 Y40.07540
X48.93860 Y38.44980
X48.93860 Y13.48160
X48.86240 Y13.40540
X48.81160 Y13.22760
X47.59240 Y13.22760
X46.27160 Y14.54840
X46.27160 Y28.84860
X45.45880 Y29.66140
X45.45880 Y29.71220
X44.77300 Y30.37260
X44.90000 Y30.55040
X44.95080 Y30.80440
X44.95080 Y31.08380
X44.90000 Y31.33780
X44.67140 Y31.64260
X44.56980 Y31.66800
X44.49360 Y31.74420
X44.23960 Y31.79500
X43.96020 Y31.79500
X43.70620 Y31.74420
X43.63000 Y31.66800
X43.52840 Y31.64260
X43.35060 Y31.43940
X43.24900 Y31.08380
X43.24900 Y30.80440
X43.29980 Y30.55040
X43.52840 Y30.24560
X43.63000 Y30.22020
X43.70620 Y30.14400
X43.85860 Y30.11860
X43.88400 Y30.04240
X43.96020 Y29.99160
X44.39200 Y29.99160
X45.10320 Y29.28040
X45.10320 Y29.22960
X45.78900 Y28.56920
X45.78900 Y14.26900
X47.26220 Y12.77040
X48.81160 Y12.74500
X48.86240 Y12.56720
X49.01480 Y12.38940
X49.11640 Y12.36400
X49.19260 Y12.28780
X49.34500 Y12.26240
X49.82760 Y12.28780
X49.90380 Y12.36400
X50.00540 Y12.38940
X50.15780 Y12.56720
X50.23400 Y12.82120
X50.23400 Y13.15140
X50.18320 Y13.35460
X50.10700 Y13.43080
X50.10700 Y13.48160
X49.82760 Y13.68480
X49.42120 Y13.71020
X49.42120 Y38.17040
X50.86900 Y39.61820
X52.18980 Y39.64360
X53.45980 Y40.93900
X53.45980 Y46.40000
X54.27260 Y47.21280
X54.27260 Y48.99080
X54.52660 Y49.24480
X54.57740 Y49.24480
X54.93300 Y49.62580
X54.93300 Y70.96180
X55.00920 Y70.96180
X55.08540 Y71.03800
X55.18700 Y71.06340
X55.33940 Y71.24120
X55.41560 Y71.49520
X55.41560 Y71.82540
X55.36480 Y72.02860
X55.28860 Y72.10480
X55.28860 Y72.15560
X55.00920 Y72.35880
X54.52660 Y72.38420
X54.37420 Y72.35880
X54.29800 Y72.28260
G04 P0 ( dwell for no time -- G64 should not smooth over this point )
G00 Z5.00000 ( retract )

G00 X50.36100 Y77.74360 ( rapid move to begin. )
F300.00000
G01 Z-0.05000
G04 P0 ( dwell for no time -- G64 should not smooth over this point )
F600.00000
X50.36100 Y77.74360
X50.36100 Y76.14340
X52.06280 Y76.14340
X52.06280 Y77.84520
X50.36100 Y77.84520
X50.36100 Y77.74360
G04 P0 ( dwell for no time -- G64 should not smooth over this point )
G00 Z5.00000 ( retract )

G00 X50.76740 Y82.82360 ( rapid move to begin. )
F300.00000
G01 Z-0.05000
G04 P0 ( dwell for no time -- G64 should not smooth over this point )
F600.00000
X50.76740 Y82.82360
X50.61500 Y82.74740
X50.41180 Y82.46800
X50.36100 Y82.21400
X50.36100 Y81.93460
X50.46260 Y81.57900
X50.64040 Y81.37580
X50.74200 Y81.35040
X50.76740 Y81.29960
X51.07220 Y81.22340
X51.50400 Y81.24880
X51.78340 Y81.37580
X51.96120 Y81.57900
X52.06280 Y81.93460
X52.06280 Y82.21400
X51.96120 Y82.56960
X51.78340 Y82.77280
X51.50400 Y82.89980
X51.07220 Y82.92520
X50.81820 Y82.87440
X50.76740 Y82.82360
G04 P0 ( dwell for no time -- G64 should not smooth over this point )
G00 Z5.00000 ( retract )

G00 X43.65540 Y77.74360 ( rapid move to begin. )
F300.00000
G01 Z-0.05000
G04 P0 ( dwell for no time -- G64 should not smooth over this point )
F600.00000
X43.65540 Y77.74360
X43.52840 Y77.69280
X43.29980 Y77.38800
X43.24900 Y77.13400
X43.24900 Y76.85460
X43.35060 Y76.49900
X43.52840 Y76.29580
X43.68080 Y76.21960
X43.68080 Y73.95900
X43.27440 Y73.57800
X42.91880 Y73.60340
X42.66480 Y73.55260
X42.58860 Y73.47640
X42.48700 Y73.45100
X42.25840 Y73.14620
X42.20760 Y72.89220
X42.20760 Y72.61280
X42.30920 Y72.25720
X42.48700 Y72.05400
X42.58860 Y72.02860
X42.61400 Y71.97780
X42.91880 Y71.90160
X43.19820 Y71.90160
X43.45220 Y71.95240
X43.73160 Y72.15560
X43.73160 Y72.20640
X43.80780 Y72.25720
X43.85860 Y72.35880
X43.90940 Y72.61280
X43.88400 Y72.94300
X44.46820 Y73.52720
X44.49360 Y76.21960
X44.67140 Y76.29580
X44.84920 Y76.49900
X44.95080 Y76.85460
X44.95080 Y77.13400
X44.90000 Y77.38800
X44.67140 Y77.69280
X44.56980 Y77.71820
X44.49360 Y77.79440
X44.23960 Y77.84520
X43.80780 Y77.81980
X43.65540 Y77.74360
G04 P0 ( dwell for no time -- G64 should not smooth over this point )
G00 Z5.00000 ( retract )

G00 X35.62900 Y77.74360 ( rapid move to begin. )
F300.00000
G01 Z-0.05000
G04 P0 ( dwell for no time -- G64 should not smooth over this point )
F600.00000
X35.62900 Y77.74360
X35.62900 Y76.14340
X37.33080 Y76.14340
X37.33080 Y77.84520
X35.62900 Y77.84520
X35.62900 Y77.74360
G04 P0 ( dwell for no time -- G64 should not smooth over this point )
G00 Z5.00000 ( retract )

G00 X39.05800 Y70.14900 ( rapid move to begin. )
F300.00000
G01 Z-0.05000
G04 P0 ( dwell for no time -- G64 should not smooth over this point )
F600.00000
X39.05800 Y70.14900
X38.95640 Y70.12360
X38.77860 Y69.89500
X38.72780 Y69.69180
X38.72780 Y69.36160
X38.77860 Y69.15840
X38.85480 Y69.08220
X38.85480 Y69.03140
X39.08340 Y68.85360
X39.21040 Y68.82820
X39.21040 Y65.24680
X38.85480 Y64.91660
X38.85480 Y64.86580
X38.49920 Y64.51020
X37.68640 Y64.48480
X37.02600 Y63.82440
X37.02600 Y63.77360
X36.87360 Y63.62120
X36.61960 Y63.69740
X36.34020 Y63.69740
X36.08620 Y63.64660
X35.80680 Y63.44340
X35.80680 Y63.39260
X35.73060 Y63.34180
X35.67980 Y63.24020
X35.62900 Y62.98620
X35.62900 Y62.70680
X35.67980 Y62.45280
X35.88300 Y62.17340
X36.08620 Y62.04640
X36.34020 Y61.99560
X36.61960 Y61.99560
X36.87360 Y62.04640
X36.94980 Y62.12260
X37.05140 Y62.14800
X37.28000 Y62.45280
X37.33080 Y62.70680
X37.33080 Y62.98620
X37.25460 Y63.24020
X37.35620 Y63.31640
X37.35620 Y63.36720
X38.01660 Y64.02760
X38.82940 Y64.05300
X39.69300 Y64.96740
X39.69300 Y68.82820
X39.76920 Y68.82820
X39.84540 Y68.90440
X39.94700 Y68.92980
X40.09940 Y69.10760
X40.17560 Y69.36160
X40.17560 Y69.69180
X40.12480 Y69.89500
X40.04860 Y69.97120
X40.04860 Y70.02200
X39.76920 Y70.22520
X39.28660 Y70.25060
X39.13420 Y70.22520
X39.05800 Y70.14900
G04 P0 ( dwell for no time -- G64 should not smooth over this point )
G00 Z5.00000 ( retract )

G00 X43.65540 Y68.67580 ( rapid move to begin. )
F300.00000
G01 Z-0.05000
G04 P0 ( dwell for no time -- G64 should not smooth over this point )
F600.00000
X43.65540 Y68.67580
X43.52840 Y68.62500
X43.29980 Y68.32020
X43.24900 Y68.06620
X43.24900 Y67.78680
X43.35060 Y67.43120
X43.52840 Y67.22800
X43.63000 Y67.20260
X43.65540 Y67.15180
X43.96020 Y67.07560
X44.39200 Y67.10100
X44.67140 Y67.22800
X44.87460 Y67.48200
X44.95080 Y67.78680
X44.95080 Y68.06620
X44.84920 Y68.42180
X44.67140 Y68.62500
X44.39200 Y68.75200
X43.96020 Y68.77740
X43.70620 Y68.72660
X43.65540 Y68.67580
G04 P0 ( dwell for no time -- G64 should not smooth over this point )
G00 Z5.00000 ( retract )

G00 X43.65540 Y66.13580 ( rapid move to begin. )
F300.00000
G01 Z-0.05000
G04 P0 ( dwell for no time -- G64 should not smooth over this point )
F600.00000
X43.65540 Y66.13580
X43.52840 Y66.08500
X43.35060 Y65.88180
X43.24900 Y65.52620
X43.24900 Y65.24680
X43.29980 Y64.99280
X43.52840 Y64.68800
X43.63000 Y64.66260
X43.70620 Y64.58640
X43.96020 Y64.53560
X44.23960 Y64.53560
X44.49360 Y64.58640
X44.77300 Y64.78960
X44.77300 Y64.84040
X44.84920 Y64.89120
X44.90000 Y64.99280
X44.90000 Y65.09440
X45.30640 Y64.68800
X45.30640 Y64.63720
X45.73820 Y64.23080
X45.73820 Y51.20060
X45.66200 Y51.14980
X45.61120 Y51.04820
X41.64880 Y51.04820
X40.86140 Y50.26080
X40.86140 Y21.83820
X38.57540 Y19.55220
X38.57540 Y14.95480
X38.49920 Y14.95480
X38.42300 Y14.87860
X38.32140 Y14.85320
X38.16900 Y14.67540
X38.09280 Y14.42140
X38.09280 Y14.09120
X38.14360 Y13.88800
X38.24520 Y13.73560
X38.32140 Y13.65940
X38.42300 Y13.63400
X38.44840 Y13.58320
X38.65160 Y13.53240
X39.13420 Y13.55780
X39.21040 Y13.63400
X39.31200 Y13.65940
X39.46440 Y13.83720
X39.54060 Y14.09120
X39.54060 Y14.42140
X39.46440 Y14.67540
X39.31200 Y14.85320
X39.21040 Y14.87860
X39.13420 Y14.95480
X39.05800 Y14.95480
X39.05800 Y19.27280
X41.34400 Y21.55880
X41.34400 Y49.98140
X41.92820 Y50.56560
X45.89060 Y50.56560
X46.06840 Y50.71800
X46.06840 Y50.76880
X46.22080 Y50.92120
X46.22080 Y64.51020
X45.17940 Y65.60240
X44.90000 Y65.65320
X44.90000 Y65.78020
X44.84920 Y65.88180
X44.67140 Y66.08500
X44.56980 Y66.11040
X44.49360 Y66.18660
X44.23960 Y66.23740
X43.80780 Y66.21200
X43.65540 Y66.13580
G04 P0 ( dwell for no time -- G64 should not smooth over this point )
G00 Z5.00000 ( retract )

G00 X43.96020 Y61.74160 ( rapid move to begin. )
F300.00000
G01 Z-0.05000
G04 P0 ( dwell for no time -- G64 should not smooth over this point )
F600.00000
X43.96020 Y61.74160
X43.85860 Y61.64000
X43.85860 Y61.13200
X43.70620 Y61.10660
X43.63000 Y61.03040
X43.52840 Y61.00500
X43.29980 Y60.70020
X43.24900 Y60.44620
X43.24900 Y60.16680
X43.29980 Y59.91280
X43.35060 Y59.81120
X43.42680 Y59.76040
X43.42680 Y59.70960
X43.52840 Y59.60800
X43.80780 Y59.48100
X44.23960 Y59.45560
X44.49360 Y59.50640
X44.72220 Y59.65880
X44.90000 Y59.91280
X44.95080 Y60.16680
X44.95080 Y60.44620
X44.90000 Y60.64940
X45.07780 Y60.47160
X45.07780 Y51.81020
X44.95080 Y51.68320
X40.48040 Y51.68320
X40.30260 Y51.53080
X40.25180 Y51.53080
X40.17560 Y51.42920
X40.17560 Y22.93040
X39.79460 Y22.95580
X39.59140 Y22.90500
X39.36280 Y22.72720
X39.36280 Y22.67640
X39.28660 Y22.60020
X39.23580 Y22.39700
X39.23580 Y22.06680
X39.31200 Y21.81280
X39.46440 Y21.63500
X39.56600 Y21.60960
X39.64220 Y21.53340
X39.79460 Y21.50800
X40.27720 Y21.53340
X40.35340 Y21.60960
X40.45500 Y21.63500
X40.60740 Y21.81280
X40.68360 Y22.06680
X40.68360 Y22.39700
X40.63280 Y22.52400
X40.65820 Y51.12440
X40.73440 Y51.20060
X45.23020 Y51.20060
X45.56040 Y51.53080
X45.56040 Y60.75100
X44.51900 Y61.81780
X44.06180 Y61.84320
X43.96020 Y61.79240
X43.96020 Y61.74160
G04 P0 ( dwell for no time -- G64 should not smooth over this point )
G00 Z5.00000 ( retract )

G00 X43.65540 Y58.51580 ( rapid move to begin. )
F300.00000
G01 Z-0.05000
G04 P0 ( dwell for no time -- G64 should not smooth over this point )
F600.00000
X43.65540 Y58.51580
X43.52840 Y58.46500
X43.29980 Y58.16020
X43.24900 Y57.90620
X43.24900 Y57.62680
X43.35060 Y57.27120
X43.52840 Y57.06800
X43.63000 Y57.04260
X43.65540 Y56.99180
X43.96020 Y56.91560
X44.39200 Y56.94100
X44.67140 Y57.06800
X44.87460 Y57.32200
X44.95080 Y57.62680
X44.95080 Y57.90620
X44.84920 Y58.26180
X44.67140 Y58.46500
X44.39200 Y58.59200
X43.96020 Y58.61740
X43.70620 Y58.56660
X43.65540 Y58.51580
G04 P0 ( dwell for no time -- G64 should not smooth over this point )
G00 Z5.00000 ( retract )

G00 X40.88680 Y57.11880 ( rapid move to begin. )
F300.00000
G01 Z-0.05000
G04 P0 ( dwell for no time -- G64 should not smooth over this point )
F600.00000
X40.88680 Y57.11880
X40.78520 Y57.09340
X40.60740 Y56.86480
X40.55660 Y56.66160
X40.55660 Y56.33140
X40.60740 Y56.12820
X40.68360 Y56.05200
X40.68360 Y56.00120
X40.91220 Y55.82340
X41.03920 Y55.79800
X41.03920 Y54.19780
X36.49260 Y49.67660
X36.46720 Y46.55240
X35.75600 Y45.84120
X35.70520 Y45.84120
X34.96860 Y45.07920
X34.96860 Y39.84680
X35.07020 Y39.71980
X35.12100 Y39.71980
X35.22260 Y39.61820
X36.18780 Y39.61820
X36.23860 Y39.56740
X36.23860 Y39.38960
X36.08620 Y39.36420
X36.01000 Y39.28800
X35.90840 Y39.26260
X35.73060 Y39.05940
X35.62900 Y38.70380
X35.62900 Y38.42440
X35.73060 Y38.06880
X35.90840 Y37.86560
X36.18780 Y37.73860
X36.61960 Y37.71320
X36.87360 Y37.76400
X36.94980 Y37.84020
X37.05140 Y37.86560
X37.28000 Y38.17040
X37.33080 Y38.42440
X37.33080 Y38.70380
X37.28000 Y38.95780
X37.22920 Y39.05940
X37.15300 Y39.11020
X37.15300 Y39.16100
X36.92440 Y39.33880
X36.72120 Y39.38960
X36.72120 Y39.84680
X36.51800 Y40.07540
X35.45120 Y40.12620
X35.45120 Y44.79980
X36.13700 Y45.48560
X36.18780 Y45.48560
X36.94980 Y46.27300
X36.94980 Y49.34640
X41.52180 Y53.91840
X41.52180 Y55.79800
X41.59800 Y55.79800
X41.67420 Y55.87420
X41.77580 Y55.89960
X41.92820 Y56.07740
X42.00440 Y56.33140
X42.00440 Y56.66160
X41.95360 Y56.86480
X41.87740 Y56.94100
X41.87740 Y56.99180
X41.59800 Y57.19500
X41.11540 Y57.22040
X40.96300 Y57.19500
X40.88680 Y57.11880
G04 P0 ( dwell for no time -- G64 should not smooth over this point )
G00 Z5.00000 ( retract )

G00 X37.88960 Y57.09340 ( rapid move to begin. )
F300.00000
G01 Z-0.05000
G04 P0 ( dwell for no time -- G64 should not smooth over this point )
F600.00000
X37.88960 Y57.09340
X37.78800 Y57.06800
X37.61020 Y56.83940
X37.55940 Y56.63620
X37.55940 Y56.30600
X37.61020 Y56.10280
X37.68640 Y56.02660
X37.68640 Y55.97580
X37.91500 Y55.79800
X38.04200 Y55.77260
X38.04200 Y52.31820
X35.88300 Y50.15920
X35.85760 Y47.94940
X34.35900 Y46.45080
X34.35900 Y38.01800
X35.34960 Y37.02740
X37.38160 Y37.02740
X37.45780 Y36.92580
X37.45780 Y29.96620
X36.44180 Y29.94080
X36.34020 Y29.86460
X36.23860 Y29.68680
X36.23860 Y29.25500
X35.62900 Y29.25500
X35.62900 Y27.55320
X37.33080 Y27.55320
X37.33080 Y29.25500
X36.72120 Y29.25500
X36.72120 Y29.43280
X37.68640 Y29.45820
X37.78800 Y29.55980
X37.83880 Y29.55980
X37.94040 Y29.68680
X37.94040 Y37.20520
X37.81340 Y37.33220
X37.81340 Y37.38300
X37.66100 Y37.51000
X35.62900 Y37.51000
X34.84160 Y38.29740
X34.84160 Y46.17140
X36.34020 Y47.67000
X36.34020 Y49.82900
X37.38160 Y50.84500
X37.38160 Y50.89580
X38.52460 Y52.03880
X38.52460 Y55.77260
X38.60080 Y55.77260
X38.67700 Y55.84880
X38.77860 Y55.87420
X38.93100 Y56.05200
X39.00720 Y56.30600
X39.00720 Y56.63620
X38.95640 Y56.83940
X38.88020 Y56.91560
X38.88020 Y56.96640
X38.60080 Y57.16960
X38.11820 Y57.19500
X37.96580 Y57.16960
X37.88960 Y57.09340
G04 P0 ( dwell for no time -- G64 should not smooth over this point )
G00 Z5.00000 ( retract )

G00 X36.03540 Y55.97580 ( rapid move to begin. )
F300.00000
G01 Z-0.05000
G04 P0 ( dwell for no time -- G64 should not smooth over this point )
F600.00000
X36.03540 Y55.97580
X35.90840 Y55.92500
X35.67980 Y55.62020
X35.62900 Y55.36620
X35.62900 Y55.08680
X35.73060 Y54.73120
X35.90840 Y54.52800
X36.01000 Y54.50260
X36.03540 Y54.45180
X36.34020 Y54.37560
X36.77200 Y54.40100
X37.05140 Y54.52800
X37.22920 Y54.73120
X37.33080 Y55.08680
X37.33080 Y55.36620
X37.22920 Y55.72180
X37.05140 Y55.92500
X36.77200 Y56.05200
X36.34020 Y56.07740
X36.08620 Y56.02660
X36.03540 Y55.97580
G04 P0 ( dwell for no time -- G64 should not smooth over this point )
G00 Z5.00000 ( retract )

G00 X36.03540 Y58.51580 ( rapid move to begin. )
F300.00000
G01 Z-0.05000
G04 P0 ( dwell for no time -- G64 should not smooth over this point )
F600.00000
X36.03540 Y58.51580
X35.83220 Y58.38880
X35.67980 Y58.16020
X35.62900 Y57.90620
X35.62900 Y57.62680
X35.73060 Y57.27120
X35.90840 Y57.06800
X36.01000 Y57.04260
X36.03540 Y56.99180
X36.34020 Y56.91560
X36.77200 Y56.94100
X37.05140 Y57.06800
X37.22920 Y57.27120
X37.33080 Y57.62680
X37.33080 Y57.90620
X37.22920 Y58.26180
X37.05140 Y58.46500
X36.77200 Y58.59200
X36.34020 Y58.61740
X36.08620 Y58.56660
X36.03540 Y58.51580
G04 P0 ( dwell for no time -- G64 should not smooth over this point )
G00 Z5.00000 ( retract )

G00 X36.03540 Y61.05580 ( rapid move to begin. )
F300.00000
G01 Z-0.05000
G04 P0 ( dwell for no time -- G64 should not smooth over this point )
F600.00000
X36.03540 Y61.05580
X35.90840 Y61.00500
X35.67980 Y60.70020
X35.62900 Y60.44620
X35.62900 Y60.16680
X35.73060 Y59.81120
X35.90840 Y59.60800
X36.01000 Y59.58260
X36.03540 Y59.53180
X36.34020 Y59.45560
X36.77200 Y59.48100
X37.05140 Y59.60800
X37.22920 Y59.81120
X37.33080 Y60.16680
X37.33080 Y60.44620
X37.22920 Y60.80180
X37.05140 Y61.00500
X36.77200 Y61.13200
X36.34020 Y61.15740
X36.08620 Y61.10660
X36.03540 Y61.05580
G04 P0 ( dwell for no time -- G64 should not smooth over this point )
G00 Z5.00000 ( retract )

G00 X36.03540 Y66.13580 ( rapid move to begin. )
F300.00000
G01 Z-0.05000
G04 P0 ( dwell for no time -- G64 should not smooth over this point )
F600.00000
X36.03540 Y66.13580
X35.88300 Y66.05960
X35.67980 Y65.78020
X35.62900 Y65.52620
X35.62900 Y65.24680
X35.73060 Y64.89120
X35.90840 Y64.68800
X36.01000 Y64.66260
X36.03540 Y64.61180
X36.34020 Y64.53560
X36.77200 Y64.56100
X37.05140 Y64.68800
X37.22920 Y64.89120
X37.33080 Y65.24680
X37.33080 Y65.52620
X37.22920 Y65.88180
X37.05140 Y66.08500
X36.77200 Y66.21200
X36.34020 Y66.23740
X36.08620 Y66.18660
X36.03540 Y66.13580
G04 P0 ( dwell for no time -- G64 should not smooth over this point )
G00 Z5.00000 ( retract )

G00 X28.89800 Y58.51580 ( rapid move to begin. )
F300.00000
G01 Z-0.05000
G04 P0 ( dwell for no time -- G64 should not smooth over this point )
F600.00000
X28.89800 Y58.51580
X28.72020 Y58.41420
X28.54240 Y58.16020
X28.49160 Y57.90620
X28.49160 Y57.62680
X28.59320 Y57.27120
X28.77100 Y57.06800
X28.87260 Y57.04260
X28.89800 Y56.99180
X29.20280 Y56.91560
X29.63460 Y56.94100
X29.91400 Y57.06800
X30.11720 Y57.32200
X30.19340 Y57.62680
X30.19340 Y57.90620
X30.09180 Y58.26180
X29.91400 Y58.46500
X29.63460 Y58.59200
X29.20280 Y58.61740
X28.94880 Y58.56660
X28.89800 Y58.51580
G04 P0 ( dwell for no time -- G64 should not smooth over this point )
G00 Z5.00000 ( retract )

G00 X28.89800 Y53.43580 ( rapid move to begin. )
F300.00000
G01 Z-0.05000
G04 P0 ( dwell for no time -- G64 should not smooth over this point )
F600.00000
X28.89800 Y53.43580
X28.72020 Y53.33420
X28.54240 Y53.08020
X28.49160 Y52.82620
X28.49160 Y52.54680
X28.59320 Y52.19120
X28.77100 Y51.98800
X28.87260 Y51.96260
X28.89800 Y51.91180
X29.20280 Y51.83560
X29.63460 Y51.86100
X29.91400 Y51.98800
X30.11720 Y52.24200
X30.19340 Y52.54680
X30.19340 Y52.82620
X30.09180 Y53.18180
X29.91400 Y53.38500
X29.63460 Y53.51200
X29.20280 Y53.53740
X28.94880 Y53.48660
X28.89800 Y53.43580
G04 P0 ( dwell for no time -- G64 should not smooth over this point )
G00 Z5.00000 ( retract )

G00 X27.39940 Y48.02560 ( rapid move to begin. )
F300.00000
G01 Z-0.05000
G04 P0 ( dwell for no time -- G64 should not smooth over this point )
F600.00000
X27.39940 Y48.02560
X27.29780 Y48.00020
X27.19620 Y47.89860
X27.19620 Y47.84780
X27.12000 Y47.77160
X27.06920 Y47.56840
X27.06920 Y47.23820
X27.12000 Y47.03500
X27.19620 Y46.95880
X27.19620 Y46.90800
X27.47560 Y46.70480
X28.11060 Y46.70480
X30.37120 Y44.46960
X30.39660 Y42.92020
X31.97140 Y41.37080
X31.99680 Y36.87500
X34.46060 Y34.46200
X34.46060 Y33.70000
X34.53680 Y33.62380
X34.53680 Y33.57300
X34.63840 Y33.49680
X34.63840 Y27.45160
X34.99400 Y27.09600
X35.07020 Y27.07060
X35.07020 Y20.61900
X34.96860 Y20.51740
X34.96860 Y13.48160
X35.60360 Y12.82120
X35.65440 Y12.82120
X36.01000 Y12.46560
X35.80680 Y12.31320
X35.80680 Y12.26240
X35.73060 Y12.21160
X35.67980 Y12.11000
X35.62900 Y11.85600
X35.62900 Y11.57660
X35.73060 Y11.22100
X35.90840 Y11.01780
X36.01000 Y10.99240
X36.08620 Y10.91620
X36.34020 Y10.86540
X36.61960 Y10.86540
X36.87360 Y10.91620
X37.07680 Y11.04320
X37.28000 Y11.32260
X37.33080 Y11.57660
X37.33080 Y11.85600
X37.22920 Y12.21160
X37.05140 Y12.41480
X36.94980 Y12.44020
X36.87360 Y12.51640
X36.69580 Y12.54180
X36.08620 Y13.17680
X36.03540 Y13.17680
X35.45120 Y13.76100
X35.45120 Y20.23800
X35.55280 Y20.33960
X35.55280 Y27.35000
X35.19720 Y27.70560
X35.12100 Y27.73100
X35.12100 Y33.75080
X35.04480 Y33.82700
X35.04480 Y33.87780
X34.94320 Y33.95400
X34.94320 Y34.74140
X33.69860 Y36.01140
X33.64780 Y36.01140
X32.45400 Y37.20520
X32.45400 Y41.65020
X30.85380 Y43.25040
X30.82840 Y44.79980
X28.46620 Y47.11120
X28.51700 Y47.23820
X28.49160 Y47.69540
X28.44080 Y47.82240
X28.28840 Y48.00020
X28.18680 Y48.02560
X28.11060 Y48.10180
X27.95820 Y48.12720
X27.47560 Y48.10180
X27.39940 Y48.02560
G04 P0 ( dwell for no time -- G64 should not smooth over this point )
G00 Z5.00000 ( retract )

G00 X28.89800 Y44.39340 ( rapid move to begin. )
F300.00000
G01 Z-0.05000
G04 P0 ( dwell for no time -- G64 should not smooth over this point )
F600.00000
X28.89800 Y44.39340
X28.72020 Y44.29180
X28.54240 Y44.03780
X28.49160 Y43.78380
X28.49160 Y43.50440
X28.59320 Y43.14880
X28.77100 Y42.94560
X28.87260 Y42.92020
X28.89800 Y42.86940
X29.20280 Y42.79320
X29.63460 Y42.81860
X29.91400 Y42.94560
X30.11720 Y43.19960
X30.19340 Y43.50440
X30.19340 Y43.78380
X30.09180 Y44.13940
X29.91400 Y44.34260
X29.63460 Y44.46960
X29.20280 Y44.49500
X28.94880 Y44.44420
X28.89800 Y44.39340
G04 P0 ( dwell for no time -- G64 should not smooth over this point )
G00 Z5.00000 ( retract )

G00 X28.89800 Y41.85340 ( rapid move to begin. )
F300.00000
G01 Z-0.05000
G04 P0 ( dwell for no time -- G64 should not smooth over this point )
F600.00000
X28.89800 Y41.85340
X28.72020 Y41.75180
X28.54240 Y41.49780
X28.49160 Y41.24380
X28.49160 Y40.96440
X28.59320 Y40.60880
X28.77100 Y40.40560
X28.87260 Y40.38020
X28.89800 Y40.32940
X29.20280 Y40.25320
X29.63460 Y40.27860
X29.91400 Y40.40560
X30.09180 Y40.60880
X30.19340 Y40.96440
X30.19340 Y41.24380
X30.09180 Y41.59940
X29.91400 Y41.80260
X29.63460 Y41.92960
X29.20280 Y41.95500
X28.94880 Y41.90420
X28.89800 Y41.85340
G04 P0 ( dwell for no time -- G64 should not smooth over this point )
G00 Z5.00000 ( retract )

G00 X27.67880 Y39.99920 ( rapid move to begin. )
F300.00000
G01 Z-0.05000
G04 P0 ( dwell for no time -- G64 should not smooth over this point )
F600.00000
X27.67880 Y39.99920
X25.85000 Y38.17040
X25.85000 Y29.89000
X24.91020 Y28.95020
X24.91020 Y12.00840
X23.66560 Y10.78920
X23.66560 Y10.73840
X22.49720 Y9.57000
X22.47180 Y9.67160
X22.29400 Y9.87480
X22.19240 Y9.90020
X22.11620 Y9.97640
X21.86220 Y10.02720
X21.58280 Y10.02720
X21.32880 Y9.97640
X21.04940 Y9.77320
X21.04940 Y9.72240
X20.97320 Y9.67160
X20.92240 Y9.57000
X20.87160 Y9.31600
X20.87160 Y9.03660
X20.92240 Y8.78260
X21.15100 Y8.47780
X21.43040 Y8.35080
X21.86220 Y8.32540
X22.11620 Y8.37620
X22.19240 Y8.45240
X22.29400 Y8.47780
X22.47180 Y8.68100
X22.52260 Y8.78260
X22.52260 Y8.90960
X22.64960 Y8.93500
X25.39280 Y11.72900
X25.39280 Y28.67080
X26.33260 Y29.61060
X26.33260 Y37.89100
X28.05980 Y39.61820
X30.26960 Y39.61820
X30.44740 Y39.44040
X30.39660 Y39.31340
X30.39660 Y38.98320
X30.44740 Y38.78000
X30.62520 Y38.55140
X30.72680 Y38.52600
X30.80300 Y38.44980
X31.28560 Y38.42440
X31.48880 Y38.47520
X31.71740 Y38.65300
X31.71740 Y38.70380
X31.79360 Y38.78000
X31.84440 Y38.98320
X31.81900 Y39.44040
X31.71740 Y39.64360
X31.61580 Y39.74520
X31.51420 Y39.77060
X31.43800 Y39.84680
X31.28560 Y39.87220
X30.80300 Y39.84680
X30.54900 Y40.10080
X27.78040 Y40.10080
X27.67880 Y39.99920
G04 P0 ( dwell for no time -- G64 should not smooth over this point )
G00 Z5.00000 ( retract )

G00 X28.89800 Y39.31340 ( rapid move to begin. )
F300.00000
G01 Z-0.05000
G04 P0 ( dwell for no time -- G64 should not smooth over this point )
F600.00000
X28.89800 Y39.31340
X28.74560 Y39.23720
X28.54240 Y38.95780
X28.49160 Y38.70380
X28.49160 Y38.42440
X28.56780 Y38.17040
X27.22160 Y38.17040
X26.89140 Y37.84020
X26.84060 Y37.84020
X26.53580 Y37.51000
X26.53580 Y28.03580
X25.69760 Y27.19760
X25.69760 Y11.24640
X22.59880 Y8.14760
X21.70980 Y8.14760
X21.50660 Y7.96980
X21.48120 Y7.46180
X21.27800 Y7.41100
X21.04940 Y7.23320
X21.04940 Y7.18240
X20.97320 Y7.13160
X20.92240 Y7.03000
X20.87160 Y6.77600
X20.87160 Y6.49660
X20.97320 Y6.14100
X21.15100 Y5.93780
X21.43040 Y5.81080
X21.86220 Y5.78540
X22.11620 Y5.83620
X22.19240 Y5.91240
X22.29400 Y5.93780
X22.52260 Y6.24260
X22.57340 Y6.49660
X22.57340 Y6.77600
X22.52260 Y7.03000
X22.29400 Y7.33480
X22.19240 Y7.36020
X22.11620 Y7.43640
X21.96380 Y7.46180
X21.96380 Y7.63960
X22.92900 Y7.69040
X26.18020 Y10.96700
X26.18020 Y26.91820
X27.01840 Y27.75640
X27.01840 Y37.23060
X27.24700 Y37.45920
X27.29780 Y37.45920
X27.50100 Y37.68780
X29.48220 Y37.68780
X29.53300 Y37.73860
X29.78700 Y37.78940
X30.01560 Y37.96720
X30.01560 Y38.01800
X30.09180 Y38.06880
X30.14260 Y38.17040
X30.19340 Y38.42440
X30.19340 Y38.70380
X30.14260 Y38.95780
X30.09180 Y39.05940
X30.01560 Y39.11020
X30.01560 Y39.16100
X29.73620 Y39.36420
X29.48220 Y39.41500
X29.05040 Y39.38960
X28.89800 Y39.31340
G04 P0 ( dwell for no time -- G64 should not smooth over this point )
G00 Z5.00000 ( retract )

G00 X28.89800 Y36.77340 ( rapid move to begin. )
F300.00000
G01 Z-0.05000
G04 P0 ( dwell for no time -- G64 should not smooth over this point )
F600.00000
X28.89800 Y36.77340
X28.72020 Y36.67180
X28.54240 Y36.41780
X28.49160 Y36.16380
X28.49160 Y35.88440
X28.59320 Y35.52880
X28.77100 Y35.32560
X28.87260 Y35.30020
X28.94880 Y35.22400
X29.10120 Y35.19860
X29.10120 Y35.04620
X29.15200 Y34.97000
X32.30160 Y34.94460
X33.69860 Y33.54760
X33.69860 Y27.07060
X34.40980 Y26.30860
X34.40980 Y21.15240
X34.35900 Y21.10160
X34.35900 Y11.17020
X35.34960 Y10.17960
X36.94980 Y10.17960
X37.48320 Y9.62080
X37.53400 Y9.62080
X37.68640 Y9.46840
X37.63560 Y9.34140
X37.63560 Y9.01120
X37.71180 Y8.75720
X37.86420 Y8.57940
X37.96580 Y8.55400
X38.04200 Y8.47780
X38.19440 Y8.45240
X38.67700 Y8.47780
X38.95640 Y8.68100
X38.95640 Y8.73180
X39.03260 Y8.80800
X39.08340 Y9.01120
X39.05800 Y9.46840
X39.00720 Y9.59540
X38.85480 Y9.77320
X38.75320 Y9.79860
X38.67700 Y9.87480
X38.52460 Y9.90020
X38.04200 Y9.87480
X37.22920 Y10.66220
X35.62900 Y10.66220
X34.84160 Y11.44960
X34.84160 Y20.84760
X34.89240 Y20.89840
X34.89240 Y26.58800
X34.18120 Y27.35000
X34.18120 Y33.82700
X32.58100 Y35.42720
X29.99020 Y35.42720
X30.14260 Y35.63040
X30.19340 Y35.88440
X30.19340 Y36.16380
X30.14260 Y36.41780
X30.09180 Y36.51940
X30.01560 Y36.57020
X30.01560 Y36.62100
X29.73620 Y36.82420
X29.48220 Y36.87500
X29.05040 Y36.84960
X28.89800 Y36.77340
G04 P0 ( dwell for no time -- G64 should not smooth over this point )
G00 Z5.00000 ( retract )

G00 X28.89800 Y34.23340 ( rapid move to begin. )
F300.00000
G01 Z-0.05000
G04 P0 ( dwell for no time -- G64 should not smooth over this point )
F600.00000
X28.89800 Y34.23340
X28.77100 Y34.18260
X28.54240 Y33.87780
X28.49160 Y33.62380
X28.49160 Y33.34440
X28.59320 Y32.98880
X28.77100 Y32.78560
X28.87260 Y32.76020
X28.94880 Y32.68400
X29.20280 Y32.63320
X29.48220 Y32.63320
X29.73620 Y32.68400
X29.81240 Y32.76020
X29.91400 Y32.78560
X29.93940 Y32.83640
X32.65720 Y32.83640
X32.65720 Y25.47040
X32.80960 Y25.31800
X32.75880 Y25.16560
X32.75880 Y24.83540
X32.80960 Y24.63220
X32.88580 Y24.55600
