( pcb2gcode 1.3.0 )
( Software-independent Gcode )

G94 ( Millimeters per minute feed rate. )
G21 ( Units == Millimeters. )

G90 ( Absolute coordinates. )
S10000 ( RPM spindle speed. )
G64 P0.00200 ( set maximum deviation from commanded toolpath )
F600.00000 ( Feedrate. )

F600.00000 ( Feedrate. )
M3 ( Spindle on clockwise. )
G04 P0 ( dwell for no time -- G64 should not smooth over this point )
G00 Z5.00000 ( retract )

G00 X77.82700 Y77.87780 ( rapid move to begin. )
F300.00000
G01 Z-0.05000
G04 P0 ( dwell for no time -- G64 should not smooth over this point )
F600.00000
X77.82700 Y77.87780
X77.87780 Y77.85240
X77.87780 Y1.67780
X77.82700 Y1.62700
X1.65240 Y1.62700
X1.60160 Y1.67780
X1.60160 Y77.85240
X1.65240 Y77.90320
X77.82700 Y77.87780
G04 P0 ( dwell for no time -- G64 should not smooth over this point )
G00 Z5.00000 ( retract )

G00 X14.53020 Y66.52400 ( rapid move to begin. )
F300.00000
G01 Z-0.05000
G04 P0 ( dwell for no time -- G64 should not smooth over this point )
F600.00000
X14.53020 Y66.52400
X14.53020 Y9.80580
X14.91120 Y10.18680
X14.91120 Y10.23760
X15.47000 Y10.77100
X15.47000 Y10.82180
X16.00340 Y11.32980
X16.00340 Y11.38060
X16.56220 Y11.91400
X16.56220 Y11.96480
X17.09560 Y12.47280
X17.09560 Y12.52360
X17.65440 Y13.05700
X17.65440 Y13.10780
X18.18780 Y13.61580
X18.18780 Y13.66660
X18.74660 Y14.20000
X18.74660 Y14.25080
X19.28000 Y14.75880
X19.28000 Y14.80960
X19.83880 Y15.34300
X19.83880 Y15.39380
X20.37220 Y15.90180
X20.37220 Y15.95260
X20.93100 Y16.48600
X20.93100 Y16.53680
X21.46440 Y17.04480
X21.46440 Y17.09560
X22.02320 Y17.62900
X22.02320 Y17.67980
X22.55660 Y18.18780
X22.55660 Y18.23860
X23.11540 Y18.77200
X23.11540 Y18.82280
X23.64880 Y19.33080
X23.64880 Y19.38160
X24.20760 Y19.91500
X24.20760 Y19.96580
X24.74100 Y20.47380
X24.74100 Y20.52460
X25.29980 Y21.05800
X25.29980 Y21.10880
X25.83320 Y21.61680
X25.83320 Y21.66760
X26.39200 Y22.20100
X26.39200 Y22.25180
X26.92540 Y22.75980
X26.92540 Y22.81060
X27.48420 Y23.34400
X27.48420 Y23.39480
X28.01760 Y23.90280
X28.01760 Y23.95360
X28.57640 Y24.48700
X28.57640 Y24.53780
X29.10980 Y25.04580
X29.10980 Y25.09660
X29.66860 Y25.63000
X29.66860 Y25.68080
X30.20200 Y26.18880
X30.20200 Y26.23960
X31.29420 Y27.33180
X31.29420 Y27.38260
X32.38640 Y28.47480
X32.38640 Y28.52560
X33.47860 Y29.61780
X33.47860 Y29.66860
X34.57080 Y30.76080
X34.57080 Y30.81160
X35.66300 Y31.90380
X35.66300 Y31.95460
X36.75520 Y33.04680
X36.75520 Y33.09760
X37.84740 Y34.18980
X37.84740 Y34.24060
X38.93960 Y35.33280
X38.93960 Y35.38360
X40.03180 Y36.47580
X40.03180 Y36.52660
X41.12400 Y37.61880
X41.12400 Y37.66960
X42.21620 Y38.76180
X42.21620 Y38.81260
X43.30840 Y39.90480
X43.30840 Y39.95560
X43.86720 Y40.48900
X43.86720 Y40.53980
X44.40060 Y41.04780
X44.40060 Y41.09860
X44.95940 Y41.63200
X44.95940 Y41.68280
X45.49280 Y42.19080
X45.49280 Y42.24160
X46.05160 Y42.77500
X46.05160 Y42.82580
X46.58500 Y43.33380
X46.58500 Y43.38460
X47.14380 Y43.91800
X47.14380 Y43.96880
X47.67720 Y44.47680
X47.67720 Y44.52760
X48.23600 Y45.06100
X48.23600 Y45.11180
X48.76940 Y45.61980
X48.76940 Y45.67060
X49.32820 Y46.20400
X49.32820 Y46.25480
X49.86160 Y46.76280
X49.86160 Y46.81360
X50.42040 Y47.34700
X50.42040 Y47.39780
X50.95380 Y47.90580
X50.95380 Y47.95660
X51.51260 Y48.49000
X51.51260 Y48.54080
X52.04600 Y49.04880
X52.04600 Y49.09960
X52.60480 Y49.63300
X52.60480 Y49.68380
X53.13820 Y50.19180
X53.13820 Y50.24260
X53.69700 Y50.77600
X53.69700 Y50.82680
X54.23040 Y51.33480
X54.23040 Y51.38560
X54.78920 Y51.91900
X54.78920 Y51.96980
X55.32260 Y52.47780
X55.32260 Y52.52860
X55.88140 Y53.06200
X55.88140 Y53.11280
X56.41480 Y53.62080
X56.41480 Y53.67160
X56.97360 Y54.20500
X56.97360 Y54.25580
X57.50700 Y54.76380
X57.50700 Y54.81460
X58.06580 Y55.34800
X58.06580 Y55.39880
X58.59920 Y55.90680
X58.59920 Y55.95760
X59.15800 Y56.49100
X59.15800 Y56.54180
X59.69140 Y57.04980
X59.69140 Y57.10060
X60.25020 Y57.63400
X60.25020 Y57.68480
X60.78360 Y58.19280
X60.78360 Y58.24360
X61.34240 Y58.77700
X61.34240 Y58.82780
X61.87580 Y59.33580
X61.87580 Y59.38660
X62.43460 Y59.92000
X62.43460 Y59.97080
X62.96800 Y60.47880
X62.96800 Y60.52960
X63.52680 Y61.06300
X63.52680 Y61.11380
X64.06020 Y61.62180
X64.06020 Y61.67260
X64.61900 Y62.20600
X64.61900 Y62.25680
X65.15240 Y62.76480
X65.15240 Y62.81560
X65.71120 Y63.34900
X65.71120 Y63.39980
X66.24460 Y63.90780
X66.24460 Y63.95860
X66.80340 Y64.49200
X66.80340 Y64.54280
X67.33680 Y65.05080
X67.33680 Y65.10160
X67.89560 Y65.63500
X67.89560 Y65.68580
X68.42900 Y66.19380
X68.42900 Y66.24460
X68.81000 Y66.62560
X69.08940 Y66.62560
X69.14020 Y66.57480
X69.14020 Y9.14540
X69.08940 Y9.09460
X14.20000 Y9.09460
X14.14920 Y9.14540
X14.14920 Y66.57480
X14.20000 Y66.62560
X14.47940 Y66.62560
X14.53020 Y66.52400

G04 P0 ( dwell for no time -- G64 should not smooth over this point )
G00 Z10.000 ( retract )

M5 ( Spindle off. )
M9 ( Coolant off. )
M2 ( Program end. )

