( pcb2gcode 1.2.3 )
( Software-independent Gcode )

G94 ( Millimeters per minute feed rate. )
G21 ( Units == Millimeters. )

G90 ( Absolute coordinates. )
S10000 ( RPM spindle speed. )
G64 P0.05080 ( set maximum deviation from commanded toolpath )
F600.00000 ( Feedrate. )

F600.00000 ( Feedrate. )
M3 ( Spindle on clockwise. )
G04 P0 ( dwell for no time -- G64 should not smooth over this point )
G00 Z5.00000 ( retract )

G00 X10.61740 Y40.36080 ( rapid move to begin. )
F300.00000
G01 Z-0.05000
G04 P0 ( dwell for no time -- G64 should not smooth over this point )
F600.00000
X10.61740 Y40.36080
X10.61740 Y39.95440
X12.03980 Y39.95440
X12.29380 Y39.85280
X13.53840 Y38.58280
X13.61460 Y38.37960
X13.61460 Y34.69660
X14.57980 Y33.73140
X15.59580 Y33.73140
X15.59580 Y34.23940
X17.80560 Y34.23940
X17.80560 Y32.02960
X17.29760 Y32.02960
X17.29760 Y30.68340
X17.22140 Y30.48020
X15.24020 Y28.47360
X14.98620 Y28.37200
X14.14800 Y28.37200
X14.14800 Y27.58460
X12.39540 Y27.58460
X12.39540 Y30.35320
X14.14800 Y30.35320
X14.14800 Y29.56580
X14.52900 Y29.56580
X16.10380 Y31.14060
X16.10380 Y32.02960
X15.59580 Y32.02960
X15.59580 Y32.53760
X14.12260 Y32.53760
X13.91940 Y32.61380
X12.52240 Y33.98540
X12.42080 Y34.23940
X12.42080 Y37.92240
X11.58260 Y38.76060
X10.61740 Y38.76060
X10.61740 Y38.25260
X9.29660 Y38.25260
X9.29660 Y31.64860
X8.10280 Y31.64860
X8.10280 Y38.25260
X6.78200 Y38.25260
X6.78200 Y40.46240
X10.61740 Y40.46240
X10.61740 Y40.36080
G04 P0 ( dwell for no time -- G64 should not smooth over this point )
G00 Z5.00000 ( retract )

G00 X7.01060 Y33.75680 ( rapid move to begin. )
F300.00000
G01 Z-0.05000
G04 P0 ( dwell for no time -- G64 should not smooth over this point )
F600.00000
X7.01060 Y33.75680
X7.01060 Y30.32780
X7.29000 Y30.32780
X7.29000 Y29.41340
X7.97580 Y29.41340
X8.10280 Y29.36260
X9.09340 Y28.39740
X9.16960 Y28.21960
X9.16960 Y23.97780
X10.87140 Y22.30140
X10.94760 Y22.12360
X10.94760 Y18.41520
X11.02380 Y18.41520
X11.04920 Y18.36440
X11.22700 Y18.28820
X11.35400 Y18.16120
X11.40480 Y18.00880
X11.53180 Y17.85640
X11.58260 Y17.55160
X11.58260 Y17.22140
X11.53180 Y16.91660
X11.48100 Y16.89120
X11.35400 Y16.61180
X11.15080 Y16.43400
X10.84600 Y16.30700
X10.26180 Y16.28160
X9.93160 Y16.35780
X9.90620 Y16.40860
X9.75380 Y16.45940
X9.60140 Y16.61180
X9.47440 Y16.89120
X9.42360 Y16.91660
X9.37280 Y17.22140
X9.37280 Y17.55160
X9.42360 Y17.85640
X9.47440 Y17.88180
X9.60140 Y18.16120
X9.75380 Y18.31360
X9.90620 Y18.36440
X9.93160 Y18.41520
X10.00780 Y18.41520
X10.00780 Y21.71720
X8.30600 Y23.39360
X8.22980 Y23.57140
X8.22980 Y27.81320
X7.56940 Y28.47360
X7.29000 Y28.47360
X7.29000 Y27.55920
X5.53740 Y27.55920
X5.53740 Y30.32780
X5.81680 Y30.32780
X5.81680 Y33.85840
X7.01060 Y33.85840
X7.01060 Y33.75680
G04 P0 ( dwell for no time -- G64 should not smooth over this point )
G00 Z5.00000 ( retract )

G00 X17.80560 Y37.94780 ( rapid move to begin. )
F300.00000
G01 Z-0.05000
G04 P0 ( dwell for no time -- G64 should not smooth over this point )
F600.00000
X17.80560 Y37.94780
X17.80560 Y35.83960
X15.59580 Y35.83960
X15.59580 Y38.04940
X17.80560 Y38.04940
X17.80560 Y37.94780
G04 P0 ( dwell for no time -- G64 should not smooth over this point )
G00 Z5.00000 ( retract )

G00 X19.78680 Y37.94780 ( rapid move to begin. )
F300.00000
G01 Z-0.05000
G04 P0 ( dwell for no time -- G64 should not smooth over this point )
F600.00000
X19.78680 Y37.94780
X19.99000 Y37.84620
X20.11700 Y37.71920
X20.16780 Y37.56680
X20.29480 Y37.41440
X20.34560 Y37.10960
X20.34560 Y36.77940
X20.29480 Y36.47460
X20.24400 Y36.44920
X20.11700 Y36.16980
X19.99000 Y36.04280
X19.83760 Y35.96660
X19.83760 Y34.11240
X19.99000 Y34.03620
X20.11700 Y33.90920
X20.16780 Y33.75680
X20.29480 Y33.60440
X20.34560 Y33.29960
X20.34560 Y32.96940
X20.29480 Y32.66460
X20.24400 Y32.63920
X20.11700 Y32.35980
X19.99000 Y32.23280
X19.83760 Y32.15660
X19.81220 Y30.70880
X19.76140 Y30.60720
X19.68520 Y30.55640
X19.68520 Y30.50560
X18.59300 Y29.43880
X18.59300 Y28.54980
X18.23740 Y28.54980
X18.08500 Y28.47360
X17.75480 Y28.47360
X17.60240 Y28.54980
X17.24680 Y28.54980
X17.24680 Y29.59120
X17.32300 Y29.59120
X17.32300 Y29.81980
X17.42460 Y30.07380
X18.64380 Y31.26760
X18.64380 Y32.15660
X18.51680 Y32.20740
X18.36440 Y32.35980
X18.23740 Y32.63920
X18.18660 Y32.66460
X18.13580 Y32.96940
X18.13580 Y33.29960
X18.18660 Y33.60440
X18.23740 Y33.62980
X18.36440 Y33.90920
X18.51680 Y34.06160
X18.64380 Y34.11240
X18.64380 Y35.96660
X18.51680 Y36.01740
X18.36440 Y36.16980
X18.23740 Y36.44920
X18.18660 Y36.47460
X18.13580 Y36.77940
X18.13580 Y37.10960
X18.18660 Y37.41440
X18.23740 Y37.43980
X18.36440 Y37.71920
X18.51680 Y37.87160
X18.66920 Y37.92240
X18.69460 Y37.97320
X19.02480 Y38.04940
X19.45660 Y38.04940
X19.78680 Y37.94780
G04 P0 ( dwell for no time -- G64 should not smooth over this point )
G00 Z5.00000 ( retract )

G00 X20.80280 Y29.56580 ( rapid move to begin. )
F300.00000
G01 Z-0.05000
G04 P0 ( dwell for no time -- G64 should not smooth over this point )
F600.00000
X20.80280 Y29.56580
X20.80280 Y29.28640
X21.05680 Y29.03240
X21.13300 Y28.82920
X21.13300 Y26.23840
X21.41240 Y26.23840
X21.41240 Y24.28260
X19.65980 Y24.28260
X19.65980 Y26.23840
X19.93920 Y26.23840
X19.93920 Y28.37200
X19.76140 Y28.54980
X19.45660 Y28.54980
X19.45660 Y29.59120
X19.81220 Y29.59120
X19.96460 Y29.66740
X20.29480 Y29.66740
X20.44720 Y29.59120
X20.80280 Y29.56580
G04 P0 ( dwell for no time -- G64 should not smooth over this point )
G00 Z5.00000 ( retract )

G00 X31.14060 Y37.18580 ( rapid move to begin. )
F300.00000
G01 Z-0.05000
G04 P0 ( dwell for no time -- G64 should not smooth over this point )
F600.00000
X31.14060 Y37.18580
X31.14060 Y35.07760
X30.63260 Y35.07760
X30.63260 Y34.74740
X33.93460 Y34.74740
X34.11240 Y34.92520
X34.31560 Y35.00140
X37.43980 Y35.00140
X37.43980 Y35.07760
X38.37960 Y35.07760
X38.37960 Y34.79820
X38.43040 Y34.77280
X38.50660 Y34.56960
X38.50660 Y34.23940
X38.43040 Y34.03620
X38.37960 Y34.01080
X38.37960 Y33.73140
X38.27800 Y33.73140
X38.27800 Y31.49620
X38.65900 Y31.49620
X38.65900 Y31.36920
X39.72580 Y31.36920
X40.58940 Y30.53100
X40.61480 Y28.16880
X41.96100 Y28.14340
X44.29780 Y25.78120
X45.79640 Y25.78120
X45.79640 Y25.90820
X47.14260 Y25.90820
X47.14260 Y25.12080
X46.76160 Y25.12080
X46.76160 Y24.96840
X48.23480 Y23.49520
X48.69200 Y23.49520
X48.69200 Y23.90160
X49.63180 Y23.90160
X49.63180 Y22.55540
X48.69200 Y22.55540
X48.69200 Y22.93640
X47.87920 Y22.96180
X46.22820 Y24.61280
X46.20280 Y25.12080
X45.79640 Y25.12080
X45.79640 Y25.22240
X43.94220 Y25.24780
X41.60540 Y27.61000
X38.65900 Y27.61000
X38.65900 Y27.50840
X37.31280 Y27.50840
X37.31280 Y27.61000
X36.14440 Y27.61000
X35.66180 Y27.12740
X34.82360 Y27.12740
X34.82360 Y26.74640
X33.88380 Y26.74640
X33.88380 Y26.94960
X33.04560 Y26.94960
X33.04560 Y26.74640
X32.10580 Y26.74640
X32.10580 Y28.09260
X33.04560 Y28.09260
X33.04560 Y27.88940
X33.88380 Y27.88940
X33.88380 Y28.09260
X34.82360 Y28.09260
X34.82360 Y27.68620
X35.35700 Y27.68620
X35.83960 Y28.16880
X37.31280 Y28.16880
X37.31280 Y28.29580
X38.65900 Y28.29580
X38.65900 Y28.16880
X40.05600 Y28.16880
X40.05600 Y30.17540
X39.42100 Y30.81040
X38.65900 Y30.81040
X38.65900 Y30.70880
X37.31280 Y30.70880
X37.31280 Y31.49620
X37.71920 Y31.49620
X37.71920 Y33.73140
X37.43980 Y33.73140
X37.43980 Y33.80760
X34.77280 Y33.80760
X34.64580 Y33.65520
X34.39180 Y33.55360
X29.87060 Y33.55360
X29.66740 Y33.62980
X29.51500 Y33.78220
X29.43880 Y33.98540
X29.43880 Y35.07760
X28.93080 Y35.07760
X28.93080 Y37.28740
X31.14060 Y37.28740
X31.14060 Y37.18580
G04 P0 ( dwell for no time -- G64 should not smooth over this point )
G00 Z5.00000 ( retract )

G00 X33.12180 Y37.18580 ( rapid move to begin. )
F300.00000
G01 Z-0.05000
G04 P0 ( dwell for no time -- G64 should not smooth over this point )
F600.00000
X33.12180 Y37.18580
X33.32500 Y37.08420
X33.45200 Y36.95720
X33.50280 Y36.80480
X33.62980 Y36.65240
X33.68060 Y36.34760
X33.68060 Y36.01740
X33.62980 Y35.71260
X33.57900 Y35.68720
X33.45200 Y35.40780
X33.12180 Y35.15380
X32.79160 Y35.07760
X32.20740 Y35.10300
X31.85180 Y35.25540
X31.69940 Y35.40780
X31.57240 Y35.68720
X31.52160 Y35.71260
X31.47080 Y36.01740
X31.47080 Y36.34760
X31.52160 Y36.65240
X31.57240 Y36.67780
X31.69940 Y36.95720
X31.85180 Y37.10960
X32.00420 Y37.16040
X32.02960 Y37.21120
X32.35980 Y37.28740
X32.79160 Y37.28740
X33.12180 Y37.18580
G04 P0 ( dwell for no time -- G64 should not smooth over this point )
G00 Z5.00000 ( retract )

G00 X33.12180 Y42.26580 ( rapid move to begin. )
F300.00000
G01 Z-0.05000
G04 P0 ( dwell for no time -- G64 should not smooth over this point )
F600.00000
X33.12180 Y42.26580
X33.35040 Y42.13880
X33.45200 Y42.03720
X33.52820 Y41.85940
X35.15380 Y41.85940
X35.35700 Y41.78320
X35.50940 Y41.63080
X35.50940 Y41.58000
X36.32220 Y40.76720
X36.62700 Y40.76720
X36.62700 Y39.72580
X36.27140 Y39.72580
X36.11900 Y39.64960
X35.78880 Y39.64960
X35.63640 Y39.72580
X35.28080 Y39.72580
X35.28080 Y40.03060
X34.64580 Y40.66560
X33.52820 Y40.66560
X33.45200 Y40.48780
X33.32500 Y40.36080
X33.14720 Y40.28460
X33.12180 Y40.23380
X32.79160 Y40.15760
X32.20740 Y40.18300
X31.85180 Y40.33540
X31.69940 Y40.48780
X31.57240 Y40.76720
X31.52160 Y40.79260
X31.47080 Y41.09740
X31.47080 Y41.42760
X31.52160 Y41.73240
X31.57240 Y41.75780
X31.69940 Y42.03720
X31.85180 Y42.18960
X32.00420 Y42.24040
X32.02960 Y42.29120
X32.35980 Y42.36740
X32.79160 Y42.36740
X33.12180 Y42.26580
G04 P0 ( dwell for no time -- G64 should not smooth over this point )
G00 Z5.00000 ( retract )

G00 X38.83680 Y40.66560 ( rapid move to begin. )
F300.00000
G01 Z-0.05000
G04 P0 ( dwell for no time -- G64 should not smooth over this point )
F600.00000
X38.83680 Y40.66560
X38.83680 Y40.51320
X39.26860 Y40.48780
X40.51320 Y39.21780
X40.51320 Y33.22340
X40.61480 Y33.22340
X40.61480 Y31.87720
X39.82740 Y31.87720
X39.82740 Y33.22340
X39.95440 Y33.22340
X39.95440 Y38.91300
X38.91300 Y39.95440
X38.83680 Y39.95440
X38.83680 Y39.72580
X37.49060 Y39.72580
X37.49060 Y40.76720
X38.83680 Y40.76720
X38.83680 Y40.66560
G04 P0 ( dwell for no time -- G64 should not smooth over this point )
G00 Z5.00000 ( retract )

G00 X37.74460 Y48.61580 ( rapid move to begin. )
F300.00000
G01 Z-0.05000
G04 P0 ( dwell for no time -- G64 should not smooth over this point )
F600.00000
X37.74460 Y48.61580
X37.92240 Y48.53960
X38.02400 Y48.43800
X38.02400 Y48.38720
X38.17640 Y48.20940
X38.22720 Y47.98080
X38.22720 Y47.24420
X38.17640 Y47.01560
X38.07480 Y46.91400
X38.02400 Y46.78700
X37.92240 Y46.68540
X37.79540 Y46.63460
X43.71360 Y40.71640
X43.71360 Y33.22340
X43.81520 Y33.22340
X43.81520 Y31.87720
X43.02780 Y31.87720
X43.02780 Y33.22340
X43.15480 Y33.22340
X43.15480 Y40.41160
X37.03340 Y46.53300
X36.85560 Y46.55840
X36.72860 Y46.66000
X36.62700 Y46.68540
X36.52540 Y46.78700
X36.47460 Y46.91400
X36.39840 Y46.96480
X36.32220 Y47.24420
X36.32220 Y47.98080
X36.37300 Y48.20940
X36.47460 Y48.31100
X36.52540 Y48.43800
X36.62700 Y48.53960
X36.72860 Y48.56500
X36.85560 Y48.66660
X37.10960 Y48.71740
X37.43980 Y48.71740
X37.69380 Y48.66660
X37.74460 Y48.61580
G04 P0 ( dwell for no time -- G64 should not smooth over this point )
G00 Z5.00000 ( retract )

G00 X35.20460 Y48.61580 ( rapid move to begin. )
F300.00000
G01 Z-0.05000
G04 P0 ( dwell for no time -- G64 should not smooth over this point )
F600.00000
X35.20460 Y48.61580
X35.38240 Y48.53960
X35.63640 Y48.20940
X35.68720 Y47.98080
X35.68720 Y47.24420
X35.63640 Y47.01560
X35.48400 Y46.83780
X35.48400 Y46.78700
X35.25540 Y46.60920
X35.02680 Y46.53300
X35.02680 Y46.10120
X35.53480 Y45.59320
X37.87160 Y45.56780
X42.92620 Y40.48780
X42.92620 Y33.22340
X43.02780 Y33.22340
X43.02780 Y31.87720
X42.24040 Y31.87720
X42.24040 Y33.22340
X42.36740 Y33.22340
X42.36740 Y40.18300
X37.51600 Y45.03440
X35.23000 Y45.03440
X34.49340 Y45.74560
X34.46800 Y46.53300
X34.31560 Y46.55840
X34.18860 Y46.66000
X34.08700 Y46.68540
X33.83300 Y47.01560
X33.78220 Y47.24420
X33.80760 Y48.10780
X33.85840 Y48.26020
X33.93460 Y48.31100
X33.98540 Y48.43800
X34.08700 Y48.53960
X34.18860 Y48.56500
X34.31560 Y48.66660
X34.56960 Y48.71740
X34.89980 Y48.71740
X35.15380 Y48.66660
X35.20460 Y48.61580
G04 P0 ( dwell for no time -- G64 should not smooth over this point )
G00 Z5.00000 ( retract )

G00 X32.66460 Y48.61580 ( rapid move to begin. )
F300.00000
G01 Z-0.05000
G04 P0 ( dwell for no time -- G64 should not smooth over this point )
F600.00000
X32.66460 Y48.61580
X32.84240 Y48.53960
X33.09640 Y48.20940
X33.14720 Y47.98080
X33.14720 Y47.24420
X33.09640 Y47.01560
X32.99480 Y46.91400
X32.94400 Y46.78700
X32.71540 Y46.60920
X32.48680 Y46.53300
X32.48680 Y45.84720
X33.50280 Y44.83120
X37.61760 Y44.80580
X42.08800 Y40.33540
X42.11340 Y33.22340
X42.21500 Y33.22340
X42.21500 Y31.87720
X41.42760 Y31.87720
X41.42760 Y33.22340
X41.55460 Y33.22340
X41.55460 Y39.97980
X37.26200 Y44.27240
X33.14720 Y44.29780
X31.95340 Y45.49160
X31.92800 Y46.53300
X31.67400 Y46.60920
X31.44540 Y46.78700
X31.44540 Y46.83780
X31.29300 Y47.01560
X31.24220 Y47.24420
X31.26760 Y48.10780
X31.31840 Y48.26020
X31.39460 Y48.31100
X31.39460 Y48.36180
X31.54700 Y48.53960
X31.64860 Y48.56500
X31.77560 Y48.66660
X32.02960 Y48.71740
X32.35980 Y48.71740
X32.61380 Y48.66660
X32.66460 Y48.61580
G04 P0 ( dwell for no time -- G64 should not smooth over this point )
G00 Z5.00000 ( retract )

G00 X30.12460 Y48.61580 ( rapid move to begin. )
F300.00000
G01 Z-0.05000
G04 P0 ( dwell for no time -- G64 should not smooth over this point )
F600.00000
X30.12460 Y48.61580
X30.30240 Y48.53960
X30.55640 Y48.20940
X30.60720 Y47.98080
X30.60720 Y47.24420
X30.55640 Y47.01560
X30.45480 Y46.91400
X30.40400 Y46.78700
X30.17540 Y46.60920
X29.94680 Y46.53300
X29.94680 Y45.84720
X31.72480 Y44.06920
X37.05880 Y44.06920
X41.30060 Y39.85280
X41.32600 Y33.22340
X41.42760 Y33.22340
X41.42760 Y31.87720
X40.64020 Y31.87720
X40.64020 Y33.22340
X40.76720 Y33.22340
X40.76720 Y39.49720
X36.75400 Y43.51040
X31.36920 Y43.53580
X29.41340 Y45.49160
X29.38800 Y46.53300
X29.23560 Y46.55840
X29.10860 Y46.66000
X29.00700 Y46.68540
X28.90540 Y46.78700
X28.85460 Y46.91400
X28.77840 Y46.96480
X28.72760 Y47.11720
X28.70220 Y47.98080
X28.75300 Y48.20940
X28.85460 Y48.31100
X28.90540 Y48.43800
X29.00700 Y48.53960
X29.10860 Y48.56500
X29.23560 Y48.66660
X29.48960 Y48.71740
X29.81980 Y48.71740
X30.07380 Y48.66660
X30.12460 Y48.61580
G04 P0 ( dwell for no time -- G64 should not smooth over this point )
G00 Z5.00000 ( retract )

G00 X28.60060 Y46.78700 ( rapid move to begin. )
F300.00000
G01 Z-0.05000
G04 P0 ( dwell for no time -- G64 should not smooth over this point )
F600.00000
X28.60060 Y46.78700
X28.77840 Y46.53300
X28.95620 Y46.45680
X29.05780 Y46.35520
X29.05780 Y45.72020
X29.08320 Y45.56780
X29.18480 Y45.44080
X29.21020 Y45.33920
X31.19140 Y43.35800
X31.29300 Y43.33260
X31.31840 Y43.28180
X31.57240 Y43.20560
X36.70320 Y43.20560
X38.37960 Y41.52920
X38.40500 Y41.19900
X38.32880 Y41.12280
X37.59220 Y41.12280
X37.28740 Y40.99580
X37.28740 Y40.94500
X37.21120 Y40.86880
X36.93180 Y40.86880
X36.80480 Y41.02120
X36.65240 Y41.09740
X36.29680 Y41.14820
X35.68720 Y41.75780
X35.58560 Y41.93560
X35.53480 Y41.93560
X35.50940 Y41.98640
X35.45860 Y41.98640
X35.25540 Y42.13880
X34.95060 Y42.18960
X33.62980 Y42.18960
X33.52820 Y42.31660
X33.47740 Y42.31660
X33.14720 Y42.57060
X32.66460 Y42.69760
X32.10580 Y42.62140
X31.75020 Y42.36740
X31.47080 Y42.36740
X31.21680 Y42.64680
X31.14060 Y42.64680
X31.08980 Y42.69760
X30.45480 Y42.69760
X30.37860 Y42.62140
X30.37860 Y42.36740
X31.14060 Y42.36740
X31.14060 Y40.15760
X30.63260 Y40.15760
X30.63260 Y39.90360
X30.70880 Y39.82740
X31.08980 Y39.82740
X31.14060 Y39.87820
X31.21680 Y39.87820
X31.47080 Y40.15760
X31.75020 Y40.15760
X32.10580 Y39.90360
X32.66460 Y39.82740
X33.14720 Y39.95440
X33.24880 Y40.05600
X33.52820 Y40.20840
X33.62980 Y40.33540
X34.62040 Y40.33540
X34.89980 Y40.05600
X34.95060 Y39.72580
X35.05220 Y39.54800
X35.28080 Y39.39560
X35.89040 Y39.34480
X36.52540 Y39.37020
X36.80480 Y39.47180
X36.93180 Y39.62420
X37.21120 Y39.62420
X37.28740 Y39.54800
X37.28740 Y39.49720
X37.59220 Y39.37020
X39.09080 Y39.39560
X39.59880 Y38.91300
X39.62420 Y35.91580
X39.72580 Y35.81420
X39.72580 Y33.22340
X39.82740 Y33.22340
X39.82740 Y31.87720
X39.04000 Y31.87720
X39.04000 Y33.22340
X39.16700 Y33.22340
X39.16700 Y33.45200
X39.11620 Y33.45200
X39.04000 Y33.55360
X38.78600 Y33.55360
X38.70980 Y33.62980
X38.70980 Y34.06160
X38.78600 Y34.13780
X38.81140 Y34.51880
X38.78600 Y34.67120
X38.70980 Y34.74740
X38.68440 Y35.07760
X38.60820 Y35.20460
X38.60820 Y35.48400
X38.70980 Y35.66180
X38.70980 Y35.89040
X38.63360 Y35.96660
X38.43040 Y35.96660
X38.37960 Y35.91580
X38.37960 Y35.63640
X37.43980 Y35.63640
X37.43980 Y35.71260
X37.10960 Y35.71260
X37.13500 Y35.40780
X37.05880 Y35.33160
X34.51880 Y35.33160
X34.23940 Y35.25540
X33.93460 Y35.25540
X33.85840 Y35.33160
X33.85840 Y35.61100
X33.90920 Y35.68720
X33.98540 Y36.06820
X33.98540 Y36.29680
X33.88380 Y36.72860
X33.83300 Y36.75400
X33.83300 Y36.80480
X33.78220 Y36.83020
X33.78220 Y36.88100
X33.73140 Y36.90640
X33.65520 Y37.08420
X33.52820 Y37.23660
X33.47740 Y37.23660
X33.45200 Y37.28740
X33.40120 Y37.28740
X33.37580 Y37.33820
X33.32500 Y37.33820
X33.29960 Y37.38900
X33.24880 Y37.38900
X33.22340 Y37.43980
X33.04560 Y37.54140
X32.66460 Y37.61760
X32.10580 Y37.54140
X31.75020 Y37.28740
X31.47080 Y37.28740
X31.26760 Y37.54140
X31.08980 Y37.61760
X28.98160 Y37.61760
X28.80380 Y37.54140
X28.67680 Y37.41440
X28.60060 Y37.23660
X28.60060 Y35.12840
X28.67680 Y34.95060
X28.80380 Y34.82360
X28.85460 Y34.82360
X28.88000 Y34.77280
X29.03240 Y34.77280
X29.10860 Y34.69660
X29.10860 Y34.18860
X29.15940 Y33.88380
X29.36260 Y33.60440
X29.36260 Y33.32500
X29.28640 Y33.24880
X27.94020 Y33.24880
X27.76240 Y33.40120
X27.73700 Y46.35520
X28.04180 Y46.58380
X28.14340 Y46.78700
X28.24500 Y46.88860
X28.52440 Y46.88860
X28.60060 Y46.78700
G04 P0 ( dwell for no time -- G64 should not smooth over this point )
G00 Z5.00000 ( retract )

G00 X27.58460 Y48.61580 ( rapid move to begin. )
F300.00000
G01 Z-0.05000
G04 P0 ( dwell for no time -- G64 should not smooth over this point )
F600.00000
X27.58460 Y48.61580
X27.76240 Y48.53960
X28.01640 Y48.20940
X28.06720 Y47.98080
X28.06720 Y47.24420
X28.01640 Y47.01560
X27.91480 Y46.91400
X27.86400 Y46.78700
X27.63540 Y46.60920
X27.40680 Y46.53300
X27.40680 Y33.40120
X27.91480 Y32.89320
X34.77280 Y32.89320
X37.08420 Y30.58180
X37.31280 Y30.58180
X37.31280 Y30.70880
X38.65900 Y30.70880
X38.65900 Y29.92140
X37.31280 Y29.92140
X37.31280 Y30.02300
X36.72860 Y30.04840
X34.46800 Y32.33440
X27.61000 Y32.33440
X26.87340 Y33.04560
X26.84800 Y46.53300
X26.69560 Y46.55840
X26.56860 Y46.66000
X26.46700 Y46.68540
X26.21300 Y47.01560
X26.16220 Y47.24420
X26.16220 Y47.98080
X26.21300 Y48.20940
X26.31460 Y48.31100
X26.36540 Y48.43800
X26.46700 Y48.53960
X26.56860 Y48.56500
X26.69560 Y48.66660
X26.94960 Y48.71740
X27.27980 Y48.71740
X27.53380 Y48.66660
X27.58460 Y48.61580
G04 P0 ( dwell for no time -- G64 should not smooth over this point )
G00 Z5.00000 ( retract )

G00 X25.52720 Y48.61580 ( rapid move to begin. )
F300.00000
G01 Z-0.05000
G04 P0 ( dwell for no time -- G64 should not smooth over this point )
F600.00000
X25.52720 Y48.61580
X25.52720 Y46.50760
X23.62220 Y46.50760
X23.62220 Y48.71740
X25.52720 Y48.71740
X25.52720 Y48.61580
G04 P0 ( dwell for no time -- G64 should not smooth over this point )
G00 Z5.00000 ( retract )

G00 X40.28460 Y48.61580 ( rapid move to begin. )
F300.00000
G01 Z-0.05000
G04 P0 ( dwell for no time -- G64 should not smooth over this point )
F600.00000
X40.28460 Y48.61580
X40.46240 Y48.53960
X40.71640 Y48.20940
X40.76720 Y47.98080
X40.76720 Y47.24420
X40.71640 Y47.01560
X40.61480 Y46.91400
X40.56400 Y46.78700
X40.33540 Y46.60920
X40.10680 Y46.53300
X40.10680 Y45.59320
X44.52640 Y41.17360
X44.52640 Y33.22340
X44.62800 Y33.22340
X44.62800 Y31.87720
X43.84060 Y31.87720
X43.84060 Y33.22340
X43.96760 Y33.22340
X43.96760 Y40.86880
X39.57340 Y45.23760
X39.54800 Y46.53300
X39.39560 Y46.55840
X39.26860 Y46.66000
X39.16700 Y46.68540
X38.91300 Y47.01560
X38.86220 Y47.24420
X38.86220 Y47.98080
X38.91300 Y48.20940
X39.01460 Y48.31100
X39.06540 Y48.43800
X39.16700 Y48.53960
X39.26860 Y48.56500
X39.39560 Y48.66660
X39.64960 Y48.71740
X39.97980 Y48.71740
X40.23380 Y48.66660
X40.28460 Y48.61580
G04 P0 ( dwell for no time -- G64 should not smooth over this point )
G00 Z5.00000 ( retract )

G00 X42.82460 Y48.61580 ( rapid move to begin. )
F300.00000
G01 Z-0.05000
G04 P0 ( dwell for no time -- G64 should not smooth over this point )
F600.00000
X42.82460 Y48.61580
X43.00240 Y48.53960
X43.25640 Y48.20940
X43.30720 Y47.98080
X43.30720 Y47.24420
X43.25640 Y47.01560
X43.15480 Y46.91400
X43.10400 Y46.78700
X42.87540 Y46.60920
X42.64680 Y46.53300
X42.64680 Y44.19620
X45.31380 Y41.52920
X45.31380 Y33.22340
X45.41540 Y33.22340
X45.41540 Y31.87720
X44.62800 Y31.87720
X44.62800 Y33.22340
X44.75500 Y33.22340
X44.75500 Y41.22440
X42.11340 Y43.84060
X42.08800 Y46.53300
X41.83400 Y46.60920
X41.60540 Y46.78700
X41.60540 Y46.83780
X41.45300 Y47.01560
X41.40220 Y47.24420
X41.42760 Y48.10780
X41.47840 Y48.26020
X41.55460 Y48.31100
X41.55460 Y48.36180
X41.70700 Y48.53960
X41.80860 Y48.56500
X41.93560 Y48.66660
X42.18960 Y48.71740
X42.51980 Y48.71740
X42.77380 Y48.66660
X42.82460 Y48.61580
G04 P0 ( dwell for no time -- G64 should not smooth over this point )
G00 Z5.00000 ( retract )

G00 X52.95920 Y48.61580 ( rapid move to begin. )
F300.00000
G01 Z-0.05000
G04 P0 ( dwell for no time -- G64 should not smooth over this point )
F600.00000
X52.95920 Y48.61580
X52.95920 Y46.50760
X51.05420 Y46.50760
X51.05420 Y48.71740
X52.95920 Y48.71740
X52.95920 Y48.61580
G04 P0 ( dwell for no time -- G64 should not smooth over this point )
G00 Z5.00000 ( retract )

G00 X55.01660 Y48.61580 ( rapid move to begin. )
F300.00000
G01 Z-0.05000
G04 P0 ( dwell for no time -- G64 should not smooth over this point )
F600.00000
X55.01660 Y48.61580
X55.19440 Y48.53960
X55.44840 Y48.20940
X55.49920 Y47.98080
X55.49920 Y47.24420
X55.44840 Y47.01560
X55.34680 Y46.91400
X55.29600 Y46.78700
X55.06740 Y46.60920
X54.83880 Y46.53300
X54.83880 Y41.73240
X52.42580 Y39.31940
X52.40040 Y33.42660
X49.75880 Y30.81040
X47.14260 Y30.81040
X47.14260 Y30.70880
X45.79640 Y30.70880
X45.79640 Y31.49620
X47.14260 Y31.49620
X47.14260 Y31.36920
X49.45400 Y31.36920
X51.86700 Y33.78220
X51.86700 Y39.62420
X54.28000 Y42.03720
X54.28000 Y46.53300
X54.12760 Y46.55840
X54.00060 Y46.66000
X53.89900 Y46.68540
X53.64500 Y47.01560
X53.59420 Y47.24420
X53.61960 Y48.10780
X53.67040 Y48.26020
X53.74660 Y48.31100
X53.79740 Y48.43800
X53.89900 Y48.53960
X54.00060 Y48.56500
X54.12760 Y48.66660
X54.38160 Y48.71740
X54.71180 Y48.71740
X54.96580 Y48.66660
X55.01660 Y48.61580
G04 P0 ( dwell for no time -- G64 should not smooth over this point )
G00 Z5.00000 ( retract )

G00 X60.09660 Y48.61580 ( rapid move to begin. )
F300.00000
G01 Z-0.05000
G04 P0 ( dwell for no time -- G64 should not smooth over this point )
F600.00000
X60.09660 Y48.61580
X60.27440 Y48.53960
X60.52840 Y48.20940
X60.57920 Y47.98080
X60.57920 Y47.24420
X60.52840 Y47.01560
X60.42680 Y46.91400
X60.37600 Y46.78700
X60.14740 Y46.60920
X59.91880 Y46.53300
X59.89340 Y45.23760
X53.18780 Y38.55740
X53.16240 Y32.66460
X50.49540 Y30.02300
X47.14260 Y30.02300
X47.14260 Y29.92140
X45.79640 Y29.92140
X45.79640 Y30.70880
X47.14260 Y30.70880
X47.14260 Y30.58180
X50.19060 Y30.58180
X52.62900 Y33.02020
X52.62900 Y38.86220
X59.36000 Y45.59320
X59.36000 Y46.53300
X59.20760 Y46.55840
X59.08060 Y46.66000
X58.97900 Y46.68540
X58.72500 Y47.01560
X58.67420 Y47.24420
X58.69960 Y48.10780
X58.75040 Y48.26020
X58.82660 Y48.31100
X58.87740 Y48.43800
X58.97900 Y48.53960
X59.08060 Y48.56500
X59.20760 Y48.66660
X59.46160 Y48.71740
X59.79180 Y48.71740
X60.04580 Y48.66660
X60.09660 Y48.61580
G04 P0 ( dwell for no time -- G64 should not smooth over this point )
G00 Z5.00000 ( retract )

G00 X62.63660 Y48.61580 ( rapid move to begin. )
F300.00000
G01 Z-0.05000
G04 P0 ( dwell for no time -- G64 should not smooth over this point )
F600.00000
X62.63660 Y48.61580
X62.81440 Y48.53960
X62.91600 Y48.43800
X62.91600 Y48.38720
X63.06840 Y48.20940
X63.11920 Y47.98080
X63.11920 Y47.24420
X63.06840 Y47.01560
X62.91600 Y46.83780
X62.91600 Y46.78700
X62.68740 Y46.60920
X62.48420 Y46.55840
X62.43340 Y46.43140
X54.55940 Y38.58280
X54.63560 Y38.37960
X54.63560 Y38.04940
X54.58480 Y37.87160
X54.45780 Y37.71920
X54.20380 Y37.61760
X53.87360 Y37.61760
X53.61960 Y37.71920
X53.49260 Y37.87160
X53.44180 Y38.04940
X53.44180 Y38.37960
X53.54340 Y38.63360
X53.61960 Y38.70980
X53.72120 Y38.73520
X53.77200 Y38.88760
X61.56980 Y46.66000
X61.41740 Y46.78700
X61.36660 Y46.91400
X61.29040 Y46.96480
X61.21420 Y47.24420
X61.21420 Y47.98080
X61.26500 Y48.20940
X61.36660 Y48.31100
X61.41740 Y48.43800
X61.51900 Y48.53960
X61.62060 Y48.56500
X61.74760 Y48.66660
X62.00160 Y48.71740
X62.33180 Y48.71740
X62.58580 Y48.66660
X62.63660 Y48.61580
G04 P0 ( dwell for no time -- G64 should not smooth over this point )
G00 Z5.00000 ( retract )

G00 X65.17660 Y48.61580 ( rapid move to begin. )
F300.00000
G01 Z-0.05000
G04 P0 ( dwell for no time -- G64 should not smooth over this point )
F600.00000
X65.17660 Y48.61580
X65.35440 Y48.53960
X65.60840 Y48.20940
X65.65920 Y47.98080
X65.65920 Y47.24420
X65.60840 Y47.01560
X65.35440 Y46.68540
X65.25280 Y46.66000
X65.12580 Y46.55840
X64.87180 Y46.50760
X64.54160 Y46.50760
X64.28760 Y46.55840
X64.16060 Y46.66000
X64.05900 Y46.68540
X63.80500 Y47.01560
X63.75420 Y47.24420
X63.75420 Y47.98080
X63.80500 Y48.20940
X64.05900 Y48.53960
X64.16060 Y48.56500
X64.28760 Y48.66660
X64.54160 Y48.71740
X64.87180 Y48.71740
X65.12580 Y48.66660
X65.17660 Y48.61580
G04 P0 ( dwell for no time -- G64 should not smooth over this point )
G00 Z5.00000 ( retract )

G00 X68.40240 Y51.07960 ( rapid move to begin. )
F300.00000
G01 Z-0.05000
G04 P0 ( dwell for no time -- G64 should not smooth over this point )
F600.00000
X68.40240 Y51.07960
X68.40240 Y34.16320
X68.32620 Y34.08700
X67.89440 Y34.08700
X67.81820 Y34.16320
X67.79280 Y34.36640
X67.48800 Y34.36640
X67.43720 Y34.23940
X67.25940 Y34.08700
X67.20860 Y34.08700
X67.20860 Y33.75680
X68.19920 Y33.75680
X68.19920 Y32.15660
X67.46260 Y32.15660
X67.46260 Y31.82640
X68.19920 Y31.82640
X68.19920 Y30.22620
X67.20860 Y30.22620
X67.20860 Y29.89600
X67.36100 Y29.81980
X67.48800 Y29.61660
X67.79280 Y29.61660
X67.81820 Y29.81980
X67.89440 Y29.89600
X68.32620 Y29.89600
X68.40240 Y29.81980
X68.40240 Y2.21000
X68.32620 Y2.13380
X2.15920 Y2.13380
X2.08300 Y2.21000
X2.08300 Y51.10500
X2.15920 Y51.18120
X68.32620 Y51.18120
X68.40240 Y51.07960
G04 P0 ( dwell for no time -- G64 should not smooth over this point )
G00 Z5.00000 ( retract )

G00 X60.27440 Y34.72200 ( rapid move to begin. )
F300.00000
G01 Z-0.05000
G04 P0 ( dwell for no time -- G64 should not smooth over this point )
F600.00000
X60.27440 Y34.72200
X60.27440 Y33.47740
X60.09660 Y33.47740
X60.65540 Y32.91860
X64.64320 Y32.94400
X64.64320 Y32.35980
X60.29980 Y32.38520
X59.51240 Y33.17260
X59.48700 Y33.47740
X59.23300 Y33.47740
X59.23300 Y34.82360
X60.27440 Y34.82360
X60.27440 Y34.72200
G04 P0 ( dwell for no time -- G64 should not smooth over this point )
G00 Z5.00000 ( retract )

G00 X64.64320 Y32.18200 ( rapid move to begin. )
F300.00000
G01 Z-0.05000
G04 P0 ( dwell for no time -- G64 should not smooth over this point )
F600.00000
X64.64320 Y32.18200
X64.64320 Y31.69940
X60.68080 Y31.69940
X58.19160 Y29.21020
X47.14260 Y29.21020
X47.14260 Y29.10860
X45.79640 Y29.10860
X45.79640 Y29.89600
X47.14260 Y29.89600
X47.14260 Y29.76900
X57.88680 Y29.76900
X60.37600 Y32.25820
X64.64320 Y32.28360
X64.64320 Y32.18200
G04 P0 ( dwell for no time -- G64 should not smooth over this point )
G00 Z5.00000 ( retract )

G00 X64.64320 Y31.52160 ( rapid move to begin. )
F300.00000
G01 Z-0.05000
G04 P0 ( dwell for no time -- G64 should not smooth over this point )
F600.00000
X64.64320 Y31.52160
X64.64320 Y31.03900
X60.93480 Y31.03900
X59.43620 Y29.51500
X59.38540 Y29.51500
X58.29320 Y28.42280
X47.14260 Y28.42280
X47.14260 Y28.32120
X45.79640 Y28.32120
X45.79640 Y29.10860
X47.14260 Y29.10860
X47.14260 Y28.98160
X57.98840 Y28.98160
X59.48700 Y30.50560
X59.53780 Y30.50560
X60.63000 Y31.59780
X64.64320 Y31.62320
X64.64320 Y31.52160
G04 P0 ( dwell for no time -- G64 should not smooth over this point )
G00 Z5.00000 ( retract )

G00 X64.64320 Y30.93740 ( rapid move to begin. )
F300.00000
G01 Z-0.05000
G04 P0 ( dwell for no time -- G64 should not smooth over this point )
F600.00000
X64.64320 Y30.93740
X64.64320 Y30.40400
X62.25560 Y30.40400
X62.20480 Y30.35320
X61.56980 Y30.35320
X60.73160 Y29.51500
X60.73160 Y27.27980
X67.25940 Y20.77740
X67.33560 Y20.59960
X67.33560 Y4.01340
X67.25940 Y3.83560
X66.39580 Y2.99740
X66.26880 Y2.94660
X13.36060 Y2.94660
X13.15740 Y3.04820
X12.39540 Y3.83560
X12.21760 Y3.86100
X12.19220 Y3.91180
X12.09060 Y3.93720
X11.96360 Y4.08960
X11.91280 Y4.26740
X11.91280 Y4.59760
X12.01440 Y4.85160
X12.21760 Y5.00400
X12.67480 Y5.02940
X12.80180 Y5.00400
X13.00500 Y4.85160
X13.00500 Y4.80080
X13.08120 Y4.72460
X13.10660 Y4.54680
X13.76700 Y3.88640
X65.86240 Y3.88640
X66.39580 Y4.41980
X66.39580 Y20.19320
X59.86800 Y26.69560
X59.79180 Y26.87340
X59.79180 Y29.74360
X59.86800 Y29.92140
X59.91880 Y29.92140
X60.02040 Y30.02300
X60.19820 Y30.04840
X61.11260 Y30.98820
X61.21420 Y31.03900
X62.20480 Y31.03900
X62.28100 Y30.96280
X64.64320 Y30.98820
X64.64320 Y30.93740
G04 P0 ( dwell for no time -- G64 should not smooth over this point )
G00 Z5.00000 ( retract )

G00 X56.31200 Y25.60340 ( rapid move to begin. )
F300.00000
G01 Z-0.05000
G04 P0 ( dwell for no time -- G64 should not smooth over this point )
F600.00000
X56.31200 Y25.60340
X57.88680 Y24.05400
X57.88680 Y23.26660
X57.70900 Y23.13960
X57.60740 Y22.86020
X57.60740 Y21.74260
X57.70900 Y21.46320
X57.86140 Y21.33620
X57.86140 Y21.05680
X57.70900 Y20.92980
X57.60740 Y20.65040
X57.60740 Y19.53280
X57.68360 Y19.32960
X57.68360 Y17.55160
X57.60740 Y17.47540
X57.50580 Y17.47540
X57.42960 Y17.39920
X57.37880 Y17.39920
X57.20100 Y17.19600
X57.15020 Y17.01820
X57.15020 Y15.49420
X57.30260 Y15.18940
X57.50580 Y15.06240
X57.58200 Y15.06240
X57.65820 Y14.98620
X57.65820 Y14.70680
X57.58200 Y14.63060
X57.37880 Y14.57980
X57.22640 Y14.42740
X57.17560 Y14.30040
X57.17560 Y13.89400
X57.50580 Y13.89400
X57.50580 Y14.30040
X59.46160 Y14.30040
X59.46160 Y13.76700
X59.71560 Y13.76700
X59.79180 Y13.84320
X59.79180 Y14.30040
X59.74100 Y14.42740
X59.58860 Y14.57980
X59.38540 Y14.63060
X59.30920 Y14.70680
X59.30920 Y14.98620
X59.38540 Y15.06240
X59.46160 Y15.06240
X59.63940 Y15.16400
X59.74100 Y15.29100
X59.81720 Y15.49420
X59.81720 Y17.01820
X59.71560 Y17.27220
X59.51240 Y17.45000
X59.36000 Y17.47540
X59.28380 Y17.55160
X59.28380 Y19.32960
X59.36000 Y19.53280
X59.36000 Y20.65040
X59.25840 Y20.92980
X59.10600 Y21.05680
X59.10600 Y21.33620
X59.25840 Y21.46320
X59.30920 Y21.61560
X59.38540 Y21.69180
X59.96960 Y21.69180
X61.69680 Y19.99000
X61.69680 Y10.97300
X59.61400 Y8.89020
X58.29320 Y8.86480
X57.93760 Y8.73780
X56.51520 Y7.34080
X56.48980 Y7.23920
X56.31200 Y7.03600
X56.26120 Y7.03600
X56.03260 Y6.85820
X56.03260 Y6.80740
X55.82940 Y6.55340
X55.55000 Y6.55340
X55.34680 Y6.80740
X55.34680 Y6.85820
X55.21980 Y6.95980
X55.21980 Y9.98240
X55.16900 Y10.23640
X54.99120 Y10.46500
X54.99120 Y10.51580
X54.30540 Y11.17620
X54.22920 Y11.53180
X54.17840 Y11.55720
X54.15300 Y11.65880
X54.10220 Y11.65880
X54.02600 Y11.73500
X54.02600 Y12.01440
X54.17840 Y12.14140
X54.28000 Y12.42080
X54.28000 Y13.53840
X54.20380 Y13.74160
X54.20380 Y15.01160
X54.28000 Y15.08780
X54.35620 Y15.08780
X54.38160 Y15.13860
X54.48320 Y15.16400
X54.66100 Y15.41800
X54.68640 Y16.35780
X54.63560 Y16.53560
X54.48320 Y16.71340
X54.20380 Y16.81500
X52.60360 Y16.81500
X52.32420 Y16.71340
X52.14640 Y16.48480
X52.12100 Y16.35780
X52.14640 Y15.41800
X52.32420 Y15.16400
X52.42580 Y15.13860
X52.45120 Y15.08780
X52.52740 Y15.08780
X52.60360 Y15.01160
X52.60360 Y13.74160
X52.52740 Y13.53840
X52.52740 Y12.42080
X52.62900 Y12.14140
X52.78140 Y12.01440
X52.78140 Y11.73500
X52.70520 Y11.65880
X52.65440 Y11.65880
X52.62900 Y11.55720
X52.50200 Y11.40480
X49.47940 Y11.43020
X44.83120 Y16.10380
X44.83120 Y22.96180
X44.93280 Y23.03800
X44.93280 Y23.11420
X45.00900 Y23.19040
X45.28840 Y23.19040
X45.41540 Y23.06340
X45.49160 Y23.08880
X45.61860 Y23.21580
X45.41540 Y23.41900
X44.62800 Y23.39360
X44.62800 Y24.73980
X45.41540 Y24.73980
X45.41540 Y24.40960
X45.66940 Y24.40960
X45.74560 Y24.48580
X46.02500 Y24.48580
X47.67600 Y22.80940
X47.72680 Y22.80940
X47.75220 Y22.75860
X47.93000 Y22.65700
X48.31100 Y22.60620
X48.43800 Y22.47920
X48.46340 Y22.14900
X48.36180 Y21.97120
X48.36180 Y21.74260
X48.43800 Y21.66640
X48.69200 Y21.66640
X48.69200 Y21.99660
X49.63180 Y21.99660
X49.63180 Y21.79340
X49.93660 Y21.79340
X49.93660 Y21.97120
X49.83500 Y22.14900
X49.83500 Y22.42840
X49.91120 Y22.50460
X49.96200 Y22.65700
X49.93660 Y23.90160
X49.75880 Y24.15560
X49.47940 Y24.25720
X48.81900 Y24.25720
X48.53960 Y24.15560
X48.41260 Y23.97780
X48.08240 Y24.00320
X47.39660 Y24.71440
X47.39660 Y24.99380
X47.47280 Y25.07000
X47.49820 Y25.17160
X47.49820 Y25.62880
X47.57440 Y25.70500
X56.21040 Y25.70500
X56.31200 Y25.60340
G04 P0 ( dwell for no time -- G64 should not smooth over this point )
G00 Z5.00000 ( retract )

G00 X59.00440 Y20.67580 ( rapid move to begin. )
F300.00000
G01 Z-0.05000
G04 P0 ( dwell for no time -- G64 should not smooth over this point )
F600.00000
X59.00440 Y20.67580
X59.00440 Y19.43120
X58.95360 Y19.43120
X58.95360 Y17.14520
X59.46160 Y17.14520
X59.46160 Y15.39260
X57.50580 Y15.39260
X57.50580 Y17.14520
X58.01380 Y17.14520
X58.01380 Y19.43120
X57.96300 Y19.43120
X57.96300 Y20.77740
X59.00440 Y20.77740
X59.00440 Y20.67580
G04 P0 ( dwell for no time -- G64 should not smooth over this point )
G00 Z5.00000 ( retract )

G00 X65.15120 Y21.08220 ( rapid move to begin. )
F300.00000
G01 Z-0.05000
G04 P0 ( dwell for no time -- G64 should not smooth over this point )
F600.00000
X65.15120 Y21.08220
X66.06560 Y20.14240
X66.06560 Y6.62960
X65.98940 Y6.55340
X65.71000 Y6.55340
X65.30360 Y7.01060
X64.92260 Y7.16300
X64.92260 Y6.88360
X64.99880 Y6.88360
X65.12580 Y6.78200
X65.22740 Y6.75660
X65.48140 Y6.42640
X65.53220 Y6.19780
X65.50680 Y5.33420
X65.45600 Y5.18180
X65.37980 Y5.13100
X65.32900 Y5.00400
X65.10040 Y4.82620
X64.74480 Y4.72460
X64.41460 Y4.72460
X64.16060 Y4.77540
X64.03360 Y4.87700
X63.93200 Y4.90240
X63.83040 Y5.00400
X63.77960 Y5.13100
X63.70340 Y5.18180
X63.62720 Y5.46120
X63.62720 Y6.19780
X63.67800 Y6.42640
X63.77960 Y6.52800
X63.83040 Y6.65500
X64.05900 Y6.83280
X64.23680 Y6.88360
X64.23680 Y7.13760
X64.13520 Y7.21380
X64.13520 Y7.49320
X64.51620 Y7.87420
X64.54160 Y7.97580
X64.64320 Y8.10280
X64.69400 Y8.30600
X64.69400 Y21.10760
X64.77020 Y21.18380
X65.04960 Y21.18380
X65.15120 Y21.08220
G04 P0 ( dwell for no time -- G64 should not smooth over this point )
G00 Z5.00000 ( retract )

G00 X54.33080 Y16.35780 ( rapid move to begin. )
F300.00000
G01 Z-0.05000
G04 P0 ( dwell for no time -- G64 should not smooth over this point )
F600.00000
X54.33080 Y16.35780
X54.33080 Y15.41800
X53.87360 Y15.41800
X53.87360 Y13.66540
X53.92440 Y13.66540
X53.92440 Y12.31920
X52.88300 Y12.31920
X52.88300 Y13.66540
X52.93380 Y13.66540
X52.93380 Y15.41800
X52.47660 Y15.41800
X52.47660 Y16.45940
X54.33080 Y16.45940
X54.33080 Y16.35780
G04 P0 ( dwell for no time -- G64 should not smooth over this point )
G00 Z5.00000 ( retract )

G00 X47.14260 Y26.59400 ( rapid move to begin. )
F300.00000
G01 Z-0.05000
G04 P0 ( dwell for no time -- G64 should not smooth over this point )
F600.00000
X47.14260 Y26.59400
X56.59140 Y26.56860
X58.75040 Y24.43500
X58.77580 Y22.96180
X59.00440 Y22.96180
X59.00440 Y22.55540
X60.40140 Y22.53000
X62.58580 Y20.32020
X62.58580 Y10.61740
X59.96960 Y7.97580
X58.39480 Y7.95040
X57.32800 Y6.88360
X57.48040 Y6.83280
X57.70900 Y6.65500
X57.70900 Y6.60420
X57.86140 Y6.42640
X57.91220 Y6.19780
X57.91220 Y5.46120
X57.86140 Y5.23260
X57.60740 Y4.90240
X57.50580 Y4.87700
X57.37880 Y4.77540
X57.12480 Y4.72460
X56.79460 Y4.72460
X56.54060 Y4.77540
X56.41360 Y4.87700
X56.31200 Y4.90240
X56.21040 Y5.00400
X56.15960 Y5.13100
X56.08340 Y5.18180
X56.00720 Y5.46120
X56.00720 Y6.19780
X56.05800 Y6.42640
X56.15960 Y6.52800
X56.21040 Y6.65500
X56.43900 Y6.83280
X56.69300 Y6.90900
X56.71840 Y7.16300
X58.03920 Y8.48380
X59.61400 Y8.50920
X62.02700 Y10.92220
X62.02700 Y20.01540
X60.04580 Y21.99660
X59.00440 Y21.99660
X59.00440 Y21.61560
X57.96300 Y21.61560
X57.96300 Y22.96180
X58.21700 Y22.96180
X58.21700 Y24.07940
X56.28660 Y26.00980
X47.14260 Y26.00980
X47.14260 Y25.90820
X45.79640 Y25.90820
X45.79640 Y26.69560
X47.14260 Y26.69560
X47.14260 Y26.59400
G04 P0 ( dwell for no time -- G64 should not smooth over this point )
G00 Z5.00000 ( retract )

G00 X47.14260 Y27.40680 ( rapid move to begin. )
F300.00000
G01 Z-0.05000
G04 P0 ( dwell for no time -- G64 should not smooth over this point )
F600.00000
X47.14260 Y27.40680
X57.30260 Y27.38140
X63.57640 Y21.13300
X63.60180 Y10.10940
X60.19820 Y6.70580
X60.29980 Y6.52800
X60.37600 Y6.47720
X60.42680 Y6.32480
X60.45220 Y5.46120
X60.37600 Y5.18180
X60.29980 Y5.13100
X60.24900 Y5.00400
X60.02040 Y4.82620
X59.66480 Y4.72460
X59.33460 Y4.72460
X59.08060 Y4.77540
X58.95360 Y4.87700
X58.85200 Y4.90240
X58.75040 Y5.00400
X58.75040 Y5.05480
X58.59800 Y5.23260
X58.54720 Y5.46120
X58.54720 Y6.19780
X58.62340 Y6.47720
X58.69960 Y6.52800
X58.69960 Y6.57880
X58.85200 Y6.75660
X58.95360 Y6.78200
X59.08060 Y6.88360
X59.56320 Y6.93440
X63.04300 Y10.41420
X63.04300 Y20.77740
X56.99780 Y26.82260
X47.14260 Y26.82260
X47.14260 Y26.72100
X45.79640 Y26.72100
X45.79640 Y27.50840
X47.14260 Y27.50840
X47.14260 Y27.40680
G04 P0 ( dwell for no time -- G64 should not smooth over this point )
G00 Z5.00000 ( retract )

G00 X47.14260 Y28.19420 ( rapid move to begin. )
F300.00000
G01 Z-0.05000
G04 P0 ( dwell for no time -- G64 should not smooth over this point )
F600.00000
X47.14260 Y28.19420
X57.78520 Y28.16880
X64.33840 Y21.64100
X64.36380 Y8.07740
X62.83980 Y6.55340
X62.94140 Y6.42640
X62.99220 Y6.19780
X62.99220 Y5.46120
X62.91600 Y5.18180
X62.83980 Y5.13100
X62.83980 Y5.08020
X62.68740 Y4.90240
X62.58580 Y4.87700
X62.45880 Y4.77540
X62.20480 Y4.72460
X61.72220 Y4.75000
X61.39200 Y4.90240
X61.29040 Y5.00400
X61.23960 Y5.13100
X61.16340 Y5.18180
X61.11260 Y5.33420
X61.08720 Y6.19780
X61.16340 Y6.47720
X61.23960 Y6.52800
X61.23960 Y6.57880
X61.39200 Y6.75660
X61.49360 Y6.78200
X61.62060 Y6.88360
X61.87460 Y6.93440
X62.33180 Y6.90900
X63.80500 Y8.38220
X63.80500 Y21.28540
X57.48040 Y27.61000
X47.14260 Y27.61000
X47.14260 Y27.50840
X45.79640 Y27.50840
X45.79640 Y28.29580
X47.14260 Y28.29580
X47.14260 Y28.19420
G04 P0 ( dwell for no time -- G64 should not smooth over this point )
G00 Z5.00000 ( retract )

G00 X44.62800 Y24.63820 ( rapid move to begin. )
F300.00000
G01 Z-0.05000
G04 P0 ( dwell for no time -- G64 should not smooth over this point )
F600.00000
X44.62800 Y24.63820
X44.62800 Y23.39360
X44.52640 Y23.39360
X44.52640 Y16.02760
X49.50480 Y11.04920
X52.88300 Y11.04920
X52.88300 Y11.45560
X53.92440 Y11.45560
X53.92440 Y11.20160
X54.02600 Y11.15080
X54.81340 Y10.36340
X54.88960 Y10.18560
X54.88960 Y6.83280
X55.06740 Y6.75660
X55.16900 Y6.65500
X55.16900 Y6.60420
X55.32140 Y6.42640
X55.37220 Y6.19780
X55.37220 Y5.46120
X55.32140 Y5.23260
X55.21980 Y5.13100
X55.16900 Y5.00400
X54.94040 Y4.82620
X54.58480 Y4.72460
X54.25460 Y4.72460
X54.00060 Y4.77540
X53.87360 Y4.87700
X53.77200 Y4.90240
X53.51800 Y5.23260
X53.46720 Y5.46120
X53.46720 Y6.19780
X53.51800 Y6.42640
X53.77200 Y6.75660
X53.94980 Y6.83280
X53.94980 Y9.77920
X53.61960 Y10.10940
X52.88300 Y10.10940
X52.88300 Y10.49040
X49.14920 Y10.51580
X43.99300 Y15.67200
X43.96760 Y23.39360
X43.84060 Y23.39360
X43.84060 Y24.73980
X44.62800 Y24.73980
X44.62800 Y24.63820
G04 P0 ( dwell for no time -- G64 should not smooth over this point )
G00 Z5.00000 ( retract )

G00 X43.81520 Y24.63820 ( rapid move to begin. )
F300.00000
G01 Z-0.05000
G04 P0 ( dwell for no time -- G64 should not smooth over this point )
F600.00000
X43.81520 Y24.63820
X43.81520 Y23.39360
X43.71360 Y23.39360
X43.71360 Y15.57040
X52.14640 Y7.16300
X52.17180 Y6.90900
X52.40040 Y6.83280
X52.62900 Y6.65500
X52.62900 Y6.60420
X52.78140 Y6.42640
X52.83220 Y6.19780
X52.83220 Y5.46120
X52.78140 Y5.23260
X52.67980 Y5.13100
X52.62900 Y5.00400
X52.52740 Y4.90240
X52.42580 Y4.87700
X52.29880 Y4.77540
X52.04480 Y4.72460
X51.71460 Y4.72460
X51.46060 Y4.77540
X51.33360 Y4.87700
X51.23200 Y4.90240
X50.97800 Y5.23260
X50.92720 Y5.46120
X50.92720 Y6.19780
X50.97800 Y6.42640
X51.23200 Y6.75660
X51.33360 Y6.78200
X51.46060 Y6.88360
X51.53680 Y6.88360
X43.15480 Y15.26560
X43.15480 Y23.39360
X43.02780 Y23.39360
X43.02780 Y24.73980
X43.81520 Y24.73980
X43.81520 Y24.63820
G04 P0 ( dwell for no time -- G64 should not smooth over this point )
G00 Z5.00000 ( retract )

G00 X43.02780 Y24.63820 ( rapid move to begin. )
F300.00000
G01 Z-0.05000
G04 P0 ( dwell for no time -- G64 should not smooth over this point )
F600.00000
X43.02780 Y24.63820
X43.02780 Y23.39360
X42.92620 Y23.39360
X42.92620 Y15.34180
X49.60640 Y8.68700
X49.63180 Y6.90900
X49.86040 Y6.83280
X50.08900 Y6.65500
X50.08900 Y6.60420
X50.24140 Y6.42640
X50.29220 Y6.19780
X50.29220 Y5.46120
X50.24140 Y5.23260
X49.98740 Y4.90240
X49.88580 Y4.87700
X49.75880 Y4.77540
X49.50480 Y4.72460
X49.17460 Y4.72460
X48.92060 Y4.77540
X48.79360 Y4.87700
X48.69200 Y4.90240
X48.59040 Y5.00400
X48.59040 Y5.05480
X48.43800 Y5.23260
X48.38720 Y5.46120
X48.38720 Y6.19780
X48.43800 Y6.42640
X48.69200 Y6.75660
X48.79360 Y6.78200
X48.92060 Y6.88360
X49.07300 Y6.90900
X49.07300 Y8.33140
X42.36740 Y15.03700
X42.36740 Y23.39360
X42.24040 Y23.39360
X42.24040 Y24.73980
X43.02780 Y24.73980
X43.02780 Y24.63820
G04 P0 ( dwell for no time -- G64 should not smooth over this point )
G00 Z5.00000 ( retract )

G00 X42.21500 Y24.63820 ( rapid move to begin. )
F300.00000
G01 Z-0.05000
G04 P0 ( dwell for no time -- G64 should not smooth over this point )
F600.00000
X42.21500 Y24.63820
X42.21500 Y23.39360
X42.11340 Y23.39360
X42.11340 Y15.13860
X47.09180 Y10.16020
X47.09180 Y6.90900
X47.32040 Y6.83280
X47.54900 Y6.65500
X47.54900 Y6.60420
X47.70140 Y6.42640
X47.75220 Y6.19780
X47.75220 Y5.46120
X47.70140 Y5.23260
X47.44740 Y4.90240
X47.11720 Y4.75000
X46.63460 Y4.72460
X46.27900 Y4.82620
X46.25360 Y4.87700
X46.15200 Y4.90240
X46.05040 Y5.00400
X45.99960 Y5.13100
X45.92340 Y5.18180
X45.84720 Y5.46120
X45.84720 Y6.19780
X45.89800 Y6.42640
X46.15200 Y6.75660
X46.25360 Y6.78200
X46.38060 Y6.88360
X46.53300 Y6.90900
X46.53300 Y9.85540
X41.55460 Y14.83380
X41.55460 Y23.39360
X41.42760 Y23.39360
X41.42760 Y24.73980
X42.21500 Y24.73980
X42.21500 Y24.63820
G04 P0 ( dwell for no time -- G64 should not smooth over this point )
G00 Z5.00000 ( retract )

G00 X41.42760 Y24.63820 ( rapid move to begin. )
F300.00000
G01 Z-0.05000
G04 P0 ( dwell for no time -- G64 should not smooth over this point )
F600.00000
X41.42760 Y24.63820
X41.42760 Y23.39360
X41.32600 Y23.39360
X41.30060 Y20.21860
X34.39180 Y13.33520
X34.39180 Y6.90900
X34.51880 Y6.88360
X34.64580 Y6.78200
X34.74740 Y6.75660
X35.00140 Y6.42640
X35.05220 Y6.19780
X35.05220 Y5.46120
X34.97600 Y5.18180
X34.89980 Y5.13100
X34.84900 Y5.00400
X34.62040 Y4.82620
X34.26480 Y4.72460
X33.93460 Y4.72460
X33.68060 Y4.77540
X33.55360 Y4.87700
X33.45200 Y4.90240
X33.19800 Y5.23260
X33.14720 Y5.46120
X33.14720 Y6.19780
X33.19800 Y6.42640
X33.29960 Y6.52800
X33.35040 Y6.65500
X33.57900 Y6.83280
X33.83300 Y6.90900
X33.83300 Y13.64000
X40.76720 Y20.57420
X40.76720 Y23.39360
X40.64020 Y23.39360
X40.64020 Y24.73980
X41.42760 Y24.73980
X41.42760 Y24.63820
G04 P0 ( dwell for no time -- G64 should not smooth over this point )
G00 Z5.00000 ( retract )

G00 X40.61480 Y24.63820 ( rapid move to begin. )
F300.00000
G01 Z-0.05000
G04 P0 ( dwell for no time -- G64 should not smooth over this point )
F600.00000
X40.61480 Y24.63820
X40.61480 Y23.39360
X40.51320 Y23.39360
X40.48780 Y20.47260
X31.85180 Y11.86200
X31.85180 Y6.90900
X31.97880 Y6.88360
X32.10580 Y6.78200
X32.20740 Y6.75660
X32.46140 Y6.42640
X32.51220 Y6.19780
X32.51220 Y5.46120
X32.43600 Y5.18180
X32.35980 Y5.13100
X32.35980 Y5.08020
X32.23280 Y4.92780
X32.10580 Y4.87700
X32.08040 Y4.82620
X31.72480 Y4.72460
X31.39460 Y4.72460
X31.14060 Y4.77540
X31.01360 Y4.87700
X30.91200 Y4.90240
X30.65800 Y5.23260
X30.60720 Y5.46120
X30.60720 Y6.19780
X30.65800 Y6.42640
X30.75960 Y6.52800
X30.81040 Y6.65500
X31.03900 Y6.83280
X31.29300 Y6.90900
X31.29300 Y12.16680
X39.95440 Y20.82820
X39.95440 Y23.39360
X39.82740 Y23.39360
X39.82740 Y24.73980
X40.61480 Y24.73980
X40.61480 Y24.63820
G04 P0 ( dwell for no time -- G64 should not smooth over this point )
G00 Z5.00000 ( retract )

G00 X39.82740 Y24.63820 ( rapid move to begin. )
F300.00000
G01 Z-0.05000
G04 P0 ( dwell for no time -- G64 should not smooth over this point )
F600.00000
X39.82740 Y24.63820
X39.82740 Y23.39360
X39.72580 Y23.39360
X39.70040 Y20.98060
X29.31180 Y10.61740
X29.31180 Y6.90900
X29.43880 Y6.88360
X29.56580 Y6.78200
X29.66740 Y6.75660
X29.92140 Y6.42640
X29.97220 Y6.19780
X29.97220 Y5.46120
X29.92140 Y5.23260
X29.81980 Y5.13100
X29.76900 Y5.00400
X29.66740 Y4.90240
X29.56580 Y4.87700
X29.43880 Y4.77540
X29.18480 Y4.72460
X28.85460 Y4.72460
X28.49900 Y4.82620
X28.27040 Y5.00400
X28.27040 Y5.05480
X28.11800 Y5.23260
X28.06720 Y5.46120
X28.06720 Y6.19780
X28.11800 Y6.42640
X28.21960 Y6.52800
X28.27040 Y6.65500
X28.49900 Y6.83280
X28.75300 Y6.90900
X28.77840 Y10.97300
X39.16700 Y21.33620
X39.16700 Y23.39360
X39.04000 Y23.39360
X39.04000 Y24.73980
X39.82740 Y24.73980
X39.82740 Y24.63820
G04 P0 ( dwell for no time -- G64 should not smooth over this point )
G00 Z5.00000 ( retract )

G00 X38.65900 Y25.80660 ( rapid move to begin. )
F300.00000
G01 Z-0.05000
G04 P0 ( dwell for no time -- G64 should not smooth over this point )
F600.00000
X38.65900 Y25.80660
X38.65900 Y25.12080
X38.27800 Y25.12080
X38.25260 Y20.72660
X26.77180 Y9.27120
X26.77180 Y6.90900
X26.89880 Y6.88360
X27.02580 Y6.78200
X27.12740 Y6.75660
X27.38140 Y6.42640
X27.43220 Y6.19780
X27.40680 Y5.33420
X27.35600 Y5.18180
X27.27980 Y5.13100
X27.22900 Y5.00400
X27.12740 Y4.90240
X27.02580 Y4.87700
X26.89880 Y4.77540
X26.64480 Y4.72460
X26.31460 Y4.72460
X26.06060 Y4.77540
X25.93360 Y4.87700
X25.83200 Y4.90240
X25.73040 Y5.00400
X25.67960 Y5.13100
X25.60340 Y5.18180
X25.55260 Y5.33420
X25.52720 Y6.19780
X25.57800 Y6.42640
X25.67960 Y6.52800
X25.73040 Y6.65500
X25.95900 Y6.83280
X26.21300 Y6.90900
X26.23840 Y9.62680
X37.71920 Y21.08220
X37.71920 Y25.12080
X37.31280 Y25.12080
X37.31280 Y25.90820
X38.65900 Y25.90820
X38.65900 Y25.80660
G04 P0 ( dwell for no time -- G64 should not smooth over this point )
G00 Z5.00000 ( retract )

G00 X38.65900 Y26.59400 ( rapid move to begin. )
F300.00000
G01 Z-0.05000
G04 P0 ( dwell for no time -- G64 should not smooth over this point )
F600.00000
X38.65900 Y26.59400
X38.65900 Y25.90820
X37.31280 Y25.90820
X37.31280 Y25.98440
X36.67780 Y25.34940
X36.65240 Y20.47260
X24.23180 Y8.07740
X24.23180 Y6.90900
X24.35880 Y6.88360
X24.48580 Y6.78200
X24.58740 Y6.75660
X24.68900 Y6.65500
X24.73980 Y6.52800
X24.81600 Y6.47720
X24.86680 Y6.32480
X24.89220 Y5.46120
X24.84140 Y5.23260
X24.58740 Y4.90240
X24.25720 Y4.75000
X23.77460 Y4.72460
X23.52060 Y4.77540
X23.39360 Y4.87700
X23.29200 Y4.90240
X23.19040 Y5.00400
X23.13960 Y5.13100
X23.06340 Y5.18180
X23.01260 Y5.33420
X22.98720 Y6.19780
X23.03800 Y6.42640
X23.13960 Y6.52800
X23.19040 Y6.65500
X23.41900 Y6.83280
X23.67300 Y6.90900
X23.69840 Y8.43300
X36.11900 Y20.82820
X36.11900 Y25.65420
X36.98260 Y26.54320
X37.31280 Y26.56860
X37.31280 Y26.69560
X38.65900 Y26.69560
X38.65900 Y26.59400
G04 P0 ( dwell for no time -- G64 should not smooth over this point )
G00 Z5.00000 ( retract )

G00 X38.65900 Y27.40680 ( rapid move to begin. )
F300.00000
G01 Z-0.05000
G04 P0 ( dwell for no time -- G64 should not smooth over this point )
F600.00000
X38.65900 Y27.40680
X38.65900 Y26.72100
X37.31280 Y26.72100
X37.31280 Y26.82260
X37.13500 Y26.82260
X35.91580 Y25.60340
X35.89040 Y20.98060
X21.76800 Y6.88360
X22.04740 Y6.75660
X22.14900 Y6.65500
X22.19980 Y6.52800
X22.27600 Y6.47720
X22.32680 Y6.32480
X22.35220 Y5.46120
X22.30140 Y5.23260
X22.19980 Y5.13100
X22.14900 Y5.00400
X22.04740 Y4.90240
X21.94580 Y4.87700
X21.81880 Y4.77540
X21.56480 Y4.72460
X21.08220 Y4.75000
X20.75200 Y4.90240
X20.65040 Y5.00400
X20.59960 Y5.13100
X20.52340 Y5.18180
X20.44720 Y5.46120
X20.44720 Y6.19780
X20.49800 Y6.42640
X20.59960 Y6.52800
X20.65040 Y6.65500
X20.87900 Y6.83280
X21.13300 Y6.90900
X21.15840 Y7.16300
X35.35700 Y21.33620
X35.38240 Y25.95900
X36.83020 Y27.38140
X37.31280 Y27.38140
X37.31280 Y27.50840
X38.65900 Y27.50840
X38.65900 Y27.40680
G04 P0 ( dwell for no time -- G64 should not smooth over this point )
G00 Z5.00000 ( retract )

G00 X35.48400 Y30.58180 ( rapid move to begin. )
F300.00000
G01 Z-0.05000
G04 P0 ( dwell for no time -- G64 should not smooth over this point )
F600.00000
X35.48400 Y30.58180
X35.53480 Y30.58180
X35.68720 Y30.37860
X35.71260 Y29.92140
X35.86500 Y29.76900
X37.31280 Y29.76900
X37.31280 Y29.89600
X38.65900 Y29.89600
X38.65900 Y29.10860
X37.31280 Y29.10860
X37.31280 Y29.21020
X35.56020 Y29.21020
X35.28080 Y29.48960
X34.95060 Y29.48960
X34.69660 Y29.59120
X34.56960 Y29.74360
X34.51880 Y29.92140
X34.51880 Y30.25160
X34.62040 Y30.50560
X34.69660 Y30.58180
X34.79820 Y30.60720
X34.82360 Y30.65800
X34.95060 Y30.68340
X35.28080 Y30.68340
X35.40780 Y30.65800
X35.48400 Y30.58180
G04 P0 ( dwell for no time -- G64 should not smooth over this point )
G00 Z5.00000 ( retract )

G00 X33.70600 Y30.58180 ( rapid move to begin. )
F300.00000
G01 Z-0.05000
G04 P0 ( dwell for no time -- G64 should not smooth over this point )
F600.00000
X33.70600 Y30.58180
X33.75680 Y30.58180
X33.90920 Y30.37860
X33.93460 Y29.92140
X33.83300 Y29.66740
X33.62980 Y29.54040
X33.62980 Y28.98160
X37.31280 Y28.98160
X37.31280 Y29.10860
X38.65900 Y29.10860
X38.65900 Y28.32120
X37.31280 Y28.32120
X37.31280 Y28.42280
X28.93080 Y28.42280
X28.93080 Y28.21960
X28.72760 Y28.21960
X28.72760 Y26.72100
X29.18480 Y26.72100
X29.18480 Y25.67960
X27.33060 Y25.67960
X27.33060 Y26.72100
X27.78780 Y26.72100
X27.78780 Y28.21960
X27.58460 Y28.21960
X27.58460 Y29.15940
X28.93080 Y29.15940
X28.93080 Y28.98160
X33.07100 Y28.98160
X33.07100 Y29.51500
X32.91860 Y29.59120
X32.76620 Y29.79440
X32.74080 Y29.92140
X32.76620 Y30.37860
X32.84240 Y30.45480
X32.84240 Y30.50560
X32.91860 Y30.58180
X33.02020 Y30.60720
X33.04560 Y30.65800
X33.50280 Y30.68340
X33.62980 Y30.65800
X33.70600 Y30.58180
G04 P0 ( dwell for no time -- G64 should not smooth over this point )
G00 Z5.00000 ( retract )

G00 X41.22440 Y19.35500 ( rapid move to begin. )
F300.00000
G01 Z-0.05000
G04 P0 ( dwell for no time -- G64 should not smooth over this point )
F600.00000
X41.22440 Y19.35500
X41.22440 Y15.01160
X41.27520 Y14.78300
X41.63080 Y14.37660
X45.82180 Y10.18560
X45.87260 Y10.18560
X46.17740 Y9.88080
X46.20280 Y7.08680
X46.10120 Y6.98520
X45.92340 Y6.90900
X45.87260 Y6.83280
X45.59320 Y6.83280
X45.51700 Y6.90900
X45.46620 Y7.06140
X45.26300 Y7.23920
X45.16140 Y7.26460
X43.35800 Y7.26460
X43.18020 Y7.18840
X43.05320 Y7.06140
X42.97700 Y6.88360
X42.97700 Y4.77540
X43.00240 Y4.67380
X43.10400 Y4.57220
X43.10400 Y4.29280
X43.02780 Y4.21660
X37.31280 Y4.21660
X37.23660 Y4.29280
X37.23660 Y4.57220
X37.31280 Y4.64840
X37.36360 Y4.64840
X37.54140 Y4.82620
X37.54140 Y4.87700
X37.74460 Y5.05480
X37.84620 Y5.46120
X37.59220 Y5.48660
X37.54140 Y5.23260
X37.43980 Y5.13100
X37.38900 Y5.00400
X37.28740 Y4.90240
X37.18580 Y4.87700
X37.05880 Y4.77540
X36.80480 Y4.72460
X36.47460 Y4.72460
X36.11900 Y4.82620
X35.89040 Y5.00400
X35.89040 Y5.05480
X35.73800 Y5.23260
X35.68720 Y5.46120
X35.68720 Y6.19780
X35.73800 Y6.42640
X35.83960 Y6.52800
X35.89040 Y6.65500
X36.11900 Y6.83280
X36.29680 Y6.88360
X36.29680 Y7.16300
X35.91580 Y7.01060
X35.50940 Y6.55340
X35.23000 Y6.55340
X35.07760 Y6.73120
X35.02680 Y6.85820
X34.72200 Y7.08680
X34.72200 Y13.30980
X40.81800 Y19.43120
X41.14820 Y19.45660
X41.22440 Y19.35500
G04 P0 ( dwell for no time -- G64 should not smooth over this point )
G00 Z5.00000 ( retract )

G00 X45.21220 Y6.83280 ( rapid move to begin. )
F300.00000
G01 Z-0.05000
G04 P0 ( dwell for no time -- G64 should not smooth over this point )
F600.00000
X45.21220 Y6.83280
X45.21220 Y4.72460
X43.30720 Y4.72460
X43.30720 Y6.93440
X45.21220 Y6.93440
X45.21220 Y6.83280
G04 P0 ( dwell for no time -- G64 should not smooth over this point )
G00 Z5.00000 ( retract )

G00 X19.32960 Y6.83280 ( rapid move to begin. )
F300.00000
G01 Z-0.05000
G04 P0 ( dwell for no time -- G64 should not smooth over this point )
F600.00000
X19.32960 Y6.83280
X19.50740 Y6.75660
X19.76140 Y6.42640
X19.81220 Y6.19780
X19.81220 Y5.46120
X19.76140 Y5.23260
X19.50740 Y4.90240
X19.40580 Y4.87700
X19.27880 Y4.77540
X19.02480 Y4.72460
X18.69460 Y4.72460
X18.44060 Y4.77540
X18.31360 Y4.87700
X18.21200 Y4.90240
X17.95800 Y5.23260
X17.90720 Y5.46120
X17.90720 Y6.19780
X17.95800 Y6.42640
X18.21200 Y6.75660
X18.31360 Y6.78200
X18.44060 Y6.88360
X18.69460 Y6.93440
X19.02480 Y6.93440
X19.27880 Y6.88360
X19.32960 Y6.83280
G04 P0 ( dwell for no time -- G64 should not smooth over this point )
G00 Z5.00000 ( retract )

G00 X17.27220 Y6.83280 ( rapid move to begin. )
F300.00000
G01 Z-0.05000
G04 P0 ( dwell for no time -- G64 should not smooth over this point )
F600.00000
X17.27220 Y6.83280
X17.27220 Y4.72460
X15.36720 Y4.72460
X15.36720 Y6.93440
X17.27220 Y6.93440
X17.27220 Y6.83280
G04 P0 ( dwell for no time -- G64 should not smooth over this point )
G00 Z5.00000 ( retract )

G00 X6.95980 Y6.70580 ( rapid move to begin. )
F300.00000
G01 Z-0.05000
G04 P0 ( dwell for no time -- G64 should not smooth over this point )
F600.00000
X6.95980 Y6.70580
X7.16300 Y6.60420
X7.29000 Y6.47720
X7.34080 Y6.32480
X7.46780 Y6.17240
X7.51860 Y5.86760
X7.51860 Y5.53740
X7.46780 Y5.23260
X7.41700 Y5.20720
X7.29000 Y4.92780
X6.95980 Y4.67380
X6.62960 Y4.59760
X6.04540 Y4.62300
X5.68980 Y4.77540
X5.53740 Y4.92780
X5.41040 Y5.20720
X5.35960 Y5.23260
X5.30880 Y5.53740
X5.30880 Y5.86760
X5.35960 Y6.17240
X5.41040 Y6.19780
X5.53740 Y6.47720
X5.68980 Y6.62960
X5.84220 Y6.68040
X5.86760 Y6.73120
X6.19780 Y6.80740
X6.62960 Y6.80740
X6.95980 Y6.70580
G04 P0 ( dwell for no time -- G64 should not smooth over this point )
G00 Z5.00000 ( retract )

G00 X7.51860 Y15.84980 ( rapid move to begin. )
F300.00000
G01 Z-0.05000
G04 P0 ( dwell for no time -- G64 should not smooth over this point )
F600.00000
X7.51860 Y15.84980
X7.51860 Y13.74160
X5.30880 Y13.74160
X5.30880 Y15.95140
X7.51860 Y15.95140
X7.51860 Y15.84980
G04 P0 ( dwell for no time -- G64 should not smooth over this point )
G00 Z5.00000 ( retract )

G00 X6.95980 Y18.38980 ( rapid move to begin. )
F300.00000
G01 Z-0.05000
G04 P0 ( dwell for no time -- G64 should not smooth over this point )
F600.00000
X6.95980 Y18.38980
X7.16300 Y18.28820
X7.29000 Y18.16120
X7.34080 Y18.00880
X7.46780 Y17.85640
X7.51860 Y17.55160
X7.51860 Y17.22140
X7.46780 Y16.91660
X7.41700 Y16.89120
X7.29000 Y16.61180
X6.95980 Y16.35780
X6.62960 Y16.28160
X6.04540 Y16.30700
X5.68980 Y16.45940
X5.53740 Y16.61180
X5.41040 Y16.89120
X5.35960 Y16.91660
X5.30880 Y17.22140
X5.30880 Y17.55160
X5.35960 Y17.85640
X5.41040 Y17.88180
X5.53740 Y18.16120
X5.68980 Y18.31360
X5.84220 Y18.36440
X5.86760 Y18.41520
X6.19780 Y18.49140
X6.62960 Y18.49140
X6.95980 Y18.38980
G04 P0 ( dwell for no time -- G64 should not smooth over this point )
G00 Z5.00000 ( retract )

G00 X11.58260 Y15.84980 ( rapid move to begin. )
F300.00000
G01 Z-0.05000
G04 P0 ( dwell for no time -- G64 should not smooth over this point )
F600.00000
X11.58260 Y15.84980
X11.58260 Y13.74160
X9.37280 Y13.74160
X9.37280 Y15.95140
X11.58260 Y15.95140
X11.58260 Y15.84980

G04 P0 ( dwell for no time -- G64 should not smooth over this point )
G00 Z10.000 ( retract )

M5 ( Spindle off. )
M9 ( Coolant off. )
M2 ( Program end. )

