( pcb2gcode 1.3.0 )
( Software-independent Gcode )

G94 ( Millimeters per minute feed rate. )
G21 ( Units == Millimeters. )

G90 ( Absolute coordinates. )
S10000 ( RPM spindle speed. )
G64 P0.00200 ( set maximum deviation from commanded toolpath )
F600.00000 ( Feedrate. )

F600.00000 ( Feedrate. )
M3 ( Spindle on clockwise. )
G04 P0 ( dwell for no time -- G64 should not smooth over this point )
G00 Z5.00000 ( retract )

G00 X79.37640 Y77.87780 ( rapid move to begin. )
G01 Z-2.50000 F300.00000 ( plunge. )
G04 P0 ( dwell for no time -- G64 should not smooth over this point )
F600.00000
X79.37640 Y77.87780
X79.37640 Y0.17920
X79.32560 Y0.12840
X41.48970 Y0.12840
Z-0.60000
X37.98970 Y0.12840
Z-2.50000 
F300.00000
F600.00000
X0.15380 Y0.12840
X0.10300 Y0.17920
X0.10300 Y79.35100
X0.15380 Y79.40180
X37.98970 Y79.40180
Z-0.60000
X41.48970 Y79.40180
Z-2.50000 F300.00000
F600.00000
X79.32560 Y79.40180
X79.37640 Y79.35100
X79.37640 Y77.87780

G04 P0 ( dwell for no time -- G64 should not smooth over this point )
G00 Z10.000 ( retract )

M5 ( Spindle off. )
M9 ( Coolant off. )
M2 ( Program end. )

